%
(Header)
(Generated by gcodetools from Inkscape.)
(Using default header. To add your own header create file "header" in the output dir.)
M3
(Header end.)
G21 (All units in mm)

(Start cutting path id: path34)
(Change tool to Default tool)

G00 Z5.000000
G00 X530.215293 Y358.161072

G01 Z-0.125000 F100.0(Penetrate)
G01 X470.187853 Y364.372895 Z-0.125000 F400.000000
G02 X474.804243 Y379.297728 Z-0.125000 I92.264722 J-20.361979
G02 X479.998573 Y388.710857 Z-0.125000 I41.144850 J-16.564726
G02 X487.296727 Y396.549900 Z-0.125000 I34.753355 J-25.038579
G02 X498.431604 Y404.103776 Z-0.125000 I43.331105 J-51.889027
G02 X507.396978 Y407.865985 Z-0.125000 I23.196962 J-42.715153
G02 X522.199847 Y411.384050 Z-0.125000 I34.931909 J-114.080242
G02 X537.378138 Y413.267948 Z-0.125000 I28.484328 J-167.407479
G02 X554.906454 Y413.955736 Z-0.125000 I17.528316 J-223.011001
G02 X583.056926 Y412.995053 Z-0.125000 I0.000000 J-412.920881
G02 X600.268373 Y410.849824 Z-0.125000 I-10.606031 J-155.210987
G02 X616.473575 Y405.783520 Z-0.125000 I-12.316155 J-67.845072
G02 X628.815536 Y397.891939 Z-0.125000 I-21.339284 J-46.970202
G02 X635.599202 Y390.194816 Z-0.125000 I-23.450825 J-27.505663
G02 X641.470863 Y378.548297 Z-0.125000 I-48.364220 J-31.686480
G02 X645.025237 Y365.848393 Z-0.125000 I-75.936360 J-28.099958
G02 X646.098077 Y354.670028 Z-0.125000 I-57.699568 J-11.178365
G01 X646.098077 Y283.556964 Z-0.125000
G03 X646.565038 Y272.241076 Z-0.125000 I137.342654 J0.000000
G03 X647.564633 Y265.741425 Z-0.125000 I46.776163 J3.867113
G03 X649.494952 Y259.459179 Z-0.125000 I44.153385 J10.129141
G03 X653.974469 Y249.292495 Z-0.125000 I116.904217 J45.438679
G01 X595.021653 Y249.292495 Z-0.125000
G02 X591.686460 Y255.592274 Z-0.125000 I95.911499 J54.809662
G02 X590.394439 Y258.759323 Z-0.125000 I22.853123 J11.170169
G02 X589.500061 Y262.067631 Z-0.125000 I29.044062 J9.626909
G02 X588.232551 Y268.996416 Z-0.125000 I127.326486 J26.872656
G02 X575.151145 Y258.475307 Z-0.125000 I-72.363816 J76.580527
G02 X563.705750 Y252.323860 Z-0.125000 I-35.068046 J51.524292
G02 X546.681522 Y247.508742 Z-0.125000 I-31.343578 J78.314877
G02 X524.968587 Y245.652358 Z-0.125000 I-21.712935 J126.052944
G02 X497.191649 Y249.726839 Z-0.125000 I-0.000000 J96.719023
G02 X480.453719 Y258.995376 Z-0.125000 I12.911894 J43.065095
G02 X469.166876 Y274.109694 Z-0.125000 I30.054348 J34.215003
G02 X465.257213 Y291.893235 Z-0.125000 I38.490387 J17.783541
G02 X468.277960 Y309.061342 Z-0.125000 I50.296963 J-0.000000
G02 X476.205770 Y322.070314 Z-0.125000 I36.221500 J-13.153645
G02 X488.787137 Y330.995869 Z-0.125000 I27.580860 J-25.547630
G02 X516.637062 Y339.662228 Z-0.125000 I53.625260 J-123.246396
G03 X551.917384 Y346.901384 Z-0.125000 I-451.848362 J2291.690717
G03 X562.466767 Y349.439655 Z-0.125000 I-43.470706 J203.861371
G03 X572.856581 Y352.548422 Z-0.125000 I-49.168369 J183.241970
G03 X584.692601 Y356.794475 Z-0.125000 I-78.578341 J237.659502
G03 X583.120993 Y367.482549 Z-0.125000 I-37.129130 J-0.000000
G03 X579.901027 Y372.721606 Z-0.125000 I-11.492925 J-3.454606
G03 X574.517207 Y375.749831 Z-0.125000 I-8.667188 J-9.109215
G03 X563.086258 Y377.268661 Z-0.125000 I-11.430949 J-42.256131
G03 X548.100226 Y375.709074 Z-0.125000 I0.000000 J-72.780026
G03 X539.937520 Y372.411007 Z-0.125000 I5.159423 J-24.519923
G03 X535.065067 Y367.712663 Z-0.125000 I8.831840 J-14.034805
G03 X530.215293 Y358.161072 Z-0.125000 I34.615651 J-23.582951
G01 X530.215293 Y358.161072 Z-0.125000
G00 Z5.000000

(End cutting path id: path34)


(Start cutting path id: path34)
(Change tool to Default tool)

G00 Z5.000000
G00 X530.215293 Y358.161072

G01 Z-0.125000 F100.0(Penetrate)
G01 X470.187853 Y364.372895 Z-0.125000 F400.000000
G02 X474.804243 Y379.297728 Z-0.125000 I92.264722 J-20.361979
G02 X479.998573 Y388.710857 Z-0.125000 I41.144850 J-16.564726
G02 X487.296727 Y396.549900 Z-0.125000 I34.753355 J-25.038579
G02 X498.431604 Y404.103776 Z-0.125000 I43.331105 J-51.889027
G02 X507.396978 Y407.865985 Z-0.125000 I23.196962 J-42.715153
G02 X522.199847 Y411.384050 Z-0.125000 I34.931909 J-114.080242
G02 X537.378138 Y413.267948 Z-0.125000 I28.484328 J-167.407479
G02 X554.906454 Y413.955736 Z-0.125000 I17.528316 J-223.011001
G02 X583.056926 Y412.995053 Z-0.125000 I0.000000 J-412.920881
G02 X600.268373 Y410.849824 Z-0.125000 I-10.606031 J-155.210987
G02 X616.473575 Y405.783520 Z-0.125000 I-12.316155 J-67.845072
G02 X628.815536 Y397.891939 Z-0.125000 I-21.339284 J-46.970202
G02 X635.599202 Y390.194816 Z-0.125000 I-23.450825 J-27.505663
G02 X641.470863 Y378.548297 Z-0.125000 I-48.364220 J-31.686480
G02 X645.025237 Y365.848393 Z-0.125000 I-75.936360 J-28.099958
G02 X646.098077 Y354.670028 Z-0.125000 I-57.699568 J-11.178365
G01 X646.098077 Y283.556964 Z-0.125000
G03 X646.565038 Y272.241076 Z-0.125000 I137.342654 J0.000000
G03 X647.564633 Y265.741425 Z-0.125000 I46.776163 J3.867113
G03 X649.494952 Y259.459179 Z-0.125000 I44.153385 J10.129141
G03 X653.974469 Y249.292495 Z-0.125000 I116.904217 J45.438679
G01 X595.021653 Y249.292495 Z-0.125000
G02 X591.686460 Y255.592274 Z-0.125000 I95.911499 J54.809662
G02 X590.394439 Y258.759323 Z-0.125000 I22.853123 J11.170169
G02 X589.500061 Y262.067631 Z-0.125000 I29.044062 J9.626909
G02 X588.232551 Y268.996416 Z-0.125000 I127.326486 J26.872656
G02 X575.151145 Y258.475307 Z-0.125000 I-72.363816 J76.580527
G02 X563.705750 Y252.323860 Z-0.125000 I-35.068046 J51.524292
G02 X546.681522 Y247.508742 Z-0.125000 I-31.343578 J78.314877
G02 X524.968587 Y245.652358 Z-0.125000 I-21.712935 J126.052944
G02 X497.191649 Y249.726839 Z-0.125000 I-0.000000 J96.719023
G02 X480.453719 Y258.995376 Z-0.125000 I12.911894 J43.065095
G02 X469.166876 Y274.109694 Z-0.125000 I30.054348 J34.215003
G02 X465.257213 Y291.893235 Z-0.125000 I38.490387 J17.783541
G02 X468.277960 Y309.061342 Z-0.125000 I50.296963 J-0.000000
G02 X476.205770 Y322.070314 Z-0.125000 I36.221500 J-13.153645
G02 X488.787137 Y330.995869 Z-0.125000 I27.580860 J-25.547630
G02 X516.637062 Y339.662228 Z-0.125000 I53.625260 J-123.246396
G03 X551.917384 Y346.901384 Z-0.125000 I-451.848362 J2291.690717
G03 X562.466767 Y349.439655 Z-0.125000 I-43.470706 J203.861371
G03 X572.856581 Y352.548422 Z-0.125000 I-49.168369 J183.241970
G03 X584.692601 Y356.794475 Z-0.125000 I-78.578341 J237.659502
G03 X583.120993 Y367.482549 Z-0.125000 I-37.129130 J-0.000000
G03 X579.901027 Y372.721606 Z-0.125000 I-11.492925 J-3.454606
G03 X574.517207 Y375.749831 Z-0.125000 I-8.667188 J-9.109215
G03 X563.086258 Y377.268661 Z-0.125000 I-11.430949 J-42.256131
G03 X548.100226 Y375.709074 Z-0.125000 I0.000000 J-72.780026
G03 X539.937520 Y372.411007 Z-0.125000 I5.159423 J-24.519923
G03 X535.065067 Y367.712663 Z-0.125000 I8.831840 J-14.034805
G03 X530.215293 Y358.161072 Z-0.125000 I34.615651 J-23.582951
G01 X530.215293 Y358.161072 Z-0.125000
G00 Z5.000000

(End cutting path id: path34)


(Start cutting path id: path36)
(Change tool to Default tool)

G00 Z5.000000
G00 X584.692601 Y325.710451

G01 Z-0.125000 F100.0(Penetrate)
G02 X571.626641 Y321.476928 Z-0.125000 I-95.369898 J272.061391 F400.000000
G02 X557.687833 Y317.672353 Z-0.125000 I-89.458905 J300.314188
G03 X539.187739 Y311.521755 Z-0.125000 I37.523530 J-143.763338
G03 X533.464471 Y307.820366 Z-0.125000 I6.895498 J-16.937647
G03 X529.494680 Y302.262972 Z-0.125000 I12.580752 J-13.183318
G03 X528.217751 Y296.440303 Z-0.125000 I12.636939 J-5.822669
G03 X529.597259 Y289.782329 Z-0.125000 I16.756584 J0.000000
G03 X533.375964 Y284.538428 Z-0.125000 I13.850000 J5.996780
G03 X539.091162 Y281.327443 Z-0.125000 I10.143857 J11.363239
G03 X548.585110 Y279.916827 Z-0.125000 I9.493949 J31.243525
G03 X558.742994 Y281.196890 Z-0.125000 I-0.000000 J40.943756
G03 X568.105405 Y284.923574 Z-0.125000 I-9.783975 J38.203683
G03 X576.176598 Y290.854510 Z-0.125000 I-18.938361 J34.229885
G03 X580.912438 Y297.123594 Z-0.125000 I-16.842799 J17.646848
G03 X583.566246 Y304.606386 Z-0.125000 I-24.979347 J13.071037
G03 X584.692601 Y315.858491 Z-0.125000 I-55.640211 J11.252105
G01 X584.692601 Y325.710451 Z-0.125000
G00 Z5.000000

(End cutting path id: path36)


(Start cutting path id: path36)
(Change tool to Default tool)

G00 Z5.000000
G00 X584.692601 Y325.710451

G01 Z-0.125000 F100.0(Penetrate)
G02 X571.626641 Y321.476928 Z-0.125000 I-95.369898 J272.061391 F400.000000
G02 X557.687833 Y317.672353 Z-0.125000 I-89.458905 J300.314188
G03 X539.187739 Y311.521755 Z-0.125000 I37.523530 J-143.763338
G03 X533.464471 Y307.820366 Z-0.125000 I6.895498 J-16.937647
G03 X529.494680 Y302.262972 Z-0.125000 I12.580752 J-13.183318
G03 X528.217751 Y296.440303 Z-0.125000 I12.636939 J-5.822669
G03 X529.597259 Y289.782329 Z-0.125000 I16.756584 J0.000000
G03 X533.375964 Y284.538428 Z-0.125000 I13.850000 J5.996780
G03 X539.091162 Y281.327443 Z-0.125000 I10.143857 J11.363239
G03 X548.585110 Y279.916827 Z-0.125000 I9.493949 J31.243525
G03 X558.742994 Y281.196890 Z-0.125000 I-0.000000 J40.943756
G03 X568.105405 Y284.923574 Z-0.125000 I-9.783975 J38.203683
G03 X576.176598 Y290.854510 Z-0.125000 I-18.938361 J34.229885
G03 X580.912438 Y297.123594 Z-0.125000 I-16.842799 J17.646848
G03 X583.566246 Y304.606386 Z-0.125000 I-24.979347 J13.071037
G03 X584.692601 Y315.858491 Z-0.125000 I-55.640211 J11.252105
G01 X584.692601 Y325.710451 Z-0.125000
G00 Z5.000000

(End cutting path id: path36)


(Start cutting path id: path38)
(Change tool to Default tool)

G00 Z5.000000
G00 X685.859304 Y471.576716

G01 Z-0.125000 F100.0(Penetrate)
G01 X748.819843 Y471.576716 Z-0.125000 F400.000000
G01 X748.819843 Y249.292495 Z-0.125000
G01 X685.859304 Y249.292495 Z-0.125000
G01 X685.859304 Y471.576716 Z-0.125000
G00 Z5.000000

(End cutting path id: path38)


(Start cutting path id: path38)
(Change tool to Default tool)

G00 Z5.000000
G00 X685.859304 Y471.576716

G01 Z-0.125000 F100.0(Penetrate)
G01 X748.819843 Y471.576716 Z-0.125000 F400.000000
G01 X748.819843 Y249.292495 Z-0.125000
G01 X685.859304 Y249.292495 Z-0.125000
G01 X685.859304 Y471.576716 Z-0.125000
G00 Z5.000000

(End cutting path id: path38)


(Start cutting path id: path40)
(Change tool to Default tool)

G00 Z5.000000
G00 X789.453415 Y410.315612

G01 Z-0.125000 F100.0(Penetrate)
G01 X848.090138 Y410.315612 Z-0.125000 F400.000000
G01 X848.090138 Y386.822462 Z-0.125000
G02 X861.788246 Y400.174702 Z-0.125000 I83.380840 J-71.838090
G02 X873.666284 Y407.743913 Z-0.125000 I37.796427 J-46.207862
G02 X886.965887 Y412.192944 Z-0.125000 I24.254639 J-50.402078
G02 X904.792561 Y413.955736 Z-0.125000 I17.826674 J-89.256928
G02 X923.850500 Y411.888073 Z-0.125000 I0.000000 J-88.863672
G02 X935.855611 Y407.135154 Z-0.125000 I-8.645847 J-39.375977
G02 X945.895051 Y398.978745 Z-0.125000 I-23.011842 J-38.581278
G02 X954.554135 Y386.822462 Z-0.125000 I-44.001791 J-40.505197
G02 X970.271554 Y401.304779 Z-0.125000 I107.246339 J-100.622591
G02 X981.520969 Y408.278138 Z-0.125000 I35.319933 J-44.417629
G02 X994.057599 Y412.317094 Z-0.125000 I22.326594 J-47.824261
G02 X1011.572609 Y413.955736 Z-0.125000 I17.515010 J-92.787348
G02 X1036.032179 Y409.530194 Z-0.125000 I0.000000 J-69.805678
G02 X1052.711886 Y398.562817 Z-0.125000 I-15.768333 J-42.148563
G02 X1062.864901 Y381.316838 Z-0.125000 I-31.096603 J-29.918743
G02 X1067.503820 Y350.421119 Z-0.125000 I-100.565009 J-30.895719
G01 X1067.503820 Y249.292495 Z-0.125000
G01 X1004.555921 Y249.292495 Z-0.125000
G01 X1004.555921 Y341.028837 Z-0.125000
G03 X1003.193301 Y351.456727 Z-0.125000 I-40.582712 J-0.000000
G03 X1000.244773 Y357.254141 Z-0.125000 I-15.032223 J-3.996787
G03 X992.908524 Y363.510798 Z-0.125000 I-17.827915 J-13.474746
G03 X984.567854 Y365.590412 Z-0.125000 I-8.340669 J-15.686079
G03 X974.466886 Y363.456429 Z-0.125000 I-0.000000 J-24.972887
G03 X966.729035 Y357.701393 Z-0.125000 I8.815279 J-19.931884
G03 X962.141749 Y349.011310 Z-0.125000 I16.786088 J-14.416775
G03 X959.952560 Y332.381967 Z-0.125000 I62.064659 J-16.629343
G01 X959.952560 Y249.292495 Z-0.125000
G01 X897.004661 Y249.292495 Z-0.125000
G01 X897.004661 Y337.997472 Z-0.125000
G03 X896.550087 Y348.538638 Z-0.125000 I-122.447353 J0.000000
G03 X895.765678 Y352.396487 Z-0.125000 I-17.179873 J-1.484480
G03 X892.973227 Y357.898288 Z-0.125000 I-19.695770 J-6.537073
G03 X888.799563 Y362.173901 Z-0.125000 I-15.817763 J-11.265720
G03 X883.503942 Y364.904886 Z-0.125000 I-10.725671 J-14.298189
G03 X877.180954 Y365.888584 Z-0.125000 I-6.322988 J-19.829518
G03 X867.318404 Y363.769034 Z-0.125000 I0.000000 J-24.005659
G03 X859.380068 Y357.850472 Z-0.125000 I9.435502 J-20.938441
G03 X854.675689 Y348.966229 Z-0.125000 I16.759750 J-14.562265
G03 X852.401287 Y331.475036 Z-0.125000 I66.120437 J-17.491193
G01 X852.401287 Y249.292495 Z-0.125000
G01 X789.453415 Y249.292495 Z-0.125000
G01 X789.453415 Y410.315612 Z-0.125000
G00 Z5.000000

(End cutting path id: path40)


(Start cutting path id: path40)
(Change tool to Default tool)

G00 Z5.000000
G00 X789.453415 Y410.315612

G01 Z-0.125000 F100.0(Penetrate)
G01 X848.090138 Y410.315612 Z-0.125000 F400.000000
G01 X848.090138 Y386.822462 Z-0.125000
G02 X861.788246 Y400.174702 Z-0.125000 I83.380840 J-71.838090
G02 X873.666284 Y407.743913 Z-0.125000 I37.796427 J-46.207862
G02 X886.965887 Y412.192944 Z-0.125000 I24.254639 J-50.402078
G02 X904.792561 Y413.955736 Z-0.125000 I17.826674 J-89.256928
G02 X923.850500 Y411.888073 Z-0.125000 I0.000000 J-88.863672
G02 X935.855611 Y407.135154 Z-0.125000 I-8.645847 J-39.375977
G02 X945.895051 Y398.978745 Z-0.125000 I-23.011842 J-38.581278
G02 X954.554135 Y386.822462 Z-0.125000 I-44.001791 J-40.505197
G02 X970.271554 Y401.304779 Z-0.125000 I107.246339 J-100.622591
G02 X981.520969 Y408.278138 Z-0.125000 I35.319933 J-44.417629
G02 X994.057599 Y412.317094 Z-0.125000 I22.326594 J-47.824261
G02 X1011.572609 Y413.955736 Z-0.125000 I17.515010 J-92.787348
G02 X1036.032179 Y409.530194 Z-0.125000 I0.000000 J-69.805678
G02 X1052.711886 Y398.562817 Z-0.125000 I-15.768333 J-42.148563
G02 X1062.864901 Y381.316838 Z-0.125000 I-31.096603 J-29.918743
G02 X1067.503820 Y350.421119 Z-0.125000 I-100.565009 J-30.895719
G01 X1067.503820 Y249.292495 Z-0.125000
G01 X1004.555921 Y249.292495 Z-0.125000
G01 X1004.555921 Y341.028837 Z-0.125000
G03 X1003.193301 Y351.456727 Z-0.125000 I-40.582712 J-0.000000
G03 X1000.244773 Y357.254141 Z-0.125000 I-15.032223 J-3.996787
G03 X992.908524 Y363.510798 Z-0.125000 I-17.827915 J-13.474746
G03 X984.567854 Y365.590412 Z-0.125000 I-8.340669 J-15.686079
G03 X974.466886 Y363.456429 Z-0.125000 I-0.000000 J-24.972887
G03 X966.729035 Y357.701393 Z-0.125000 I8.815279 J-19.931884
G03 X962.141749 Y349.011310 Z-0.125000 I16.786088 J-14.416775
G03 X959.952560 Y332.381967 Z-0.125000 I62.064659 J-16.629343
G01 X959.952560 Y249.292495 Z-0.125000
G01 X897.004661 Y249.292495 Z-0.125000
G01 X897.004661 Y337.997472 Z-0.125000
G03 X896.550087 Y348.538638 Z-0.125000 I-122.447353 J0.000000
G03 X895.765678 Y352.396487 Z-0.125000 I-17.179873 J-1.484480
G03 X892.973227 Y357.898288 Z-0.125000 I-19.695770 J-6.537073
G03 X888.799563 Y362.173901 Z-0.125000 I-15.817763 J-11.265720
G03 X883.503942 Y364.904886 Z-0.125000 I-10.725671 J-14.298189
G03 X877.180954 Y365.888584 Z-0.125000 I-6.322988 J-19.829518
G03 X867.318404 Y363.769034 Z-0.125000 I0.000000 J-24.005659
G03 X859.380068 Y357.850472 Z-0.125000 I9.435502 J-20.938441
G03 X854.675689 Y348.966229 Z-0.125000 I16.759750 J-14.562265
G03 X852.401287 Y331.475036 Z-0.125000 I66.120437 J-17.491193
G01 X852.401287 Y249.292495 Z-0.125000
G01 X789.453415 Y249.292495 Z-0.125000
G01 X789.453415 Y410.315612 Z-0.125000
G00 Z5.000000

(End cutting path id: path40)


(Start cutting path id: path30)
(Change tool to Default tool)

G00 Z5.000000
G00 X384.457868 Y312.367447

G01 Z-0.125000 F100.0(Penetrate)
G01 X444.169229 Y305.695931 Z-0.125000 F400.000000
G02 X437.462739 Y288.265207 Z-0.125000 I-86.151766 J23.141458
G02 X427.961312 Y273.928616 Z-0.125000 I-67.852954 J34.652059
G02 X415.417407 Y262.244464 Z-0.125000 I-53.732272 J45.110504
G02 X399.186589 Y253.081712 Z-0.125000 I-48.299065 J66.599601
G02 X381.231723 Y247.851434 Z-0.125000 I-30.991228 J72.955370
G02 X354.671708 Y245.652358 Z-0.125000 I-26.560015 J159.293831
G02 X328.790987 Y247.069440 Z-0.125000 I-0.000000 J237.043424
G02 X311.231463 Y250.423052 Z-0.125000 I12.317417 J112.141699
G02 X294.766117 Y256.862228 Z-0.125000 I22.469322 J81.726374
G02 X281.382103 Y265.865664 Z-0.125000 I32.316154 J62.489107
G02 X270.187329 Y277.566780 Z-0.125000 I52.958078 J61.872153
G02 X261.785955 Y290.949037 Z-0.125000 I60.473282 J47.293412
G02 X256.828150 Y305.835782 Z-0.125000 I51.270892 J25.343928
G02 X254.680761 Y329.126962 Z-0.125000 I125.237609 J23.291181
G02 X257.186249 Y353.355229 Z-0.125000 I118.397366 J-0.000000
G02 X263.328364 Y370.485345 Z-0.125000 I64.658053 J-13.517363
G02 X270.675784 Y381.790210 Z-0.125000 I62.522046 J-32.595122
G02 X280.610905 Y392.214327 Z-0.125000 I63.179214 J-50.268879
G02 X292.150536 Y400.878766 Z-0.125000 I61.275074 J-69.591803
G02 X303.140152 Y406.538823 Z-0.125000 I36.665687 J-57.691631
G02 X321.930200 Y411.742067 Z-0.125000 I32.150853 J-79.574633
G02 X350.196213 Y413.955736 Z-0.125000 I28.266013 J-179.355408
G02 X388.981791 Y409.545559 Z-0.125000 I-0.000000 J-172.756173
G02 X411.374116 Y399.854880 Z-0.125000 I-15.133319 J-65.685076
G02 X428.766866 Y383.007191 Z-0.125000 I-37.734604 J-56.356969
G02 X440.932704 Y358.608324 Z-0.125000 I-69.852164 J-50.062419
G01 X381.828182 Y350.880798 Z-0.125000
G03 X377.660617 Y360.221315 Z-0.125000 I-31.546814 J-8.475597
G03 X371.726689 Y366.422796 Z-0.125000 I-19.401865 J-12.625104
G03 X363.889329 Y370.108887 Z-0.125000 I-14.040255 J-19.677432
G03 X352.054688 Y371.653156 Z-0.125000 I-11.834641 J-44.575779
G03 X337.810346 Y368.691687 Z-0.125000 I0.000000 J-35.737599
G03 X326.819902 Y360.683065 Z-0.125000 I12.432398 J-28.606859
G03 X320.177056 Y348.577438 Z-0.125000 I23.816445 J-20.944456
G03 X317.173541 Y327.449767 Z-0.125000 I72.807589 J-21.127671
G03 X320.069811 Y308.762551 Z-0.125000 I61.734638 J-0.000000
G03 X326.744035 Y297.334807 Z-0.125000 I28.760815 J9.134508
G03 X337.505569 Y289.802367 Z-0.125000 I22.927931 J21.303267
G03 X351.119117 Y287.048008 Z-0.125000 I13.613548 J32.265613
G03 X362.892024 Y288.769011 Z-0.125000 I-0.000000 J41.128103
G03 X371.878395 Y293.259845 Z-0.125000 I-8.346683 J27.938601
G03 X378.783795 Y300.555281 Z-0.125000 I-17.152623 J23.151417
G03 X384.457868 Y312.367447 Z-0.125000 I-40.673226 J26.806603
G01 X384.457868 Y312.367447 Z-0.125000
G00 Z5.000000

(End cutting path id: path30)


(Start cutting path id: path30)
(Change tool to Default tool)

G00 Z5.000000
G00 X384.457868 Y312.367447

G01 Z-0.125000 F100.0(Penetrate)
G01 X444.169229 Y305.695931 Z-0.125000 F400.000000
G02 X437.462739 Y288.265207 Z-0.125000 I-86.151766 J23.141458
G02 X427.961312 Y273.928616 Z-0.125000 I-67.852954 J34.652059
G02 X415.417407 Y262.244464 Z-0.125000 I-53.732272 J45.110504
G02 X399.186589 Y253.081712 Z-0.125000 I-48.299065 J66.599601
G02 X381.231723 Y247.851434 Z-0.125000 I-30.991228 J72.955370
G02 X354.671708 Y245.652358 Z-0.125000 I-26.560015 J159.293831
G02 X328.790987 Y247.069440 Z-0.125000 I-0.000000 J237.043424
G02 X311.231463 Y250.423052 Z-0.125000 I12.317417 J112.141699
G02 X294.766117 Y256.862228 Z-0.125000 I22.469322 J81.726374
G02 X281.382103 Y265.865664 Z-0.125000 I32.316154 J62.489107
G02 X270.187329 Y277.566780 Z-0.125000 I52.958078 J61.872153
G02 X261.785955 Y290.949037 Z-0.125000 I60.473282 J47.293412
G02 X256.828150 Y305.835782 Z-0.125000 I51.270892 J25.343928
G02 X254.680761 Y329.126962 Z-0.125000 I125.237609 J23.291181
G02 X257.186249 Y353.355229 Z-0.125000 I118.397366 J-0.000000
G02 X263.328364 Y370.485345 Z-0.125000 I64.658053 J-13.517363
G02 X270.675784 Y381.790210 Z-0.125000 I62.522046 J-32.595122
G02 X280.610905 Y392.214327 Z-0.125000 I63.179214 J-50.268879
G02 X292.150536 Y400.878766 Z-0.125000 I61.275074 J-69.591803
G02 X303.140152 Y406.538823 Z-0.125000 I36.665687 J-57.691631
G02 X321.930200 Y411.742067 Z-0.125000 I32.150853 J-79.574633
G02 X350.196213 Y413.955736 Z-0.125000 I28.266013 J-179.355408
G02 X388.981791 Y409.545559 Z-0.125000 I-0.000000 J-172.756173
G02 X411.374116 Y399.854880 Z-0.125000 I-15.133319 J-65.685076
G02 X428.766866 Y383.007191 Z-0.125000 I-37.734604 J-56.356969
G02 X440.932704 Y358.608324 Z-0.125000 I-69.852164 J-50.062419
G01 X381.828182 Y350.880798 Z-0.125000
G03 X377.660617 Y360.221315 Z-0.125000 I-31.546814 J-8.475597
G03 X371.726689 Y366.422796 Z-0.125000 I-19.401865 J-12.625104
G03 X363.889329 Y370.108887 Z-0.125000 I-14.040255 J-19.677432
G03 X352.054688 Y371.653156 Z-0.125000 I-11.834641 J-44.575779
G03 X337.810346 Y368.691687 Z-0.125000 I0.000000 J-35.737599
G03 X326.819902 Y360.683065 Z-0.125000 I12.432398 J-28.606859
G03 X320.177056 Y348.577438 Z-0.125000 I23.816445 J-20.944456
G03 X317.173541 Y327.449767 Z-0.125000 I72.807589 J-21.127671
G03 X320.069811 Y308.762551 Z-0.125000 I61.734638 J-0.000000
G03 X326.744035 Y297.334807 Z-0.125000 I28.760815 J9.134508
G03 X337.505569 Y289.802367 Z-0.125000 I22.927931 J21.303267
G03 X351.119117 Y287.048008 Z-0.125000 I13.613548 J32.265613
G03 X362.892024 Y288.769011 Z-0.125000 I-0.000000 J41.128103
G03 X371.878395 Y293.259845 Z-0.125000 I-8.346683 J27.938601
G03 X378.783795 Y300.555281 Z-0.125000 I-17.152623 J23.151417
G03 X384.457868 Y312.367447 Z-0.125000 I-40.673226 J26.806603
G01 X384.457868 Y312.367447 Z-0.125000
G00 Z5.000000

(End cutting path id: path30)


(Footer)
M5
G00 X0.0000 Y0.0000
M2
(Using default footer. To add your own footer create file "footer" in the output dir.)
(end)
%