%
(Header)
(Generated by gcodetools from Inkscape.)
(Using default header. To add your own header create file "header" in the output dir.)
M3
(Header end.)
G21 (All units in mm)

(Start cutting path id: path70)
(Change tool to Default tool)

G00 Z5.000000
G00 X72.566929 Y30.614488

G01 Z-0.125000 F100.0(Penetrate)
G01 X70.866142 Y29.197165 Z-0.125000 F400.000000
G00 Z5.000000

(End cutting path id: path70)


(Start cutting path id: path70)
(Change tool to Default tool)

G00 Z5.000000
G00 X72.566929 Y30.614488

G01 Z-0.125000 F100.0(Penetrate)
G01 X70.866142 Y29.197165 Z-0.125000 F400.000000
G00 Z5.000000

(End cutting path id: path70)


(Start cutting path id: path68)
(Change tool to Default tool)

G00 Z5.000000
G00 X70.866142 Y29.197165

G01 Z-0.125000 F100.0(Penetrate)
G01 X69.165354 Y30.614488 Z-0.125000 F400.000000
G00 Z5.000000

(End cutting path id: path68)


(Start cutting path id: path68)
(Change tool to Default tool)

G00 Z5.000000
G00 X70.866142 Y29.197165

G01 Z-0.125000 F100.0(Penetrate)
G01 X69.165354 Y30.614488 Z-0.125000 F400.000000
G00 Z5.000000

(End cutting path id: path68)


(Start cutting path id: path56)
(Change tool to Default tool)

G00 Z5.000000
G00 X69.165354 Y30.614488

G01 Z-0.125000 F100.0(Penetrate)
G02 X43.245662 Y52.640751 Z-0.125000 I506.941352 J622.813649 F400.000000
G02 X32.208661 Y64.027874 Z-0.125000 I69.790434 J78.686954
G02 X24.747681 Y76.734535 Z-0.125000 I34.806424 J28.981081
G02 X22.677165 Y87.874331 Z-0.125000 I28.931923 J11.139796
G00 Z5.000000

(End cutting path id: path56)


(Start cutting path id: path56)
(Change tool to Default tool)

G00 Z5.000000
G00 X69.165354 Y30.614488

G01 Z-0.125000 F100.0(Penetrate)
G02 X43.245662 Y52.640751 Z-0.125000 I506.941352 J622.813649 F400.000000
G02 X32.208661 Y64.027874 Z-0.125000 I69.790434 J78.686954
G02 X24.747681 Y76.734535 Z-0.125000 I34.806424 J28.981081
G02 X22.677165 Y87.874331 Z-0.125000 I28.931923 J11.139796
G00 Z5.000000

(End cutting path id: path56)


(Start cutting path id: path58)
(Change tool to Default tool)

G00 Z5.000000
G00 X22.677165 Y87.874331

G01 Z-0.125000 F100.0(Penetrate)
G02 X30.149401 Y105.913906 Z-0.125000 I25.511811 J0.000000 F400.000000
G02 X48.188976 Y113.386142 Z-0.125000 I18.039575 J-18.039575
G00 Z5.000000

(End cutting path id: path58)


(Start cutting path id: path58)
(Change tool to Default tool)

G00 Z5.000000
G00 X22.677165 Y87.874331

G01 Z-0.125000 F100.0(Penetrate)
G02 X30.149401 Y105.913906 Z-0.125000 I25.511811 J0.000000 F400.000000
G02 X48.188976 Y113.386142 Z-0.125000 I18.039575 J-18.039575
G00 Z5.000000

(End cutting path id: path58)


(Start cutting path id: path60)
(Change tool to Default tool)

G00 Z5.000000
G00 X48.188976 Y113.386142

G01 Z-0.125000 F100.0(Penetrate)
G02 X63.527546 Y108.409092 Z-0.125000 I0.000000 J-26.124188 F400.000000
G02 X70.866142 Y101.764094 Z-0.125000 I-26.884752 J-37.065747
G00 Z5.000000

(End cutting path id: path60)


(Start cutting path id: path60)
(Change tool to Default tool)

G00 Z5.000000
G00 X48.188976 Y113.386142

G01 Z-0.125000 F100.0(Penetrate)
G02 X63.527546 Y108.409092 Z-0.125000 I0.000000 J-26.124188 F400.000000
G02 X70.866142 Y101.764094 Z-0.125000 I-26.884752 J-37.065747
G00 Z5.000000

(End cutting path id: path60)


(Start cutting path id: path62)
(Change tool to Default tool)

G00 Z5.000000
G00 X70.866142 Y101.764094

G01 Z-0.125000 F100.0(Penetrate)
G02 X78.204738 Y108.409092 Z-0.125000 I34.223352 J-30.420752 F400.000000
G02 X93.543307 Y113.386142 Z-0.125000 I15.338569 J-21.147136
G00 Z5.000000

(End cutting path id: path62)


(Start cutting path id: path62)
(Change tool to Default tool)

G00 Z5.000000
G00 X70.866142 Y101.764094

G01 Z-0.125000 F100.0(Penetrate)
G02 X78.204738 Y108.409092 Z-0.125000 I34.223352 J-30.420752 F400.000000
G02 X93.543307 Y113.386142 Z-0.125000 I15.338569 J-21.147136
G00 Z5.000000

(End cutting path id: path62)


(Start cutting path id: path64)
(Change tool to Default tool)

G00 Z5.000000
G00 X93.543307 Y113.386142

G01 Z-0.125000 F100.0(Penetrate)
G02 X111.582882 Y105.913906 Z-0.125000 I0.000000 J-25.511811 F400.000000
G02 X119.055118 Y87.874331 Z-0.125000 I-18.039575 J-18.039575
G00 Z5.000000

(End cutting path id: path64)


(Start cutting path id: path64)
(Change tool to Default tool)

G00 Z5.000000
G00 X93.543307 Y113.386142

G01 Z-0.125000 F100.0(Penetrate)
G02 X111.582882 Y105.913906 Z-0.125000 I0.000000 J-25.511811 F400.000000
G02 X119.055118 Y87.874331 Z-0.125000 I-18.039575 J-18.039575
G00 Z5.000000

(End cutting path id: path64)


(Start cutting path id: path66)
(Change tool to Default tool)

G00 Z5.000000
G00 X119.055118 Y87.874331

G01 Z-0.125000 F100.0(Penetrate)
G02 X116.984602 Y76.734535 Z-0.125000 I-31.002439 J0.000000 F400.000000
G02 X109.523622 Y64.027874 Z-0.125000 I-42.267404 J16.274421
G02 X98.486621 Y52.640751 Z-0.125000 I-80.827435 J67.299830
G02 X72.566929 Y30.614488 Z-0.125000 I-532.861044 J600.787386
G00 Z5.000000

(End cutting path id: path66)


(Start cutting path id: path66)
(Change tool to Default tool)

G00 Z5.000000
G00 X119.055118 Y87.874331

G01 Z-0.125000 F100.0(Penetrate)
G02 X116.984602 Y76.734535 Z-0.125000 I-31.002439 J0.000000 F400.000000
G02 X109.523622 Y64.027874 Z-0.125000 I-42.267404 J16.274421
G02 X98.486621 Y52.640751 Z-0.125000 I-80.827435 J67.299830
G02 X72.566929 Y30.614488 Z-0.125000 I-532.861044 J600.787386
G00 Z5.000000

(End cutting path id: path66)


(Start cutting path id: path46)
(Change tool to Default tool)

G00 Z5.000000
G00 X70.866142 Y36.567244

G01 Z-0.125000 F100.0(Penetrate)
G03 X94.611222 Y56.721120 Z-0.125000 I-472.072754 J580.256083 F400.000000
G03 X104.669292 Y67.004252 Z-0.125000 I-66.388711 J74.996220
G03 X111.559276 Y78.436213 Z-0.125000 I-31.959489 J27.054079
G03 X113.385827 Y87.874331 Z-0.125000 I-23.470947 J9.438118
G00 Z5.000000

(End cutting path id: path46)


(Start cutting path id: path46)
(Change tool to Default tool)

G00 Z5.000000
G00 X70.866142 Y36.567244

G01 Z-0.125000 F100.0(Penetrate)
G03 X94.611222 Y56.721120 Z-0.125000 I-472.072754 J580.256083 F400.000000
G03 X104.669292 Y67.004252 Z-0.125000 I-66.388711 J74.996220
G03 X111.559276 Y78.436213 Z-0.125000 I-31.959489 J27.054079
G03 X113.385827 Y87.874331 Z-0.125000 I-23.470947 J9.438118
G00 Z5.000000

(End cutting path id: path46)


(Start cutting path id: path48)
(Change tool to Default tool)

G00 Z5.000000
G00 X113.385827 Y87.874331

G01 Z-0.125000 F100.0(Penetrate)
G03 X107.574087 Y101.905111 Z-0.125000 I-19.842518 J0.000000 F400.000000
G03 X93.543307 Y107.716850 Z-0.125000 I-14.030780 J-14.030782
G00 Z5.000000

(End cutting path id: path48)


(Start cutting path id: path48)
(Change tool to Default tool)

G00 Z5.000000
G00 X113.385827 Y87.874331

G01 Z-0.125000 F100.0(Penetrate)
G03 X107.574087 Y101.905111 Z-0.125000 I-19.842518 J0.000000 F400.000000
G03 X93.543307 Y107.716850 Z-0.125000 I-14.030780 J-14.030782
G00 Z5.000000

(End cutting path id: path48)


(Start cutting path id: path50)
(Change tool to Default tool)

G00 Z5.000000
G00 X93.543307 Y107.716850

G01 Z-0.125000 F100.0(Penetrate)
G03 X80.718822 Y103.294602 Z-0.125000 I0.000000 J-20.806578 F400.000000
G03 X73.984252 Y96.945197 Z-0.125000 I31.100130 J-39.732964
G00 Z5.000000

(End cutting path id: path50)


(Start cutting path id: path50)
(Change tool to Default tool)

G00 Z5.000000
G00 X93.543307 Y107.716850

G01 Z-0.125000 F100.0(Penetrate)
G03 X80.718822 Y103.294602 Z-0.125000 I0.000000 J-20.806578 F400.000000
G03 X73.984252 Y96.945197 Z-0.125000 I31.100130 J-39.732964
G00 Z5.000000

(End cutting path id: path50)


(Start cutting path id: path54)
(Change tool to Default tool)

G00 Z5.000000
G00 X73.984252 Y96.945197

G01 Z-0.125000 F100.0(Penetrate)
G01 X70.866142 Y93.260157 Z-0.125000 F400.000000
G01 X67.748031 Y96.945197 Z-0.125000
G00 Z5.000000

(End cutting path id: path54)


(Start cutting path id: path54)
(Change tool to Default tool)

G00 Z5.000000
G00 X73.984252 Y96.945197

G01 Z-0.125000 F100.0(Penetrate)
G01 X70.866142 Y93.260157 Z-0.125000 F400.000000
G01 X67.748031 Y96.945197 Z-0.125000
G00 Z5.000000

(End cutting path id: path54)


(Start cutting path id: path52)
(Change tool to Default tool)

G00 Z5.000000
G00 X67.748031 Y96.945197

G01 Z-0.125000 F100.0(Penetrate)
G03 X61.013461 Y103.294602 Z-0.125000 I-37.834700 J-33.383559 F400.000000
G03 X48.188976 Y107.716850 Z-0.125000 I-12.824485 J-16.384331
G00 Z5.000000

(End cutting path id: path52)


(Start cutting path id: path52)
(Change tool to Default tool)

G00 Z5.000000
G00 X67.748031 Y96.945197

G01 Z-0.125000 F100.0(Penetrate)
G03 X61.013461 Y103.294602 Z-0.125000 I-37.834700 J-33.383559 F400.000000
G03 X48.188976 Y107.716850 Z-0.125000 I-12.824485 J-16.384331
G00 Z5.000000

(End cutting path id: path52)


(Start cutting path id: path42)
(Change tool to Default tool)

G00 Z5.000000
G00 X48.188976 Y107.716850

G01 Z-0.125000 F100.0(Penetrate)
G03 X34.158196 Y101.905111 Z-0.125000 I0.000000 J-19.842519 F400.000000
G03 X28.346457 Y87.874331 Z-0.125000 I14.030780 J-14.030780
G00 Z5.000000

(End cutting path id: path42)


(Start cutting path id: path42)
(Change tool to Default tool)

G00 Z5.000000
G00 X48.188976 Y107.716850

G01 Z-0.125000 F100.0(Penetrate)
G03 X34.158196 Y101.905111 Z-0.125000 I0.000000 J-19.842519 F400.000000
G03 X28.346457 Y87.874331 Z-0.125000 I14.030780 J-14.030780
G00 Z5.000000

(End cutting path id: path42)


(Start cutting path id: path44)
(Change tool to Default tool)

G00 Z5.000000
G00 X28.346457 Y87.874331

G01 Z-0.125000 F100.0(Penetrate)
G03 X30.173008 Y78.436213 Z-0.125000 I25.297498 J-0.000000 F400.000000
G03 X37.062992 Y67.004252 Z-0.125000 I38.849473 J15.622118
G03 X47.121062 Y56.721120 Z-0.125000 I76.446780 J64.713088
G03 X70.866142 Y36.567244 Z-0.125000 I495.817834 J560.102206
G00 Z5.000000

(End cutting path id: path44)


(Start cutting path id: path44)
(Change tool to Default tool)

G00 Z5.000000
G00 X28.346457 Y87.874331

G01 Z-0.125000 F100.0(Penetrate)
G03 X30.173008 Y78.436213 Z-0.125000 I25.297498 J-0.000000 F400.000000
G03 X37.062992 Y67.004252 Z-0.125000 I38.849473 J15.622118
G03 X47.121062 Y56.721120 Z-0.125000 I76.446780 J64.713088
G03 X70.866142 Y36.567244 Z-0.125000 I495.817834 J560.102206
G00 Z5.000000

(End cutting path id: path44)


(Footer)
M5
G00 X0.0000 Y0.0000
M2
(Using default footer. To add your own footer create file "footer" in the output dir.)
(end)
%