%
(Header)
(Generated by gcodetools from Inkscape.)
(Using default header. To add your own header create file "header" in the output dir.)
M3
(Header end.)
G21 (All units in mm)

(Start cutting path id: path1116)
(Change tool to Default tool)

G00 Z5.000000
G00 X489.734500 Y975.897220

G01 Z-0.125000 F100.0(Penetrate)
G01 X489.734500 Y975.194200 Z-0.125000 F400.000000
G01 X480.411460 Y975.194200 Z-0.125000
G00 Z5.000000

(End cutting path id: path1116)


(Start cutting path id: path1116)
(Change tool to Default tool)

G00 Z5.000000
G00 X489.734500 Y975.897220

G01 Z-0.125000 F100.0(Penetrate)
G01 X489.734500 Y975.194200 Z-0.125000 F400.000000
G01 X480.411460 Y975.194200 Z-0.125000
G00 Z5.000000

(End cutting path id: path1116)


(Start cutting path id: path1072)
(Change tool to Default tool)

G00 Z5.000000
G00 X480.411460 Y975.194200

G01 Z-0.125000 F100.0(Penetrate)
G03 X480.542175 Y974.383555 Z-0.125000 I4.823382 J0.361900 F400.000000
G03 X480.805980 Y973.622750 Z-0.125000 I4.398754 J1.099105
G00 Z5.000000

(End cutting path id: path1072)


(Start cutting path id: path1072)
(Change tool to Default tool)

G00 Z5.000000
G00 X480.411460 Y975.194200

G01 Z-0.125000 F100.0(Penetrate)
G03 X480.542175 Y974.383555 Z-0.125000 I4.823382 J0.361900 F400.000000
G03 X480.805980 Y973.622750 Z-0.125000 I4.398754 J1.099105
G00 Z5.000000

(End cutting path id: path1072)


(Start cutting path id: path1074)
(Change tool to Default tool)

G00 Z5.000000
G00 X480.805980 Y973.622750

G01 Z-0.125000 F100.0(Penetrate)
G03 X481.212435 Y972.917790 Z-0.125000 I4.436787 J2.088441 F400.000000
G03 X481.698830 Y972.340770 Z-0.125000 I3.293412 J2.282646
G00 Z5.000000

(End cutting path id: path1074)


(Start cutting path id: path1074)
(Change tool to Default tool)

G00 Z5.000000
G00 X480.805980 Y973.622750

G01 Z-0.125000 F100.0(Penetrate)
G03 X481.212435 Y972.917790 Z-0.125000 I4.436787 J2.088441 F400.000000
G03 X481.698830 Y972.340770 Z-0.125000 I3.293412 J2.282646
G00 Z5.000000

(End cutting path id: path1074)


(Start cutting path id: path1076)
(Change tool to Default tool)

G00 Z5.000000
G00 X481.698830 Y972.340770

G01 Z-0.125000 F100.0(Penetrate)
G03 X482.296965 Y971.858460 Z-0.125000 I2.953418 J3.050631 F400.000000
G03 X482.965430 Y971.493010 Z-0.125000 I2.412555 J3.618847
G00 Z5.000000

(End cutting path id: path1076)


(Start cutting path id: path1076)
(Change tool to Default tool)

G00 Z5.000000
G00 X481.698830 Y972.340770

G01 Z-0.125000 F100.0(Penetrate)
G03 X482.296965 Y971.858460 Z-0.125000 I2.953418 J3.050631 F400.000000
G03 X482.965430 Y971.493010 Z-0.125000 I2.412555 J3.618847
G00 Z5.000000

(End cutting path id: path1076)


(Start cutting path id: path1078)
(Change tool to Default tool)

G00 Z5.000000
G00 X482.965430 Y971.493010

G01 Z-0.125000 F100.0(Penetrate)
G03 X483.706105 Y971.263387 Z-0.125000 I1.469894 J3.431934 F400.000000
G03 X484.522730 Y971.182860 Z-0.125000 I0.816625 J4.100438
G00 Z5.000000

(End cutting path id: path1078)


(Start cutting path id: path1078)
(Change tool to Default tool)

G00 Z5.000000
G00 X482.965430 Y971.493010

G01 Z-0.125000 F100.0(Penetrate)
G03 X483.706105 Y971.263387 Z-0.125000 I1.469894 J3.431934 F400.000000
G03 X484.522730 Y971.182860 Z-0.125000 I0.816625 J4.100438
G00 Z5.000000

(End cutting path id: path1078)


(Start cutting path id: path1080)
(Change tool to Default tool)

G00 Z5.000000
G00 X484.522730 Y971.182860

G01 Z-0.125000 F100.0(Penetrate)
G03 X485.737966 Y971.340807 Z-0.125000 I-0.000000 J4.753966 F400.000000
G03 X486.702950 Y971.761820 Z-0.125000 I-0.883524 J3.341484
G00 Z5.000000

(End cutting path id: path1080)


(Start cutting path id: path1080)
(Change tool to Default tool)

G00 Z5.000000
G00 X484.522730 Y971.182860

G01 Z-0.125000 F100.0(Penetrate)
G03 X485.737966 Y971.340807 Z-0.125000 I-0.000000 J4.753966 F400.000000
G03 X486.702950 Y971.761820 Z-0.125000 I-0.883524 J3.341484
G00 Z5.000000

(End cutting path id: path1080)


(Start cutting path id: path1082)
(Change tool to Default tool)

G00 Z5.000000
G00 X486.702950 Y971.761820

G01 Z-0.125000 F100.0(Penetrate)
G03 X487.555994 Y972.436778 Z-0.125000 I-2.910538 J4.555014 F400.000000
G03 X488.114910 Y973.126500 Z-0.125000 I-2.589866 J2.670016
G00 Z5.000000

(End cutting path id: path1082)


(Start cutting path id: path1082)
(Change tool to Default tool)

G00 Z5.000000
G00 X486.702950 Y971.761820

G01 Z-0.125000 F100.0(Penetrate)
G03 X487.555994 Y972.436778 Z-0.125000 I-2.910538 J4.555014 F400.000000
G03 X488.114910 Y973.126500 Z-0.125000 I-2.589866 J2.670016
G00 Z5.000000

(End cutting path id: path1082)


(Start cutting path id: path1114)
(Change tool to Default tool)

G00 Z5.000000
G00 X488.114910 Y973.126500

G01 Z-0.125000 F100.0(Penetrate)
G01 X489.339980 Y972.113330 Z-0.125000 F400.000000
G00 Z5.000000

(End cutting path id: path1114)


(Start cutting path id: path1114)
(Change tool to Default tool)

G00 Z5.000000
G00 X488.114910 Y973.126500

G01 Z-0.125000 F100.0(Penetrate)
G01 X489.339980 Y972.113330 Z-0.125000 F400.000000
G00 Z5.000000

(End cutting path id: path1114)


(Start cutting path id: path1086)
(Change tool to Default tool)

G00 Z5.000000
G00 X489.339980 Y972.113330

G01 Z-0.125000 F100.0(Penetrate)
G02 X488.215694 Y970.982338 Z-0.125000 I-6.011963 J4.852010 F400.000000
G02 X487.118230 Y970.293750 Z-0.125000 I-3.296972 J4.035821
G00 Z5.000000

(End cutting path id: path1086)


(Start cutting path id: path1086)
(Change tool to Default tool)

G00 Z5.000000
G00 X489.339980 Y972.113330

G01 Z-0.125000 F100.0(Penetrate)
G02 X488.215694 Y970.982338 Z-0.125000 I-6.011963 J4.852010 F400.000000
G02 X487.118230 Y970.293750 Z-0.125000 I-3.296972 J4.035821
G00 Z5.000000

(End cutting path id: path1086)


(Start cutting path id: path1088)
(Change tool to Default tool)

G00 Z5.000000
G00 X487.118230 Y970.293750

G01 Z-0.125000 F100.0(Penetrate)
G02 X485.880770 Y969.895824 Z-0.125000 I-2.486124 J5.608208 F400.000000
G02 X484.522730 Y969.756150 Z-0.125000 I-1.358040 J6.532236
G00 Z5.000000

(End cutting path id: path1088)


(Start cutting path id: path1088)
(Change tool to Default tool)

G00 Z5.000000
G00 X487.118230 Y970.293750

G01 Z-0.125000 F100.0(Penetrate)
G02 X485.880770 Y969.895824 Z-0.125000 I-2.486124 J5.608208 F400.000000
G02 X484.522730 Y969.756150 Z-0.125000 I-1.358040 J6.532236
G00 Z5.000000

(End cutting path id: path1088)


(Start cutting path id: path1090)
(Change tool to Default tool)

G00 Z5.000000
G00 X484.522730 Y969.756150

G01 Z-0.125000 F100.0(Penetrate)
G02 X483.299404 Y969.870381 Z-0.125000 I0.000000 J6.607581 F400.000000
G02 X482.217930 Y970.190360 Z-0.125000 I1.030839 J5.471638
G00 Z5.000000

(End cutting path id: path1090)


(Start cutting path id: path1090)
(Change tool to Default tool)

G00 Z5.000000
G00 X484.522730 Y969.756150

G01 Z-0.125000 F100.0(Penetrate)
G02 X483.299404 Y969.870381 Z-0.125000 I0.000000 J6.607581 F400.000000
G02 X482.217930 Y970.190360 Z-0.125000 I1.030839 J5.471638
G00 Z5.000000

(End cutting path id: path1090)


(Start cutting path id: path1092)
(Change tool to Default tool)

G00 Z5.000000
G00 X482.217930 Y970.190360

G01 Z-0.125000 F100.0(Penetrate)
G02 X481.220375 Y970.733242 Z-0.125000 I2.297062 J5.408846 F400.000000
G02 X480.390700 Y971.430980 Z-0.125000 I2.925641 J4.321006
G00 Z5.000000

(End cutting path id: path1092)


(Start cutting path id: path1092)
(Change tool to Default tool)

G00 Z5.000000
G00 X482.217930 Y970.190360

G01 Z-0.125000 F100.0(Penetrate)
G02 X481.220375 Y970.733242 Z-0.125000 I2.297062 J5.408846 F400.000000
G02 X480.390700 Y971.430980 Z-0.125000 I2.925641 J4.321006
G00 Z5.000000

(End cutting path id: path1092)


(Start cutting path id: path1094)
(Change tool to Default tool)

G00 Z5.000000
G00 X480.390700 Y971.430980

G01 Z-0.125000 F100.0(Penetrate)
G02 X479.708537 Y972.273992 Z-0.125000 I3.983122 J3.920640 F400.000000
G02 X479.165620 Y973.291910 Z-0.125000 I5.175020 J3.413894
G00 Z5.000000

(End cutting path id: path1094)


(Start cutting path id: path1094)
(Change tool to Default tool)

G00 Z5.000000
G00 X480.390700 Y971.430980

G01 Z-0.125000 F100.0(Penetrate)
G02 X479.708537 Y972.273992 Z-0.125000 I3.983122 J3.920640 F400.000000
G02 X479.165620 Y973.291910 Z-0.125000 I5.175020 J3.413894
G00 Z5.000000

(End cutting path id: path1094)


(Start cutting path id: path1096)
(Change tool to Default tool)

G00 Z5.000000
G00 X479.165620 Y973.291910

G01 Z-0.125000 F100.0(Penetrate)
G02 X478.844426 Y974.385685 Z-0.125000 I5.218383 J2.126461 F400.000000
G02 X478.729580 Y975.628420 Z-0.125000 I6.666335 J1.242735
G00 Z5.000000

(End cutting path id: path1096)


(Start cutting path id: path1096)
(Change tool to Default tool)

G00 Z5.000000
G00 X479.165620 Y973.291910

G01 Z-0.125000 F100.0(Penetrate)
G02 X478.844426 Y974.385685 Z-0.125000 I5.218383 J2.126461 F400.000000
G02 X478.729580 Y975.628420 Z-0.125000 I6.666335 J1.242735
G00 Z5.000000

(End cutting path id: path1096)


(Start cutting path id: path1098)
(Change tool to Default tool)

G00 Z5.000000
G00 X478.729580 Y975.628420

G01 Z-0.125000 F100.0(Penetrate)
G02 X478.844678 Y976.864390 Z-0.125000 I6.693742 J0.000000 F400.000000
G02 X479.165620 Y977.944240 Z-0.125000 I5.374531 J-1.009746
G00 Z5.000000

(End cutting path id: path1098)


(Start cutting path id: path1098)
(Change tool to Default tool)

G00 Z5.000000
G00 X478.729580 Y975.628420

G01 Z-0.125000 F100.0(Penetrate)
G02 X478.844678 Y976.864390 Z-0.125000 I6.693742 J0.000000 F400.000000
G02 X479.165620 Y977.944240 Z-0.125000 I5.374531 J-1.009746
G00 Z5.000000

(End cutting path id: path1098)


(Start cutting path id: path1100)
(Change tool to Default tool)

G00 Z5.000000
G00 X479.165620 Y977.944240

G01 Z-0.125000 F100.0(Penetrate)
G02 X479.689143 Y978.957952 Z-0.125000 I5.893885 J-2.401806 F400.000000
G02 X480.349170 Y979.805170 Z-0.125000 I4.758248 J-3.026217
G00 Z5.000000

(End cutting path id: path1100)


(Start cutting path id: path1100)
(Change tool to Default tool)

G00 Z5.000000
G00 X479.165620 Y977.944240

G01 Z-0.125000 F100.0(Penetrate)
G02 X479.689143 Y978.957952 Z-0.125000 I5.893885 J-2.401806 F400.000000
G02 X480.349170 Y979.805170 Z-0.125000 I4.758248 J-3.026217
G00 Z5.000000

(End cutting path id: path1100)


(Start cutting path id: path1102)
(Change tool to Default tool)

G00 Z5.000000
G00 X480.349170 Y979.805170

G01 Z-0.125000 F100.0(Penetrate)
G02 X481.175473 Y980.496445 Z-0.125000 I3.799321 J-3.701955 F400.000000
G02 X482.155640 Y981.025120 Z-0.125000 I3.117009 J-4.606005
G00 Z5.000000

(End cutting path id: path1102)


(Start cutting path id: path1102)
(Change tool to Default tool)

G00 Z5.000000
G00 X480.349170 Y979.805170

G01 Z-0.125000 F100.0(Penetrate)
G02 X481.175473 Y980.496445 Z-0.125000 I3.799321 J-3.701955 F400.000000
G02 X482.155640 Y981.025120 Z-0.125000 I3.117009 J-4.606005
G00 Z5.000000

(End cutting path id: path1102)


(Start cutting path id: path1104)
(Change tool to Default tool)

G00 Z5.000000
G00 X482.155640 Y981.025120

G01 Z-0.125000 F100.0(Penetrate)
G02 X483.216628 Y981.361247 Z-0.125000 I2.158285 J-4.970081 F400.000000
G02 X484.377390 Y981.480010 Z-0.125000 I1.160762 J-5.613106
G00 Z5.000000

(End cutting path id: path1104)


(Start cutting path id: path1104)
(Change tool to Default tool)

G00 Z5.000000
G00 X482.155640 Y981.025120

G01 Z-0.125000 F100.0(Penetrate)
G02 X483.216628 Y981.361247 Z-0.125000 I2.158285 J-4.970081 F400.000000
G02 X484.377390 Y981.480010 Z-0.125000 I1.160762 J-5.613106
G00 Z5.000000

(End cutting path id: path1104)


(Start cutting path id: path1106)
(Change tool to Default tool)

G00 Z5.000000
G00 X484.377390 Y981.480010

G01 Z-0.125000 F100.0(Penetrate)
G02 X485.615438 Y981.355750 Z-0.125000 I-0.000000 J-6.229672 F400.000000
G02 X486.640660 Y981.025120 Z-0.125000 I-0.958574 J-4.727193
G00 Z5.000000

(End cutting path id: path1106)


(Start cutting path id: path1106)
(Change tool to Default tool)

G00 Z5.000000
G00 X484.377390 Y981.480010

G01 Z-0.125000 F100.0(Penetrate)
G02 X485.615438 Y981.355750 Z-0.125000 I-0.000000 J-6.229672 F400.000000
G02 X486.640660 Y981.025120 Z-0.125000 I-0.958574 J-4.727193
G00 Z5.000000

(End cutting path id: path1106)


(Start cutting path id: path1108)
(Change tool to Default tool)

G00 Z5.000000
G00 X486.640660 Y981.025120

G01 Z-0.125000 F100.0(Penetrate)
G02 X487.593126 Y980.482482 Z-0.125000 I-2.420819 J-5.356376 F400.000000
G02 X488.343310 Y979.825850 Z-0.125000 I-2.659843 J-3.795644
G00 Z5.000000

(End cutting path id: path1108)


(Start cutting path id: path1108)
(Change tool to Default tool)

G00 Z5.000000
G00 X486.640660 Y981.025120

G01 Z-0.125000 F100.0(Penetrate)
G02 X487.593126 Y980.482482 Z-0.125000 I-2.420819 J-5.356376 F400.000000
G02 X488.343310 Y979.825850 Z-0.125000 I-2.659843 J-3.795644
G00 Z5.000000

(End cutting path id: path1108)


(Start cutting path id: path1110)
(Change tool to Default tool)

G00 Z5.000000
G00 X488.343310 Y979.825850

G01 Z-0.125000 F100.0(Penetrate)
G02 X488.936139 Y979.024769 Z-0.125000 I-3.434566 J-3.161600 F400.000000
G02 X489.381510 Y978.068300 Z-0.125000 I-4.830281 J-2.831103
G00 Z5.000000

(End cutting path id: path1110)


(Start cutting path id: path1110)
(Change tool to Default tool)

G00 Z5.000000
G00 X488.343310 Y979.825850

G01 Z-0.125000 F100.0(Penetrate)
G02 X488.936139 Y979.024769 Z-0.125000 I-3.434566 J-3.161600 F400.000000
G02 X489.381510 Y978.068300 Z-0.125000 I-4.830281 J-2.831103
G00 Z5.000000

(End cutting path id: path1110)


(Start cutting path id: path1112)
(Change tool to Default tool)

G00 Z5.000000
G00 X489.381510 Y978.068300

G01 Z-0.125000 F100.0(Penetrate)
G02 X489.641767 Y977.037229 Z-0.125000 I-5.926154 J-2.044229 F400.000000
G02 X489.734500 Y975.897220 Z-0.125000 I-6.960974 J-1.140009
G00 Z5.000000

(End cutting path id: path1112)


(Start cutting path id: path1112)
(Change tool to Default tool)

G00 Z5.000000
G00 X489.381510 Y978.068300

G01 Z-0.125000 F100.0(Penetrate)
G02 X489.641767 Y977.037229 Z-0.125000 I-5.926154 J-2.044229 F400.000000
G02 X489.734500 Y975.897220 Z-0.125000 I-6.960974 J-1.140009
G00 Z5.000000

(End cutting path id: path1112)


(Start cutting path id: path1058)
(Change tool to Default tool)

G00 Z5.000000
G00 X488.011090 Y976.476170

G01 Z-0.125000 F100.0(Penetrate)
G03 X487.744445 Y977.961186 Z-0.125000 I-4.268551 J-0.000000 F400.000000
G03 X487.055940 Y979.060800 Z-0.125000 I-3.000727 J-1.113501
G00 Z5.000000

(End cutting path id: path1058)


(Start cutting path id: path1058)
(Change tool to Default tool)

G00 Z5.000000
G00 X488.011090 Y976.476170

G01 Z-0.125000 F100.0(Penetrate)
G03 X487.744445 Y977.961186 Z-0.125000 I-4.268551 J-0.000000 F400.000000
G03 X487.055940 Y979.060800 Z-0.125000 I-3.000727 J-1.113501
G00 Z5.000000

(End cutting path id: path1058)


(Start cutting path id: path1060)
(Change tool to Default tool)

G00 Z5.000000
G00 X487.055940 Y979.060800

G01 Z-0.125000 F100.0(Penetrate)
G03 X485.976436 Y979.766570 Z-0.125000 I-2.087399 J-2.014303 F400.000000
G03 X484.377390 Y980.053300 Z-0.125000 I-1.599046 J-4.315451
G00 Z5.000000

(End cutting path id: path1060)


(Start cutting path id: path1060)
(Change tool to Default tool)

G00 Z5.000000
G00 X487.055940 Y979.060800

G01 Z-0.125000 F100.0(Penetrate)
G03 X485.976436 Y979.766570 Z-0.125000 I-2.087399 J-2.014303 F400.000000
G03 X484.377390 Y980.053300 Z-0.125000 I-1.599046 J-4.315451
G00 Z5.000000

(End cutting path id: path1060)


(Start cutting path id: path1062)
(Change tool to Default tool)

G00 Z5.000000
G00 X484.377390 Y980.053300

G01 Z-0.125000 F100.0(Penetrate)
G03 X483.622419 Y979.975810 Z-0.125000 I-0.000000 J-3.716502 F400.000000
G03 X482.882380 Y979.743140 Z-0.125000 I0.788835 J-3.802234
G00 Z5.000000

(End cutting path id: path1062)


(Start cutting path id: path1062)
(Change tool to Default tool)

G00 Z5.000000
G00 X484.377390 Y980.053300

G01 Z-0.125000 F100.0(Penetrate)
G03 X483.622419 Y979.975810 Z-0.125000 I-0.000000 J-3.716502 F400.000000
G03 X482.882380 Y979.743140 Z-0.125000 I0.788835 J-3.802234
G00 Z5.000000

(End cutting path id: path1062)


(Start cutting path id: path1064)
(Change tool to Default tool)

G00 Z5.000000
G00 X482.882380 Y979.743140

G01 Z-0.125000 F100.0(Penetrate)
G03 X482.209494 Y979.395461 Z-0.125000 I1.757294 J-4.225987 F400.000000
G03 X481.636540 Y978.957410 Z-0.125000 I2.062041 J-3.290797
G00 Z5.000000

(End cutting path id: path1064)


(Start cutting path id: path1064)
(Change tool to Default tool)

G00 Z5.000000
G00 X482.882380 Y979.743140

G01 Z-0.125000 F100.0(Penetrate)
G03 X482.209494 Y979.395461 Z-0.125000 I1.757294 J-4.225987 F400.000000
G03 X481.636540 Y978.957410 Z-0.125000 I2.062041 J-3.290797
G00 Z5.000000

(End cutting path id: path1064)


(Start cutting path id: path1066)
(Change tool to Default tool)

G00 Z5.000000
G00 X481.636540 Y978.957410

G01 Z-0.125000 F100.0(Penetrate)
G03 X481.146182 Y978.418599 Z-0.125000 I2.615918 J-2.873216 F400.000000
G03 X480.764450 Y977.799500 Z-0.125000 I3.166596 J-2.379737
G00 Z5.000000

(End cutting path id: path1066)


(Start cutting path id: path1066)
(Change tool to Default tool)

G00 Z5.000000
G00 X481.636540 Y978.957410

G01 Z-0.125000 F100.0(Penetrate)
G03 X481.146182 Y978.418599 Z-0.125000 I2.615918 J-2.873216 F400.000000
G03 X480.764450 Y977.799500 Z-0.125000 I3.166596 J-2.379737
G00 Z5.000000

(End cutting path id: path1066)


(Start cutting path id: path1068)
(Change tool to Default tool)

G00 Z5.000000
G00 X480.764450 Y977.799500

G01 Z-0.125000 F100.0(Penetrate)
G03 X480.530149 Y977.139563 Z-0.125000 I2.882156 J-1.394828 F400.000000
G03 X480.452990 Y976.476170 Z-0.125000 I2.813255 J-0.663393
G00 Z5.000000

(End cutting path id: path1068)


(Start cutting path id: path1068)
(Change tool to Default tool)

G00 Z5.000000
G00 X480.764450 Y977.799500

G01 Z-0.125000 F100.0(Penetrate)
G03 X480.530149 Y977.139563 Z-0.125000 I2.882156 J-1.394828 F400.000000
G03 X480.452990 Y976.476170 Z-0.125000 I2.813255 J-0.663393
G00 Z5.000000

(End cutting path id: path1068)


(Start cutting path id: path1084)
(Change tool to Default tool)

G00 Z5.000000
G00 X480.452990 Y976.476170

G01 Z-0.125000 F100.0(Penetrate)
G01 X488.011090 Y976.476170 Z-0.125000 F400.000000
G00 Z5.000000

(End cutting path id: path1084)


(Start cutting path id: path1084)
(Change tool to Default tool)

G00 Z5.000000
G00 X480.452990 Y976.476170

G01 Z-0.125000 F100.0(Penetrate)
G01 X488.011090 Y976.476170 Z-0.125000 F400.000000
G00 Z5.000000

(End cutting path id: path1084)


(Start cutting path id: path1050)
(Change tool to Default tool)

G00 Z5.000000
G00 X475.604350 Y977.117160

G01 Z-0.125000 F100.0(Penetrate)
G01 X475.604350 Y970.045620 Z-0.125000 F400.000000
G01 X474.026280 Y970.045620 Z-0.125000
G01 X474.026280 Y976.207370 Z-0.125000
G00 Z5.000000

(End cutting path id: path1050)


(Start cutting path id: path1050)
(Change tool to Default tool)

G00 Z5.000000
G00 X475.604350 Y977.117160

G01 Z-0.125000 F100.0(Penetrate)
G01 X475.604350 Y970.045620 Z-0.125000 F400.000000
G01 X474.026280 Y970.045620 Z-0.125000
G01 X474.026280 Y976.207370 Z-0.125000
G00 Z5.000000

(End cutting path id: path1050)


(Start cutting path id: path1038)
(Change tool to Default tool)

G00 Z5.000000
G00 X474.026280 Y976.207370

G01 Z-0.125000 F100.0(Penetrate)
G03 X473.823988 Y978.009790 Z-0.125000 I-8.130922 J-0.000000 F400.000000
G03 X473.382600 Y979.060800 Z-0.125000 I-3.209120 J-0.729531
G00 Z5.000000

(End cutting path id: path1038)


(Start cutting path id: path1038)
(Change tool to Default tool)

G00 Z5.000000
G00 X474.026280 Y976.207370

G01 Z-0.125000 F100.0(Penetrate)
G03 X473.823988 Y978.009790 Z-0.125000 I-8.130922 J-0.000000 F400.000000
G03 X473.382600 Y979.060800 Z-0.125000 I-3.209120 J-0.729531
G00 Z5.000000

(End cutting path id: path1038)


(Start cutting path id: path1040)
(Change tool to Default tool)

G00 Z5.000000
G00 X473.382600 Y979.060800

G01 Z-0.125000 F100.0(Penetrate)
G03 X472.567119 Y979.739256 Z-0.125000 I-1.505657 J-0.980432 F400.000000
G03 X470.994740 Y980.053300 Z-0.125000 I-1.572379 J-3.779325
G00 Z5.000000

(End cutting path id: path1040)


(Start cutting path id: path1040)
(Change tool to Default tool)

G00 Z5.000000
G00 X473.382600 Y979.060800

G01 Z-0.125000 F100.0(Penetrate)
G03 X472.567119 Y979.739256 Z-0.125000 I-1.505657 J-0.980432 F400.000000
G03 X470.994740 Y980.053300 Z-0.125000 I-1.572379 J-3.779325
G00 Z5.000000

(End cutting path id: path1040)


(Start cutting path id: path1042)
(Change tool to Default tool)

G00 Z5.000000
G00 X470.994740 Y980.053300

G01 Z-0.125000 F100.0(Penetrate)
G03 X470.871031 Y980.043790 Z-0.125000 I0.000000 J-0.809351 F400.000000
G03 X470.309530 Y979.949910 Z-0.125000 I3.563188 J-23.037810
G00 Z5.000000

(End cutting path id: path1042)


(Start cutting path id: path1042)
(Change tool to Default tool)

G00 Z5.000000
G00 X470.994740 Y980.053300

G01 Z-0.125000 F100.0(Penetrate)
G03 X470.871031 Y980.043790 Z-0.125000 I0.000000 J-0.809351 F400.000000
G03 X470.309530 Y979.949910 Z-0.125000 I3.563188 J-23.037810
G00 Z5.000000

(End cutting path id: path1042)


(Start cutting path id: path1044)
(Change tool to Default tool)

G00 Z5.000000
G00 X470.309530 Y979.949910

G01 Z-0.125000 F100.0(Penetrate)
G03 X469.793895 Y979.797884 Z-0.125000 I0.317419 J-2.027076 F400.000000
G03 X469.146750 Y979.432990 Z-0.125000 I1.584556 J-3.566541
G00 Z5.000000

(End cutting path id: path1044)


(Start cutting path id: path1044)
(Change tool to Default tool)

G00 Z5.000000
G00 X470.309530 Y979.949910

G01 Z-0.125000 F100.0(Penetrate)
G03 X469.793895 Y979.797884 Z-0.125000 I0.317419 J-2.027076 F400.000000
G03 X469.146750 Y979.432990 Z-0.125000 I1.584556 J-3.566541
G00 Z5.000000

(End cutting path id: path1044)


(Start cutting path id: path1046)
(Change tool to Default tool)

G00 Z5.000000
G00 X469.146750 Y979.432990

G01 Z-0.125000 F100.0(Penetrate)
G03 X468.612467 Y978.934987 Z-0.125000 I1.643643 J-2.298988 F400.000000
G03 X468.067020 Y978.130330 Z-0.125000 I3.939241 J-3.257462
G00 Z5.000000

(End cutting path id: path1046)


(Start cutting path id: path1046)
(Change tool to Default tool)

G00 Z5.000000
G00 X469.146750 Y979.432990

G01 Z-0.125000 F100.0(Penetrate)
G03 X468.612467 Y978.934987 Z-0.125000 I1.643643 J-2.298988 F400.000000
G03 X468.067020 Y978.130330 Z-0.125000 I3.939241 J-3.257462
G00 Z5.000000

(End cutting path id: path1046)


(Start cutting path id: path1048)
(Change tool to Default tool)

G00 Z5.000000
G00 X468.067020 Y978.130330

G01 Z-0.125000 F100.0(Penetrate)
G03 X467.735882 Y977.239022 Z-0.125000 I2.607630 J-1.475949 F400.000000
G03 X467.589450 Y975.752480 Z-0.125000 I7.472273 J-1.486542
G00 Z5.000000

(End cutting path id: path1048)


(Start cutting path id: path1048)
(Change tool to Default tool)

G00 Z5.000000
G00 X468.067020 Y978.130330

G01 Z-0.125000 F100.0(Penetrate)
G03 X467.735882 Y977.239022 Z-0.125000 I2.607630 J-1.475949 F400.000000
G03 X467.589450 Y975.752480 Z-0.125000 I7.472273 J-1.486542
G00 Z5.000000

(End cutting path id: path1048)


(Start cutting path id: path1056)
(Change tool to Default tool)

G00 Z5.000000
G00 X467.589450 Y975.752480

G01 Z-0.125000 F100.0(Penetrate)
G01 X467.589450 Y970.045620 Z-0.125000 F400.000000
G01 X466.011380 Y970.045620 Z-0.125000
G01 X466.011380 Y978.729970 Z-0.125000
G00 Z5.000000

(End cutting path id: path1056)


(Start cutting path id: path1056)
(Change tool to Default tool)

G00 Z5.000000
G00 X467.589450 Y975.752480

G01 Z-0.125000 F100.0(Penetrate)
G01 X467.589450 Y970.045620 Z-0.125000 F400.000000
G01 X466.011380 Y970.045620 Z-0.125000
G01 X466.011380 Y978.729970 Z-0.125000
G00 Z5.000000

(End cutting path id: path1056)


(Start cutting path id: path1052)
(Change tool to Default tool)

G00 Z5.000000
G00 X466.011380 Y978.729970

G01 Z-0.125000 F100.0(Penetrate)
G03 X466.002653 Y979.181522 Z-0.125000 I-11.687134 J-0.000000 F400.000000
G03 X465.969880 Y979.867200 Z-0.125000 I-37.629794 J-1.454978
G00 Z5.000000

(End cutting path id: path1052)


(Start cutting path id: path1052)
(Change tool to Default tool)

G00 Z5.000000
G00 X466.011380 Y978.729970

G01 Z-0.125000 F100.0(Penetrate)
G03 X466.002653 Y979.181522 Z-0.125000 I-11.687134 J-0.000000 F400.000000
G03 X465.969880 Y979.867200 Z-0.125000 I-37.629794 J-1.454978
G00 Z5.000000

(End cutting path id: path1052)


(Start cutting path id: path1054)
(Change tool to Default tool)

G00 Z5.000000
G00 X465.969850 Y979.867200

G01 Z-0.125000 F100.0(Penetrate)
G02 X465.925198 Y980.567834 Z-0.125000 I112.881140 J7.545790 F400.000000
G03 X465.886750 Y981.190530 Z-0.125000 I-277.165358 J-16.800771
G00 Z5.000000

(End cutting path id: path1054)


(Start cutting path id: path1054)
(Change tool to Default tool)

G00 Z5.000000
G00 X465.969850 Y979.867200

G01 Z-0.125000 F100.0(Penetrate)
G02 X465.925198 Y980.567834 Z-0.125000 I112.881140 J7.545790 F400.000000
G03 X465.886750 Y981.190530 Z-0.125000 I-277.165358 J-16.800771
G00 Z5.000000

(End cutting path id: path1054)


(Start cutting path id: path1070)
(Change tool to Default tool)

G00 Z5.000000
G00 X465.886800 Y981.190530

G01 Z-0.125000 F100.0(Penetrate)
G01 X467.527150 Y981.190530 Z-0.125000 F400.000000
G00 Z5.000000

(End cutting path id: path1070)


(Start cutting path id: path1070)
(Change tool to Default tool)

G00 Z5.000000
G00 X465.886800 Y981.190530

G01 Z-0.125000 F100.0(Penetrate)
G01 X467.527150 Y981.190530 Z-0.125000 F400.000000
G00 Z5.000000

(End cutting path id: path1070)


(Start cutting path id: path1018)
(Change tool to Default tool)

G00 Z5.000000
G00 X467.527150 Y981.190530

G01 Z-0.125000 F100.0(Penetrate)
G02 X467.557926 Y980.733974 Z-0.125000 I-12.854781 J-1.095853 F400.000000
G02 X467.568650 Y980.301420 Z-0.125000 I-8.718478 J-0.432554
G00 Z5.000000

(End cutting path id: path1018)


(Start cutting path id: path1018)
(Change tool to Default tool)

G00 Z5.000000
G00 X467.527150 Y981.190530

G01 Z-0.125000 F100.0(Penetrate)
G02 X467.557926 Y980.733974 Z-0.125000 I-12.854781 J-1.095853 F400.000000
G02 X467.568650 Y980.301420 Z-0.125000 I-8.718478 J-0.432554
G00 Z5.000000

(End cutting path id: path1018)


(Start cutting path id: path1020)
(Change tool to Default tool)

G00 Z5.000000
G00 X467.568680 Y980.301420

G01 Z-0.125000 F100.0(Penetrate)
G02 X467.582891 Y979.864594 Z-0.125000 I-64.436848 J-2.314990 F400.000000
G02 X467.589480 Y979.412310 Z-0.125000 I-15.520566 J-0.452284
G00 Z5.000000

(End cutting path id: path1020)


(Start cutting path id: path1020)
(Change tool to Default tool)

G00 Z5.000000
G00 X467.568680 Y980.301420

G01 Z-0.125000 F100.0(Penetrate)
G02 X467.582891 Y979.864594 Z-0.125000 I-64.436848 J-2.314990 F400.000000
G02 X467.589480 Y979.412310 Z-0.125000 I-15.520566 J-0.452284
G00 Z5.000000

(End cutting path id: path1020)


(Start cutting path id: path1036)
(Change tool to Default tool)

G00 Z5.000000
G00 X467.589450 Y979.412310

G01 Z-0.125000 F100.0(Penetrate)
G01 X467.630950 Y979.412310 Z-0.125000 F400.000000
G00 Z5.000000

(End cutting path id: path1036)


(Start cutting path id: path1036)
(Change tool to Default tool)

G00 Z5.000000
G00 X467.589450 Y979.412310

G01 Z-0.125000 F100.0(Penetrate)
G01 X467.630950 Y979.412310 Z-0.125000 F400.000000
G00 Z5.000000

(End cutting path id: path1036)


(Start cutting path id: path1024)
(Change tool to Default tool)

G00 Z5.000000
G00 X467.630970 Y979.412310

G01 Z-0.125000 F100.0(Penetrate)
G02 X467.926596 Y979.840868 Z-0.125000 I3.127115 J-1.840891 F400.000000
G02 X468.295420 Y980.239390 Z-0.125000 I2.983890 J-2.391599
G00 Z5.000000

(End cutting path id: path1024)


(Start cutting path id: path1024)
(Change tool to Default tool)

G00 Z5.000000
G00 X467.630970 Y979.412310

G01 Z-0.125000 F100.0(Penetrate)
G02 X467.926596 Y979.840868 Z-0.125000 I3.127115 J-1.840891 F400.000000
G02 X468.295420 Y980.239390 Z-0.125000 I2.983890 J-2.391599
G00 Z5.000000

(End cutting path id: path1024)


(Start cutting path id: path1026)
(Change tool to Default tool)

G00 Z5.000000
G00 X468.295420 Y980.239390

G01 Z-0.125000 F100.0(Penetrate)
G02 X468.728476 Y980.583336 Z-0.125000 I2.958823 J-3.280798 F400.000000
G02 X469.209040 Y980.880380 Z-0.125000 I2.940381 J-4.219757
G00 Z5.000000

(End cutting path id: path1026)


(Start cutting path id: path1026)
(Change tool to Default tool)

G00 Z5.000000
G00 X468.295420 Y980.239390

G01 Z-0.125000 F100.0(Penetrate)
G02 X468.728476 Y980.583336 Z-0.125000 I2.958823 J-3.280798 F400.000000
G02 X469.209040 Y980.880380 Z-0.125000 I2.940381 J-4.219757
G00 Z5.000000

(End cutting path id: path1026)


(Start cutting path id: path1028)
(Change tool to Default tool)

G00 Z5.000000
G00 X469.209040 Y980.880380

G01 Z-0.125000 F100.0(Penetrate)
G02 X469.739281 Y981.133210 Z-0.125000 I2.230558 J-3.995551 F400.000000
G02 X470.288770 Y981.314590 Z-0.125000 I1.738591 J-4.344012
G00 Z5.000000

(End cutting path id: path1028)


(Start cutting path id: path1028)
(Change tool to Default tool)

G00 Z5.000000
G00 X469.209040 Y980.880380

G01 Z-0.125000 F100.0(Penetrate)
G02 X469.739281 Y981.133210 Z-0.125000 I2.230558 J-3.995551 F400.000000
G02 X470.288770 Y981.314590 Z-0.125000 I1.738591 J-4.344012
G00 Z5.000000

(End cutting path id: path1028)


(Start cutting path id: path1030)
(Change tool to Default tool)

G00 Z5.000000
G00 X470.288770 Y981.314590

G01 Z-0.125000 F100.0(Penetrate)
G02 X470.852356 Y981.439088 Z-0.125000 I1.234144 J-4.248908 F400.000000
G02 X471.389260 Y981.480010 Z-0.125000 I0.536904 J-3.501707
G00 Z5.000000

(End cutting path id: path1030)


(Start cutting path id: path1030)
(Change tool to Default tool)

G00 Z5.000000
G00 X470.288770 Y981.314590

G01 Z-0.125000 F100.0(Penetrate)
G02 X470.852356 Y981.439088 Z-0.125000 I1.234144 J-4.248908 F400.000000
G02 X471.389260 Y981.480010 Z-0.125000 I0.536904 J-3.501707
G00 Z5.000000

(End cutting path id: path1030)


(Start cutting path id: path1032)
(Change tool to Default tool)

G00 Z5.000000
G00 X471.389260 Y981.480010

G01 Z-0.125000 F100.0(Penetrate)
G02 X473.392132 Y981.130961 Z-0.125000 I0.000000 J-5.920850 F400.000000
G02 X474.566150 Y980.342770 Z-0.125000 I-0.981472 J-2.730363
G00 Z5.000000

(End cutting path id: path1032)


(Start cutting path id: path1032)
(Change tool to Default tool)

G00 Z5.000000
G00 X471.389260 Y981.480010

G01 Z-0.125000 F100.0(Penetrate)
G02 X473.392132 Y981.130961 Z-0.125000 I0.000000 J-5.920850 F400.000000
G02 X474.566150 Y980.342770 Z-0.125000 I-0.981472 J-2.730363
G00 Z5.000000

(End cutting path id: path1032)


(Start cutting path id: path1034)
(Change tool to Default tool)

G00 Z5.000000
G00 X474.566150 Y980.342770

G01 Z-0.125000 F100.0(Penetrate)
G02 X475.291764 Y979.104164 Z-0.125000 I-2.434691 J-2.258165 F400.000000
G02 X475.604350 Y977.117160 Z-0.125000 I-6.159071 J-1.987004
G00 Z5.000000

(End cutting path id: path1034)


(Start cutting path id: path1034)
(Change tool to Default tool)

G00 Z5.000000
G00 X474.566150 Y980.342770

G01 Z-0.125000 F100.0(Penetrate)
G02 X475.291764 Y979.104164 Z-0.125000 I-2.434691 J-2.258165 F400.000000
G02 X475.604350 Y977.117160 Z-0.125000 I-6.159071 J-1.987004
G00 Z5.000000

(End cutting path id: path1034)


(Start cutting path id: path1006)
(Change tool to Default tool)

G00 Z5.000000
G00 X463.764720 Y979.784490

G01 Z-0.125000 F100.0(Penetrate)
G03 X463.444657 Y979.868547 Z-0.125000 I-0.502241 J-1.261008 F400.000000
G03 X462.851100 Y979.908560 Z-0.125000 I-0.593557 J-4.382380
G00 Z5.000000

(End cutting path id: path1006)


(Start cutting path id: path1006)
(Change tool to Default tool)

G00 Z5.000000
G00 X463.764720 Y979.784490

G01 Z-0.125000 F100.0(Penetrate)
G03 X463.444657 Y979.868547 Z-0.125000 I-0.502241 J-1.261008 F400.000000
G03 X462.851100 Y979.908560 Z-0.125000 I-0.593557 J-4.382380
G00 Z5.000000

(End cutting path id: path1006)


(Start cutting path id: path1008)
(Change tool to Default tool)

G00 Z5.000000
G00 X462.851100 Y979.908560

G01 Z-0.125000 F100.0(Penetrate)
G03 X461.957543 Y979.808271 Z-0.125000 I-0.000000 J-4.030845 F400.000000
G03 X461.293800 Y979.557050 Z-0.125000 I0.570637 J-2.510102
G00 Z5.000000

(End cutting path id: path1008)


(Start cutting path id: path1008)
(Change tool to Default tool)

G00 Z5.000000
G00 X462.851100 Y979.908560

G01 Z-0.125000 F100.0(Penetrate)
G03 X461.957543 Y979.808271 Z-0.125000 I-0.000000 J-4.030845 F400.000000
G03 X461.293800 Y979.557050 Z-0.125000 I0.570637 J-2.510102
G00 Z5.000000

(End cutting path id: path1008)


(Start cutting path id: path1010)
(Change tool to Default tool)

G00 Z5.000000
G00 X461.293800 Y979.557050

G01 Z-0.125000 F100.0(Penetrate)
G03 X460.694896 Y979.166885 Z-0.125000 I1.623381 J-3.146634 F400.000000
G03 X460.214080 Y978.688610 Z-0.125000 I2.045510 J-2.537200
G00 Z5.000000

(End cutting path id: path1010)


(Start cutting path id: path1010)
(Change tool to Default tool)

G00 Z5.000000
G00 X461.293800 Y979.557050

G01 Z-0.125000 F100.0(Penetrate)
G03 X460.694896 Y979.166885 Z-0.125000 I1.623381 J-3.146634 F400.000000
G03 X460.214080 Y978.688610 Z-0.125000 I2.045510 J-2.537200
G00 Z5.000000

(End cutting path id: path1010)


(Start cutting path id: path1012)
(Change tool to Default tool)

G00 Z5.000000
G00 X460.214080 Y978.688610

G01 Z-0.125000 F100.0(Penetrate)
G03 X459.844694 Y978.121413 Z-0.125000 I3.271931 J-2.534718 F400.000000
G03 X459.591160 Y977.530700 Z-0.125000 I3.147288 J-1.700582
G00 Z5.000000

(End cutting path id: path1012)


(Start cutting path id: path1012)
(Change tool to Default tool)

G00 Z5.000000
G00 X460.214080 Y978.688610

G01 Z-0.125000 F100.0(Penetrate)
G03 X459.844694 Y978.121413 Z-0.125000 I3.271931 J-2.534718 F400.000000
G03 X459.591160 Y977.530700 Z-0.125000 I3.147288 J-1.700582
G00 Z5.000000

(End cutting path id: path1012)


(Start cutting path id: path1014)
(Change tool to Default tool)

G00 Z5.000000
G00 X459.591160 Y977.530700

G01 Z-0.125000 F100.0(Penetrate)
G03 X459.431534 Y976.899521 Z-0.125000 I3.903141 J-1.322881 F400.000000
G03 X459.383520 Y976.331430 Z-0.125000 I3.336727 J-0.568091
G00 Z5.000000

(End cutting path id: path1014)


(Start cutting path id: path1014)
(Change tool to Default tool)

G00 Z5.000000
G00 X459.591160 Y977.530700

G01 Z-0.125000 F100.0(Penetrate)
G03 X459.431534 Y976.899521 Z-0.125000 I3.903141 J-1.322881 F400.000000
G03 X459.383520 Y976.331430 Z-0.125000 I3.336727 J-0.568091
G00 Z5.000000

(End cutting path id: path1014)


(Start cutting path id: path1022)
(Change tool to Default tool)

G00 Z5.000000
G00 X459.383520 Y976.331430

G01 Z-0.125000 F100.0(Penetrate)
G01 X459.383520 Y970.045620 Z-0.125000 F400.000000
G01 X457.805450 Y970.045620 Z-0.125000
G01 X457.805450 Y977.716790 Z-0.125000
G00 Z5.000000

(End cutting path id: path1022)


(Start cutting path id: path1022)
(Change tool to Default tool)

G00 Z5.000000
G00 X459.383520 Y976.331430

G01 Z-0.125000 F100.0(Penetrate)
G01 X459.383520 Y970.045620 Z-0.125000 F400.000000
G01 X457.805450 Y970.045620 Z-0.125000
G01 X457.805450 Y977.716790 Z-0.125000
G00 Z5.000000

(End cutting path id: path1022)


(Start cutting path id: path988)
(Change tool to Default tool)

G00 Z5.000000
G00 X457.805450 Y977.716790

G01 Z-0.125000 F100.0(Penetrate)
G03 X457.794419 Y978.460912 Z-0.125000 I-25.103385 J-0.000000 F400.000000
G03 X457.763950 Y979.205540 Z-0.125000 I-33.112115 J-0.981950
G00 Z5.000000

(End cutting path id: path988)


(Start cutting path id: path988)
(Change tool to Default tool)

G00 Z5.000000
G00 X457.805450 Y977.716790

G01 Z-0.125000 F100.0(Penetrate)
G03 X457.794419 Y978.460912 Z-0.125000 I-25.103385 J-0.000000 F400.000000
G03 X457.763950 Y979.205540 Z-0.125000 I-33.112115 J-0.981950
G00 Z5.000000

(End cutting path id: path988)


(Start cutting path id: path990)
(Change tool to Default tool)

G00 Z5.000000
G00 X457.763920 Y979.205540

G01 Z-0.125000 F100.0(Penetrate)
G03 X457.740315 Y979.965415 Z-0.125000 I-1405.640264 J-43.286919 F400.000000
G03 X457.701620 Y981.190530 Z-0.125000 I-2459.449677 J-77.064726
G00 Z5.000000

(End cutting path id: path990)


(Start cutting path id: path990)
(Change tool to Default tool)

G00 Z5.000000
G00 X457.763920 Y979.205540

G01 Z-0.125000 F100.0(Penetrate)
G03 X457.740315 Y979.965415 Z-0.125000 I-1405.640264 J-43.286919 F400.000000
G03 X457.701620 Y981.190530 Z-0.125000 I-2459.449677 J-77.064726
G00 Z5.000000

(End cutting path id: path990)


(Start cutting path id: path1004)
(Change tool to Default tool)

G00 Z5.000000
G00 X457.701630 Y981.190530

G01 Z-0.125000 F100.0(Penetrate)
G01 X459.258930 Y981.190530 Z-0.125000 F400.000000
G01 X459.258930 Y979.122830 Z-0.125000
G01 X459.321230 Y979.122830 Z-0.125000
G00 Z5.000000

(End cutting path id: path1004)


(Start cutting path id: path1004)
(Change tool to Default tool)

G00 Z5.000000
G00 X457.701630 Y981.190530

G01 Z-0.125000 F100.0(Penetrate)
G01 X459.258930 Y981.190530 Z-0.125000 F400.000000
G01 X459.258930 Y979.122830 Z-0.125000
G01 X459.321230 Y979.122830 Z-0.125000
G00 Z5.000000

(End cutting path id: path1004)


(Start cutting path id: path994)
(Change tool to Default tool)

G00 Z5.000000
G00 X459.321220 Y979.122830

G01 Z-0.125000 F100.0(Penetrate)
G02 X459.517956 Y979.555337 Z-0.125000 I2.859054 J-1.039508 F400.000000
G02 X459.798800 Y979.991260 Z-0.125000 I3.376553 J-1.866921
G00 Z5.000000

(End cutting path id: path994)


(Start cutting path id: path994)
(Change tool to Default tool)

G00 Z5.000000
G00 X459.321220 Y979.122830

G01 Z-0.125000 F100.0(Penetrate)
G02 X459.517956 Y979.555337 Z-0.125000 I2.859054 J-1.039508 F400.000000
G02 X459.798800 Y979.991260 Z-0.125000 I3.376553 J-1.866921
G00 Z5.000000

(End cutting path id: path994)


(Start cutting path id: path996)
(Change tool to Default tool)

G00 Z5.000000
G00 X459.798800 Y979.991260

G01 Z-0.125000 F100.0(Penetrate)
G02 X460.135678 Y980.376903 Z-0.125000 I2.939465 J-2.227800 F400.000000
G02 X460.546300 Y980.735640 Z-0.125000 I2.950063 J-2.962369
G00 Z5.000000

(End cutting path id: path996)


(Start cutting path id: path996)
(Change tool to Default tool)

G00 Z5.000000
G00 X459.798800 Y979.991260

G01 Z-0.125000 F100.0(Penetrate)
G02 X460.135678 Y980.376903 Z-0.125000 I2.939465 J-2.227800 F400.000000
G02 X460.546300 Y980.735640 Z-0.125000 I2.950063 J-2.962369
G00 Z5.000000

(End cutting path id: path996)


(Start cutting path id: path998)
(Change tool to Default tool)

G00 Z5.000000
G00 X460.546300 Y980.735640

G01 Z-0.125000 F100.0(Penetrate)
G02 X461.001572 Y981.024444 Z-0.125000 I2.118962 J-2.837092 F400.000000
G02 X461.563730 Y981.273240 Z-0.125000 I1.995421 J-3.749183
G00 Z5.000000

(End cutting path id: path998)


(Start cutting path id: path998)
(Change tool to Default tool)

G00 Z5.000000
G00 X460.546300 Y980.735640

G01 Z-0.125000 F100.0(Penetrate)
G02 X461.001572 Y981.024444 Z-0.125000 I2.118962 J-2.837092 F400.000000
G02 X461.563730 Y981.273240 Z-0.125000 I1.995421 J-3.749183
G00 Z5.000000

(End cutting path id: path998)


(Start cutting path id: path1000)
(Change tool to Default tool)

G00 Z5.000000
G00 X461.563730 Y981.273240

G01 Z-0.125000 F100.0(Penetrate)
G02 X462.171011 Y981.422741 Z-0.125000 I1.202315 J-3.575723 F400.000000
G02 X462.892630 Y981.480010 Z-0.125000 I0.721619 J-4.517715
G00 Z5.000000

(End cutting path id: path1000)


(Start cutting path id: path1000)
(Change tool to Default tool)

G00 Z5.000000
G00 X461.563730 Y981.273240

G01 Z-0.125000 F100.0(Penetrate)
G02 X462.171011 Y981.422741 Z-0.125000 I1.202315 J-3.575723 F400.000000
G02 X462.892630 Y981.480010 Z-0.125000 I0.721619 J-4.517715
G00 Z5.000000

(End cutting path id: path1000)


(Start cutting path id: path1002)
(Change tool to Default tool)

G00 Z5.000000
G00 X462.892630 Y981.480010

G01 Z-0.125000 F100.0(Penetrate)
G02 X463.572356 Y981.437143 Z-0.125000 I-0.000000 J-5.410448 F400.000000
G02 X464.076180 Y981.335270 Z-0.125000 I-0.439437 J-3.470100
G00 Z5.000000

(End cutting path id: path1002)


(Start cutting path id: path1002)
(Change tool to Default tool)

G00 Z5.000000
G00 X462.892630 Y981.480010

G01 Z-0.125000 F100.0(Penetrate)
G02 X463.572356 Y981.437143 Z-0.125000 I-0.000000 J-5.410448 F400.000000
G02 X464.076180 Y981.335270 Z-0.125000 I-0.439437 J-3.470100
G00 Z5.000000

(End cutting path id: path1002)


(Start cutting path id: path1016)
(Change tool to Default tool)

G00 Z5.000000
G00 X464.076180 Y981.335270

G01 Z-0.125000 F100.0(Penetrate)
G01 X463.764720 Y979.784490 Z-0.125000 F400.000000
G00 Z5.000000

(End cutting path id: path1016)


(Start cutting path id: path1016)
(Change tool to Default tool)

G00 Z5.000000
G00 X464.076180 Y981.335270

G01 Z-0.125000 F100.0(Penetrate)
G01 X463.764720 Y979.784490 Z-0.125000 F400.000000
G00 Z5.000000

(End cutting path id: path1016)


(Start cutting path id: path984)
(Change tool to Default tool)

G00 Z5.000000
G00 X454.410290 Y978.068300

G01 Z-0.125000 F100.0(Penetrate)
G02 X454.670547 Y977.037229 Z-0.125000 I-5.926154 J-2.044229 F400.000000
G02 X454.763280 Y975.897220 Z-0.125000 I-6.960974 J-1.140009
G00 Z5.000000

(End cutting path id: path984)


(Start cutting path id: path984)
(Change tool to Default tool)

G00 Z5.000000
G00 X454.410290 Y978.068300

G01 Z-0.125000 F100.0(Penetrate)
G02 X454.670547 Y977.037229 Z-0.125000 I-5.926154 J-2.044229 F400.000000
G02 X454.763280 Y975.897220 Z-0.125000 I-6.960974 J-1.140009
G00 Z5.000000

(End cutting path id: path984)


(Start cutting path id: path992)
(Change tool to Default tool)

G00 Z5.000000
G00 X454.763280 Y975.897220

G01 Z-0.125000 F100.0(Penetrate)
G01 X454.763280 Y975.194200 Z-0.125000 F400.000000
G01 X445.440240 Y975.194200 Z-0.125000
G00 Z5.000000

(End cutting path id: path992)


(Start cutting path id: path992)
(Change tool to Default tool)

G00 Z5.000000
G00 X454.763280 Y975.897220

G01 Z-0.125000 F100.0(Penetrate)
G01 X454.763280 Y975.194200 Z-0.125000 F400.000000
G01 X445.440240 Y975.194200 Z-0.125000
G00 Z5.000000

(End cutting path id: path992)


(Start cutting path id: path944)
(Change tool to Default tool)

G00 Z5.000000
G00 X445.440240 Y975.194200

G01 Z-0.125000 F100.0(Penetrate)
G03 X445.570955 Y974.383555 Z-0.125000 I4.823382 J0.361900 F400.000000
G03 X445.834760 Y973.622750 Z-0.125000 I4.398754 J1.099105
G00 Z5.000000

(End cutting path id: path944)


(Start cutting path id: path944)
(Change tool to Default tool)

G00 Z5.000000
G00 X445.440240 Y975.194200

G01 Z-0.125000 F100.0(Penetrate)
G03 X445.570955 Y974.383555 Z-0.125000 I4.823382 J0.361900 F400.000000
G03 X445.834760 Y973.622750 Z-0.125000 I4.398754 J1.099105
G00 Z5.000000

(End cutting path id: path944)


(Start cutting path id: path946)
(Change tool to Default tool)

G00 Z5.000000
G00 X445.834760 Y973.622750

G01 Z-0.125000 F100.0(Penetrate)
G03 X446.241215 Y972.917790 Z-0.125000 I4.436787 J2.088441 F400.000000
G03 X446.727610 Y972.340770 Z-0.125000 I3.293412 J2.282646
G00 Z5.000000

(End cutting path id: path946)


(Start cutting path id: path946)
(Change tool to Default tool)

G00 Z5.000000
G00 X445.834760 Y973.622750

G01 Z-0.125000 F100.0(Penetrate)
G03 X446.241215 Y972.917790 Z-0.125000 I4.436787 J2.088441 F400.000000
G03 X446.727610 Y972.340770 Z-0.125000 I3.293412 J2.282646
G00 Z5.000000

(End cutting path id: path946)


(Start cutting path id: path948)
(Change tool to Default tool)

G00 Z5.000000
G00 X446.727610 Y972.340770

G01 Z-0.125000 F100.0(Penetrate)
G03 X447.325745 Y971.858460 Z-0.125000 I2.953418 J3.050631 F400.000000
G03 X447.994210 Y971.493010 Z-0.125000 I2.412555 J3.618847
G00 Z5.000000

(End cutting path id: path948)


(Start cutting path id: path948)
(Change tool to Default tool)

G00 Z5.000000
G00 X446.727610 Y972.340770

G01 Z-0.125000 F100.0(Penetrate)
G03 X447.325745 Y971.858460 Z-0.125000 I2.953418 J3.050631 F400.000000
G03 X447.994210 Y971.493010 Z-0.125000 I2.412555 J3.618847
G00 Z5.000000

(End cutting path id: path948)


(Start cutting path id: path950)
(Change tool to Default tool)

G00 Z5.000000
G00 X447.994210 Y971.493010

G01 Z-0.125000 F100.0(Penetrate)
G03 X448.734885 Y971.263387 Z-0.125000 I1.469894 J3.431934 F400.000000
G03 X449.551510 Y971.182860 Z-0.125000 I0.816625 J4.100438
G00 Z5.000000

(End cutting path id: path950)


(Start cutting path id: path950)
(Change tool to Default tool)

G00 Z5.000000
G00 X447.994210 Y971.493010

G01 Z-0.125000 F100.0(Penetrate)
G03 X448.734885 Y971.263387 Z-0.125000 I1.469894 J3.431934 F400.000000
G03 X449.551510 Y971.182860 Z-0.125000 I0.816625 J4.100438
G00 Z5.000000

(End cutting path id: path950)


(Start cutting path id: path952)
(Change tool to Default tool)

G00 Z5.000000
G00 X449.551510 Y971.182860

G01 Z-0.125000 F100.0(Penetrate)
G03 X450.766746 Y971.340807 Z-0.125000 I-0.000000 J4.753966 F400.000000
G03 X451.731730 Y971.761820 Z-0.125000 I-0.883524 J3.341484
G00 Z5.000000

(End cutting path id: path952)


(Start cutting path id: path952)
(Change tool to Default tool)

G00 Z5.000000
G00 X449.551510 Y971.182860

G01 Z-0.125000 F100.0(Penetrate)
G03 X450.766746 Y971.340807 Z-0.125000 I-0.000000 J4.753966 F400.000000
G03 X451.731730 Y971.761820 Z-0.125000 I-0.883524 J3.341484
G00 Z5.000000

(End cutting path id: path952)


(Start cutting path id: path954)
(Change tool to Default tool)

G00 Z5.000000
G00 X451.731730 Y971.761820

G01 Z-0.125000 F100.0(Penetrate)
G03 X452.584774 Y972.436778 Z-0.125000 I-2.910538 J4.555014 F400.000000
G03 X453.143690 Y973.126500 Z-0.125000 I-2.589866 J2.670016
G00 Z5.000000

(End cutting path id: path954)


(Start cutting path id: path954)
(Change tool to Default tool)

G00 Z5.000000
G00 X451.731730 Y971.761820

G01 Z-0.125000 F100.0(Penetrate)
G03 X452.584774 Y972.436778 Z-0.125000 I-2.910538 J4.555014 F400.000000
G03 X453.143690 Y973.126500 Z-0.125000 I-2.589866 J2.670016
G00 Z5.000000

(End cutting path id: path954)


(Start cutting path id: path986)
(Change tool to Default tool)

G00 Z5.000000
G00 X453.143690 Y973.126500

G01 Z-0.125000 F100.0(Penetrate)
G01 X454.368760 Y972.113330 Z-0.125000 F400.000000
G00 Z5.000000

(End cutting path id: path986)


(Start cutting path id: path986)
(Change tool to Default tool)

G00 Z5.000000
G00 X453.143690 Y973.126500

G01 Z-0.125000 F100.0(Penetrate)
G01 X454.368760 Y972.113330 Z-0.125000 F400.000000
G00 Z5.000000

(End cutting path id: path986)


(Start cutting path id: path958)
(Change tool to Default tool)

G00 Z5.000000
G00 X454.368760 Y972.113330

G01 Z-0.125000 F100.0(Penetrate)
G02 X453.244474 Y970.982338 Z-0.125000 I-6.011963 J4.852010 F400.000000
G02 X452.147010 Y970.293750 Z-0.125000 I-3.296972 J4.035821
G00 Z5.000000

(End cutting path id: path958)


(Start cutting path id: path958)
(Change tool to Default tool)

G00 Z5.000000
G00 X454.368760 Y972.113330

G01 Z-0.125000 F100.0(Penetrate)
G02 X453.244474 Y970.982338 Z-0.125000 I-6.011963 J4.852010 F400.000000
G02 X452.147010 Y970.293750 Z-0.125000 I-3.296972 J4.035821
G00 Z5.000000

(End cutting path id: path958)


(Start cutting path id: path960)
(Change tool to Default tool)

G00 Z5.000000
G00 X452.147010 Y970.293750

G01 Z-0.125000 F100.0(Penetrate)
G02 X450.909550 Y969.895824 Z-0.125000 I-2.486124 J5.608208 F400.000000
G02 X449.551510 Y969.756150 Z-0.125000 I-1.358040 J6.532236
G00 Z5.000000

(End cutting path id: path960)


(Start cutting path id: path960)
(Change tool to Default tool)

G00 Z5.000000
G00 X452.147010 Y970.293750

G01 Z-0.125000 F100.0(Penetrate)
G02 X450.909550 Y969.895824 Z-0.125000 I-2.486124 J5.608208 F400.000000
G02 X449.551510 Y969.756150 Z-0.125000 I-1.358040 J6.532236
G00 Z5.000000

(End cutting path id: path960)


(Start cutting path id: path962)
(Change tool to Default tool)

G00 Z5.000000
G00 X449.551510 Y969.756150

G01 Z-0.125000 F100.0(Penetrate)
G02 X448.328184 Y969.870381 Z-0.125000 I0.000000 J6.607581 F400.000000
G02 X447.246710 Y970.190360 Z-0.125000 I1.030839 J5.471638
G00 Z5.000000

(End cutting path id: path962)


(Start cutting path id: path962)
(Change tool to Default tool)

G00 Z5.000000
G00 X449.551510 Y969.756150

G01 Z-0.125000 F100.0(Penetrate)
G02 X448.328184 Y969.870381 Z-0.125000 I0.000000 J6.607581 F400.000000
G02 X447.246710 Y970.190360 Z-0.125000 I1.030839 J5.471638
G00 Z5.000000

(End cutting path id: path962)


(Start cutting path id: path964)
(Change tool to Default tool)

G00 Z5.000000
G00 X447.246710 Y970.190360

G01 Z-0.125000 F100.0(Penetrate)
G02 X446.249161 Y970.733240 Z-0.125000 I2.297182 J5.409050 F400.000000
G02 X445.419480 Y971.430980 Z-0.125000 I2.925589 J4.320964
G00 Z5.000000

(End cutting path id: path964)


(Start cutting path id: path964)
(Change tool to Default tool)

G00 Z5.000000
G00 X447.246710 Y970.190360

G01 Z-0.125000 F100.0(Penetrate)
G02 X446.249161 Y970.733240 Z-0.125000 I2.297182 J5.409050 F400.000000
G02 X445.419480 Y971.430980 Z-0.125000 I2.925589 J4.320964
G00 Z5.000000

(End cutting path id: path964)


(Start cutting path id: path966)
(Change tool to Default tool)

G00 Z5.000000
G00 X445.419480 Y971.430980

G01 Z-0.125000 F100.0(Penetrate)
G02 X444.737317 Y972.273992 Z-0.125000 I3.983122 J3.920640 F400.000000
G02 X444.194400 Y973.291910 Z-0.125000 I5.175020 J3.413894
G00 Z5.000000

(End cutting path id: path966)


(Start cutting path id: path966)
(Change tool to Default tool)

G00 Z5.000000
G00 X445.419480 Y971.430980

G01 Z-0.125000 F100.0(Penetrate)
G02 X444.737317 Y972.273992 Z-0.125000 I3.983122 J3.920640 F400.000000
G02 X444.194400 Y973.291910 Z-0.125000 I5.175020 J3.413894
G00 Z5.000000

(End cutting path id: path966)


(Start cutting path id: path968)
(Change tool to Default tool)

G00 Z5.000000
G00 X444.194400 Y973.291910

G01 Z-0.125000 F100.0(Penetrate)
G02 X443.873206 Y974.385685 Z-0.125000 I5.218383 J2.126461 F400.000000
G02 X443.758360 Y975.628420 Z-0.125000 I6.666335 J1.242735
G00 Z5.000000

(End cutting path id: path968)


(Start cutting path id: path968)
(Change tool to Default tool)

G00 Z5.000000
G00 X444.194400 Y973.291910

G01 Z-0.125000 F100.0(Penetrate)
G02 X443.873206 Y974.385685 Z-0.125000 I5.218383 J2.126461 F400.000000
G02 X443.758360 Y975.628420 Z-0.125000 I6.666335 J1.242735
G00 Z5.000000

(End cutting path id: path968)


(Start cutting path id: path970)
(Change tool to Default tool)

G00 Z5.000000
G00 X443.758360 Y975.628420

G01 Z-0.125000 F100.0(Penetrate)
G02 X443.873458 Y976.864390 Z-0.125000 I6.693742 J0.000000 F400.000000
G02 X444.194400 Y977.944240 Z-0.125000 I5.374531 J-1.009746
G00 Z5.000000

(End cutting path id: path970)


(Start cutting path id: path970)
(Change tool to Default tool)

G00 Z5.000000
G00 X443.758360 Y975.628420

G01 Z-0.125000 F100.0(Penetrate)
G02 X443.873458 Y976.864390 Z-0.125000 I6.693742 J0.000000 F400.000000
G02 X444.194400 Y977.944240 Z-0.125000 I5.374531 J-1.009746
G00 Z5.000000

(End cutting path id: path970)


(Start cutting path id: path972)
(Change tool to Default tool)

G00 Z5.000000
G00 X444.194400 Y977.944240

G01 Z-0.125000 F100.0(Penetrate)
G02 X444.717928 Y978.957954 Z-0.125000 I5.893723 J-2.401740 F400.000000
G02 X445.377950 Y979.805170 Z-0.125000 I4.758599 J-3.026478
G00 Z5.000000

(End cutting path id: path972)


(Start cutting path id: path972)
(Change tool to Default tool)

G00 Z5.000000
G00 X444.194400 Y977.944240

G01 Z-0.125000 F100.0(Penetrate)
G02 X444.717928 Y978.957954 Z-0.125000 I5.893723 J-2.401740 F400.000000
G02 X445.377950 Y979.805170 Z-0.125000 I4.758599 J-3.026478
G00 Z5.000000

(End cutting path id: path972)


(Start cutting path id: path974)
(Change tool to Default tool)

G00 Z5.000000
G00 X445.377950 Y979.805170

G01 Z-0.125000 F100.0(Penetrate)
G02 X446.204253 Y980.496445 Z-0.125000 I3.799321 J-3.701955 F400.000000
G02 X447.184420 Y981.025120 Z-0.125000 I3.117009 J-4.606005
G00 Z5.000000

(End cutting path id: path974)


(Start cutting path id: path974)
(Change tool to Default tool)

G00 Z5.000000
G00 X445.377950 Y979.805170

G01 Z-0.125000 F100.0(Penetrate)
G02 X446.204253 Y980.496445 Z-0.125000 I3.799321 J-3.701955 F400.000000
G02 X447.184420 Y981.025120 Z-0.125000 I3.117009 J-4.606005
G00 Z5.000000

(End cutting path id: path974)


(Start cutting path id: path976)
(Change tool to Default tool)

G00 Z5.000000
G00 X447.184420 Y981.025120

G01 Z-0.125000 F100.0(Penetrate)
G02 X448.245408 Y981.361247 Z-0.125000 I2.158285 J-4.970081 F400.000000
G02 X449.406170 Y981.480010 Z-0.125000 I1.160762 J-5.613106
G00 Z5.000000

(End cutting path id: path976)


(Start cutting path id: path976)
(Change tool to Default tool)

G00 Z5.000000
G00 X447.184420 Y981.025120

G01 Z-0.125000 F100.0(Penetrate)
G02 X448.245408 Y981.361247 Z-0.125000 I2.158285 J-4.970081 F400.000000
G02 X449.406170 Y981.480010 Z-0.125000 I1.160762 J-5.613106
G00 Z5.000000

(End cutting path id: path976)


(Start cutting path id: path978)
(Change tool to Default tool)

G00 Z5.000000
G00 X449.406170 Y981.480010

G01 Z-0.125000 F100.0(Penetrate)
G02 X450.644218 Y981.355750 Z-0.125000 I-0.000000 J-6.229672 F400.000000
G02 X451.669440 Y981.025120 Z-0.125000 I-0.958574 J-4.727193
G00 Z5.000000

(End cutting path id: path978)


(Start cutting path id: path978)
(Change tool to Default tool)

G00 Z5.000000
G00 X449.406170 Y981.480010

G01 Z-0.125000 F100.0(Penetrate)
G02 X450.644218 Y981.355750 Z-0.125000 I-0.000000 J-6.229672 F400.000000
G02 X451.669440 Y981.025120 Z-0.125000 I-0.958574 J-4.727193
G00 Z5.000000

(End cutting path id: path978)


(Start cutting path id: path980)
(Change tool to Default tool)

G00 Z5.000000
G00 X451.669440 Y981.025120

G01 Z-0.125000 F100.0(Penetrate)
G02 X452.621906 Y980.482482 Z-0.125000 I-2.420819 J-5.356376 F400.000000
G02 X453.372090 Y979.825850 Z-0.125000 I-2.659843 J-3.795644
G00 Z5.000000

(End cutting path id: path980)


(Start cutting path id: path980)
(Change tool to Default tool)

G00 Z5.000000
G00 X451.669440 Y981.025120

G01 Z-0.125000 F100.0(Penetrate)
G02 X452.621906 Y980.482482 Z-0.125000 I-2.420819 J-5.356376 F400.000000
G02 X453.372090 Y979.825850 Z-0.125000 I-2.659843 J-3.795644
G00 Z5.000000

(End cutting path id: path980)


(Start cutting path id: path982)
(Change tool to Default tool)

G00 Z5.000000
G00 X453.372090 Y979.825850

G01 Z-0.125000 F100.0(Penetrate)
G02 X453.964919 Y979.024769 Z-0.125000 I-3.434566 J-3.161600 F400.000000
G02 X454.410290 Y978.068300 Z-0.125000 I-4.830281 J-2.831103
G00 Z5.000000

(End cutting path id: path982)


(Start cutting path id: path982)
(Change tool to Default tool)

G00 Z5.000000
G00 X453.372090 Y979.825850

G01 Z-0.125000 F100.0(Penetrate)
G02 X453.964919 Y979.024769 Z-0.125000 I-3.434566 J-3.161600 F400.000000
G02 X454.410290 Y978.068300 Z-0.125000 I-4.830281 J-2.831103
G00 Z5.000000

(End cutting path id: path982)


(Start cutting path id: path930)
(Change tool to Default tool)

G00 Z5.000000
G00 X453.039870 Y976.476170

G01 Z-0.125000 F100.0(Penetrate)
G03 X452.773225 Y977.961186 Z-0.125000 I-4.268551 J-0.000000 F400.000000
G03 X452.084720 Y979.060800 Z-0.125000 I-3.000727 J-1.113501
G00 Z5.000000

(End cutting path id: path930)


(Start cutting path id: path930)
(Change tool to Default tool)

G00 Z5.000000
G00 X453.039870 Y976.476170

G01 Z-0.125000 F100.0(Penetrate)
G03 X452.773225 Y977.961186 Z-0.125000 I-4.268551 J-0.000000 F400.000000
G03 X452.084720 Y979.060800 Z-0.125000 I-3.000727 J-1.113501
G00 Z5.000000

(End cutting path id: path930)


(Start cutting path id: path932)
(Change tool to Default tool)

G00 Z5.000000
G00 X452.084720 Y979.060800

G01 Z-0.125000 F100.0(Penetrate)
G03 X451.005216 Y979.766570 Z-0.125000 I-2.087399 J-2.014303 F400.000000
G03 X449.406170 Y980.053300 Z-0.125000 I-1.599046 J-4.315451
G00 Z5.000000

(End cutting path id: path932)


(Start cutting path id: path932)
(Change tool to Default tool)

G00 Z5.000000
G00 X452.084720 Y979.060800

G01 Z-0.125000 F100.0(Penetrate)
G03 X451.005216 Y979.766570 Z-0.125000 I-2.087399 J-2.014303 F400.000000
G03 X449.406170 Y980.053300 Z-0.125000 I-1.599046 J-4.315451
G00 Z5.000000

(End cutting path id: path932)


(Start cutting path id: path934)
(Change tool to Default tool)

G00 Z5.000000
G00 X449.406170 Y980.053300

G01 Z-0.125000 F100.0(Penetrate)
G03 X448.651199 Y979.975810 Z-0.125000 I0.000000 J-3.716502 F400.000000
G03 X447.911160 Y979.743140 Z-0.125000 I0.788835 J-3.802234
G00 Z5.000000

(End cutting path id: path934)


(Start cutting path id: path934)
(Change tool to Default tool)

G00 Z5.000000
G00 X449.406170 Y980.053300

G01 Z-0.125000 F100.0(Penetrate)
G03 X448.651199 Y979.975810 Z-0.125000 I0.000000 J-3.716502 F400.000000
G03 X447.911160 Y979.743140 Z-0.125000 I0.788835 J-3.802234
G00 Z5.000000

(End cutting path id: path934)


(Start cutting path id: path936)
(Change tool to Default tool)

G00 Z5.000000
G00 X447.911160 Y979.743140

G01 Z-0.125000 F100.0(Penetrate)
G03 X447.238274 Y979.395461 Z-0.125000 I1.757294 J-4.225987 F400.000000
G03 X446.665320 Y978.957410 Z-0.125000 I2.062041 J-3.290797
G00 Z5.000000

(End cutting path id: path936)


(Start cutting path id: path936)
(Change tool to Default tool)

G00 Z5.000000
G00 X447.911160 Y979.743140

G01 Z-0.125000 F100.0(Penetrate)
G03 X447.238274 Y979.395461 Z-0.125000 I1.757294 J-4.225987 F400.000000
G03 X446.665320 Y978.957410 Z-0.125000 I2.062041 J-3.290797
G00 Z5.000000

(End cutting path id: path936)


(Start cutting path id: path938)
(Change tool to Default tool)

G00 Z5.000000
G00 X446.665320 Y978.957410

G01 Z-0.125000 F100.0(Penetrate)
G03 X446.174962 Y978.418599 Z-0.125000 I2.615918 J-2.873216 F400.000000
G03 X445.793230 Y977.799500 Z-0.125000 I3.166596 J-2.379737
G00 Z5.000000

(End cutting path id: path938)


(Start cutting path id: path938)
(Change tool to Default tool)

G00 Z5.000000
G00 X446.665320 Y978.957410

G01 Z-0.125000 F100.0(Penetrate)
G03 X446.174962 Y978.418599 Z-0.125000 I2.615918 J-2.873216 F400.000000
G03 X445.793230 Y977.799500 Z-0.125000 I3.166596 J-2.379737
G00 Z5.000000

(End cutting path id: path938)


(Start cutting path id: path940)
(Change tool to Default tool)

G00 Z5.000000
G00 X445.793230 Y977.799500

G01 Z-0.125000 F100.0(Penetrate)
G03 X445.558929 Y977.139563 Z-0.125000 I2.882156 J-1.394828 F400.000000
G03 X445.481770 Y976.476170 Z-0.125000 I2.813255 J-0.663393
G00 Z5.000000

(End cutting path id: path940)


(Start cutting path id: path940)
(Change tool to Default tool)

G00 Z5.000000
G00 X445.793230 Y977.799500

G01 Z-0.125000 F100.0(Penetrate)
G03 X445.558929 Y977.139563 Z-0.125000 I2.882156 J-1.394828 F400.000000
G03 X445.481770 Y976.476170 Z-0.125000 I2.813255 J-0.663393
G00 Z5.000000

(End cutting path id: path940)


(Start cutting path id: path956)
(Change tool to Default tool)

G00 Z5.000000
G00 X445.481770 Y976.476170

G01 Z-0.125000 F100.0(Penetrate)
G01 X453.039870 Y976.476170 Z-0.125000 F400.000000
G00 Z5.000000

(End cutting path id: path956)


(Start cutting path id: path956)
(Change tool to Default tool)

G00 Z5.000000
G00 X445.481770 Y976.476170

G01 Z-0.125000 F100.0(Penetrate)
G01 X453.039870 Y976.476170 Z-0.125000 F400.000000
G00 Z5.000000

(End cutting path id: path956)


(Start cutting path id: path916)
(Change tool to Default tool)

G00 Z5.000000
G00 X442.191430 Y979.763820

G01 Z-0.125000 F100.0(Penetrate)
G01 X438.952240 Y979.763820 Z-0.125000 F400.000000
G01 X438.952240 Y973.188530 Z-0.125000
G00 Z5.000000

(End cutting path id: path916)


(Start cutting path id: path916)
(Change tool to Default tool)

G00 Z5.000000
G00 X442.191430 Y979.763820

G01 Z-0.125000 F100.0(Penetrate)
G01 X438.952240 Y979.763820 Z-0.125000 F400.000000
G01 X438.952240 Y973.188530 Z-0.125000
G00 Z5.000000

(End cutting path id: path916)


(Start cutting path id: path904)
(Change tool to Default tool)

G00 Z5.000000
G00 X438.952240 Y973.188530

G01 Z-0.125000 F100.0(Penetrate)
G03 X438.989863 Y972.571002 Z-0.125000 I5.086786 J-0.000000 F400.000000
G03 X439.076830 Y972.175360 Z-0.125000 I2.126742 J0.260107
G00 Z5.000000

(End cutting path id: path904)


(Start cutting path id: path904)
(Change tool to Default tool)

G00 Z5.000000
G00 X438.952240 Y973.188530

G01 Z-0.125000 F100.0(Penetrate)
G03 X438.989863 Y972.571002 Z-0.125000 I5.086786 J-0.000000 F400.000000
G03 X439.076830 Y972.175360 Z-0.125000 I2.126742 J0.260107
G00 Z5.000000

(End cutting path id: path904)


(Start cutting path id: path906)
(Change tool to Default tool)

G00 Z5.000000
G00 X439.076830 Y972.175360

G01 Z-0.125000 F100.0(Penetrate)
G03 X439.234197 Y971.799903 Z-0.125000 I2.123569 J0.669354 F400.000000
G03 X439.409050 Y971.555050 Z-0.125000 I1.011660 J0.537582
G00 Z5.000000

(End cutting path id: path906)


(Start cutting path id: path906)
(Change tool to Default tool)

G00 Z5.000000
G00 X439.076830 Y972.175360

G01 Z-0.125000 F100.0(Penetrate)
G03 X439.234197 Y971.799903 Z-0.125000 I2.123569 J0.669354 F400.000000
G03 X439.409050 Y971.555050 Z-0.125000 I1.011660 J0.537582
G00 Z5.000000

(End cutting path id: path906)


(Start cutting path id: path908)
(Change tool to Default tool)

G00 Z5.000000
G00 X439.409050 Y971.555050

G01 Z-0.125000 F100.0(Penetrate)
G03 X439.632143 Y971.379723 Z-0.125000 I0.751797 J0.727019 F400.000000
G03 X439.907390 Y971.265570 Z-0.125000 I0.552052 J0.942195
G00 Z5.000000

(End cutting path id: path908)


(Start cutting path id: path908)
(Change tool to Default tool)

G00 Z5.000000
G00 X439.409050 Y971.555050

G01 Z-0.125000 F100.0(Penetrate)
G03 X439.632143 Y971.379723 Z-0.125000 I0.751797 J0.727019 F400.000000
G03 X439.907390 Y971.265570 Z-0.125000 I0.552052 J0.942195
G00 Z5.000000

(End cutting path id: path908)


(Start cutting path id: path910)
(Change tool to Default tool)

G00 Z5.000000
G00 X439.907390 Y971.265570

G01 Z-0.125000 F100.0(Penetrate)
G03 X440.221943 Y971.204455 Z-0.125000 I0.560896 J2.046826 F400.000000
G03 X440.592600 Y971.182870 Z-0.125000 I0.370657 J3.171689
G00 Z5.000000

(End cutting path id: path910)


(Start cutting path id: path910)
(Change tool to Default tool)

G00 Z5.000000
G00 X439.907390 Y971.265570

G01 Z-0.125000 F100.0(Penetrate)
G03 X440.221943 Y971.204455 Z-0.125000 I0.560896 J2.046826 F400.000000
G03 X440.592600 Y971.182870 Z-0.125000 I0.370657 J3.171689
G00 Z5.000000

(End cutting path id: path910)


(Start cutting path id: path912)
(Change tool to Default tool)

G00 Z5.000000
G00 X440.592600 Y971.182860

G01 Z-0.125000 F100.0(Penetrate)
G03 X440.980323 Y971.211462 Z-0.125000 I-0.000000 J2.642278 F400.000000
G03 X441.423160 Y971.306920 Z-0.125000 I-0.511365 J3.447155
G00 Z5.000000

(End cutting path id: path912)


(Start cutting path id: path912)
(Change tool to Default tool)

G00 Z5.000000
G00 X440.592600 Y971.182860

G01 Z-0.125000 F100.0(Penetrate)
G03 X440.980323 Y971.211462 Z-0.125000 I-0.000000 J2.642278 F400.000000
G03 X441.423160 Y971.306920 Z-0.125000 I-0.511365 J3.447155
G00 Z5.000000

(End cutting path id: path912)


(Start cutting path id: path914)
(Change tool to Default tool)

G00 Z5.000000
G00 X441.423160 Y971.306920

G01 Z-0.125000 F100.0(Penetrate)
G03 X441.848435 Y971.451146 Z-0.125000 I-1.234452 J4.339092 F400.000000
G03 X442.212190 Y971.617080 Z-0.125000 I-1.436672 J3.631106
G00 Z5.000000

(End cutting path id: path914)


(Start cutting path id: path914)
(Change tool to Default tool)

G00 Z5.000000
G00 X441.423160 Y971.306920

G01 Z-0.125000 F100.0(Penetrate)
G03 X441.848435 Y971.451146 Z-0.125000 I-1.234452 J4.339092 F400.000000
G03 X442.212190 Y971.617080 Z-0.125000 I-1.436672 J3.631106
G00 Z5.000000

(End cutting path id: path914)


(Start cutting path id: path928)
(Change tool to Default tool)

G00 Z5.000000
G00 X442.212190 Y971.617080

G01 Z-0.125000 F100.0(Penetrate)
G01 X442.274490 Y970.169690 Z-0.125000 F400.000000
G00 Z5.000000

(End cutting path id: path928)


(Start cutting path id: path928)
(Change tool to Default tool)

G00 Z5.000000
G00 X442.212190 Y971.617080

G01 Z-0.125000 F100.0(Penetrate)
G01 X442.274490 Y970.169690 Z-0.125000 F400.000000
G00 Z5.000000

(End cutting path id: path928)


(Start cutting path id: path918)
(Change tool to Default tool)

G00 Z5.000000
G00 X442.274480 Y970.169690

G01 Z-0.125000 F100.0(Penetrate)
G02 X441.376161 Y969.874811 Z-0.125000 I-1.639886 J3.479992 F400.000000
G02 X440.156550 Y969.756150 Z-0.125000 I-1.219611 J6.208304
G00 Z5.000000

(End cutting path id: path918)


(Start cutting path id: path918)
(Change tool to Default tool)

G00 Z5.000000
G00 X442.274480 Y970.169690

G01 Z-0.125000 F100.0(Penetrate)
G02 X441.376161 Y969.874811 Z-0.125000 I-1.639886 J3.479992 F400.000000
G02 X440.156550 Y969.756150 Z-0.125000 I-1.219611 J6.208304
G00 Z5.000000

(End cutting path id: path918)


(Start cutting path id: path920)
(Change tool to Default tool)

G00 Z5.000000
G00 X440.156550 Y969.756150

G01 Z-0.125000 F100.0(Penetrate)
G02 X439.701989 Y969.785607 Z-0.125000 I-0.000000 J3.521968 F400.000000
G02 X439.201410 Y969.880210 Z-0.125000 I0.573469 J4.406106
G00 Z5.000000

(End cutting path id: path920)


(Start cutting path id: path920)
(Change tool to Default tool)

G00 Z5.000000
G00 X440.156550 Y969.756150

G01 Z-0.125000 F100.0(Penetrate)
G02 X439.701989 Y969.785607 Z-0.125000 I-0.000000 J3.521968 F400.000000
G02 X439.201410 Y969.880210 Z-0.125000 I0.573469 J4.406106
G00 Z5.000000

(End cutting path id: path920)


(Start cutting path id: path922)
(Change tool to Default tool)

G00 Z5.000000
G00 X439.201410 Y969.880210

G01 Z-0.125000 F100.0(Penetrate)
G02 X438.744774 Y970.052514 Z-0.125000 I0.556781 J2.166800 F400.000000
G02 X438.308560 Y970.335100 Z-0.125000 I1.126133 J2.216331
G00 Z5.000000

(End cutting path id: path922)


(Start cutting path id: path922)
(Change tool to Default tool)

G00 Z5.000000
G00 X439.201410 Y969.880210

G01 Z-0.125000 F100.0(Penetrate)
G02 X438.744774 Y970.052514 Z-0.125000 I0.556781 J2.166800 F400.000000
G02 X438.308560 Y970.335100 Z-0.125000 I1.126133 J2.216331
G00 Z5.000000

(End cutting path id: path922)


(Start cutting path id: path924)
(Change tool to Default tool)

G00 Z5.000000
G00 X438.308560 Y970.335100

G01 Z-0.125000 F100.0(Penetrate)
G02 X437.958958 Y970.701162 Z-0.125000 I1.323914 J1.614357 F400.000000
G02 X437.644110 Y971.224210 Z-0.125000 I2.474832 J1.846006
G00 Z5.000000

(End cutting path id: path924)


(Start cutting path id: path924)
(Change tool to Default tool)

G00 Z5.000000
G00 X438.308560 Y970.335100

G01 Z-0.125000 F100.0(Penetrate)
G02 X437.958958 Y970.701162 Z-0.125000 I1.323914 J1.614357 F400.000000
G02 X437.644110 Y971.224210 Z-0.125000 I2.474832 J1.846006
G00 Z5.000000

(End cutting path id: path924)


(Start cutting path id: path926)
(Change tool to Default tool)

G00 Z5.000000
G00 X437.644110 Y971.224210

G01 Z-0.125000 F100.0(Penetrate)
G02 X437.454338 Y971.818520 Z-0.125000 I2.103724 J0.999204 F400.000000
G02 X437.374180 Y972.733640 Z-0.125000 I5.183640 J0.915120
G00 Z5.000000

(End cutting path id: path926)


(Start cutting path id: path926)
(Change tool to Default tool)

G00 Z5.000000
G00 X437.644110 Y971.224210

G01 Z-0.125000 F100.0(Penetrate)
G02 X437.454338 Y971.818520 Z-0.125000 I2.103724 J0.999204 F400.000000
G02 X437.374180 Y972.733640 Z-0.125000 I5.183640 J0.915120
G00 Z5.000000

(End cutting path id: path926)


(Start cutting path id: path942)
(Change tool to Default tool)

G00 Z5.000000
G00 X437.374180 Y972.733640

G01 Z-0.125000 F100.0(Penetrate)
G01 X437.374180 Y979.763820 Z-0.125000 F400.000000
G01 X435.007080 Y979.763820 Z-0.125000
G01 X435.007080 Y981.190530 Z-0.125000
G01 X437.374180 Y981.190530 Z-0.125000
G01 X437.374180 Y984.333440 Z-0.125000
G01 X438.952240 Y984.333440 Z-0.125000
G01 X438.952240 Y981.190530 Z-0.125000
G01 X442.191430 Y981.190530 Z-0.125000
G01 X442.191430 Y979.763820 Z-0.125000
G00 Z5.000000

(End cutting path id: path942)


(Start cutting path id: path942)
(Change tool to Default tool)

G00 Z5.000000
G00 X437.374180 Y972.733640

G01 Z-0.125000 F100.0(Penetrate)
G01 X437.374180 Y979.763820 Z-0.125000 F400.000000
G01 X435.007080 Y979.763820 Z-0.125000
G01 X435.007080 Y981.190530 Z-0.125000
G01 X437.374180 Y981.190530 Z-0.125000
G01 X437.374180 Y984.333440 Z-0.125000
G01 X438.952240 Y984.333440 Z-0.125000
G01 X438.952240 Y981.190530 Z-0.125000
G01 X442.191430 Y981.190530 Z-0.125000
G01 X442.191430 Y979.763820 Z-0.125000
G00 Z5.000000

(End cutting path id: path942)


(Start cutting path id: path894)
(Change tool to Default tool)

G00 Z5.000000
G00 X432.691650 Y977.117160

G01 Z-0.125000 F100.0(Penetrate)
G01 X432.691650 Y970.045620 Z-0.125000 F400.000000
G01 X431.113580 Y970.045620 Z-0.125000
G01 X431.113580 Y976.207370 Z-0.125000
G00 Z5.000000

(End cutting path id: path894)


(Start cutting path id: path894)
(Change tool to Default tool)

G00 Z5.000000
G00 X432.691650 Y977.117160

G01 Z-0.125000 F100.0(Penetrate)
G01 X432.691650 Y970.045620 Z-0.125000 F400.000000
G01 X431.113580 Y970.045620 Z-0.125000
G01 X431.113580 Y976.207370 Z-0.125000
G00 Z5.000000

(End cutting path id: path894)


(Start cutting path id: path882)
(Change tool to Default tool)

G00 Z5.000000
G00 X431.113580 Y976.207370

G01 Z-0.125000 F100.0(Penetrate)
G03 X430.911288 Y978.009790 Z-0.125000 I-8.130922 J-0.000000 F400.000000
G03 X430.469900 Y979.060800 Z-0.125000 I-3.209120 J-0.729531
G00 Z5.000000

(End cutting path id: path882)


(Start cutting path id: path882)
(Change tool to Default tool)

G00 Z5.000000
G00 X431.113580 Y976.207370

G01 Z-0.125000 F100.0(Penetrate)
G03 X430.911288 Y978.009790 Z-0.125000 I-8.130922 J-0.000000 F400.000000
G03 X430.469900 Y979.060800 Z-0.125000 I-3.209120 J-0.729531
G00 Z5.000000

(End cutting path id: path882)


(Start cutting path id: path884)
(Change tool to Default tool)

G00 Z5.000000
G00 X430.469900 Y979.060800

G01 Z-0.125000 F100.0(Penetrate)
G03 X429.654419 Y979.739256 Z-0.125000 I-1.505657 J-0.980432 F400.000000
G03 X428.082040 Y980.053300 Z-0.125000 I-1.572379 J-3.779325
G00 Z5.000000

(End cutting path id: path884)


(Start cutting path id: path884)
(Change tool to Default tool)

G00 Z5.000000
G00 X430.469900 Y979.060800

G01 Z-0.125000 F100.0(Penetrate)
G03 X429.654419 Y979.739256 Z-0.125000 I-1.505657 J-0.980432 F400.000000
G03 X428.082040 Y980.053300 Z-0.125000 I-1.572379 J-3.779325
G00 Z5.000000

(End cutting path id: path884)


(Start cutting path id: path886)
(Change tool to Default tool)

G00 Z5.000000
G00 X428.082040 Y980.053300

G01 Z-0.125000 F100.0(Penetrate)
G03 X427.958209 Y980.043778 Z-0.125000 I-0.000000 J-0.809985 F400.000000
G03 X427.396830 Y979.949910 Z-0.125000 I3.567739 J-23.062435
G00 Z5.000000

(End cutting path id: path886)


(Start cutting path id: path886)
(Change tool to Default tool)

G00 Z5.000000
G00 X428.082040 Y980.053300

G01 Z-0.125000 F100.0(Penetrate)
G03 X427.958209 Y980.043778 Z-0.125000 I-0.000000 J-0.809985 F400.000000
G03 X427.396830 Y979.949910 Z-0.125000 I3.567739 J-23.062435
G00 Z5.000000

(End cutting path id: path886)


(Start cutting path id: path888)
(Change tool to Default tool)

G00 Z5.000000
G00 X427.396830 Y979.949910

G01 Z-0.125000 F100.0(Penetrate)
G03 X426.881195 Y979.797884 Z-0.125000 I0.317419 J-2.027076 F400.000000
G03 X426.234050 Y979.432990 Z-0.125000 I1.584556 J-3.566541
G00 Z5.000000

(End cutting path id: path888)


(Start cutting path id: path888)
(Change tool to Default tool)

G00 Z5.000000
G00 X427.396830 Y979.949910

G01 Z-0.125000 F100.0(Penetrate)
G03 X426.881195 Y979.797884 Z-0.125000 I0.317419 J-2.027076 F400.000000
G03 X426.234050 Y979.432990 Z-0.125000 I1.584556 J-3.566541
G00 Z5.000000

(End cutting path id: path888)


(Start cutting path id: path890)
(Change tool to Default tool)

G00 Z5.000000
G00 X426.234050 Y979.432990

G01 Z-0.125000 F100.0(Penetrate)
G03 X425.699767 Y978.934987 Z-0.125000 I1.643643 J-2.298988 F400.000000
G03 X425.154320 Y978.130330 Z-0.125000 I3.939241 J-3.257462
G00 Z5.000000

(End cutting path id: path890)


(Start cutting path id: path890)
(Change tool to Default tool)

G00 Z5.000000
G00 X426.234050 Y979.432990

G01 Z-0.125000 F100.0(Penetrate)
G03 X425.699767 Y978.934987 Z-0.125000 I1.643643 J-2.298988 F400.000000
G03 X425.154320 Y978.130330 Z-0.125000 I3.939241 J-3.257462
G00 Z5.000000

(End cutting path id: path890)


(Start cutting path id: path892)
(Change tool to Default tool)

G00 Z5.000000
G00 X425.154320 Y978.130330

G01 Z-0.125000 F100.0(Penetrate)
G03 X424.823182 Y977.239022 Z-0.125000 I2.607630 J-1.475949 F400.000000
G03 X424.676750 Y975.752480 Z-0.125000 I7.472273 J-1.486542
G00 Z5.000000

(End cutting path id: path892)


(Start cutting path id: path892)
(Change tool to Default tool)

G00 Z5.000000
G00 X425.154320 Y978.130330

G01 Z-0.125000 F100.0(Penetrate)
G03 X424.823182 Y977.239022 Z-0.125000 I2.607630 J-1.475949 F400.000000
G03 X424.676750 Y975.752480 Z-0.125000 I7.472273 J-1.486542
G00 Z5.000000

(End cutting path id: path892)


(Start cutting path id: path900)
(Change tool to Default tool)

G00 Z5.000000
G00 X424.676750 Y975.752480

G01 Z-0.125000 F100.0(Penetrate)
G01 X424.676750 Y970.045620 Z-0.125000 F400.000000
G01 X423.098680 Y970.045620 Z-0.125000
G01 X423.098680 Y978.729970 Z-0.125000
G00 Z5.000000

(End cutting path id: path900)


(Start cutting path id: path900)
(Change tool to Default tool)

G00 Z5.000000
G00 X424.676750 Y975.752480

G01 Z-0.125000 F100.0(Penetrate)
G01 X424.676750 Y970.045620 Z-0.125000 F400.000000
G01 X423.098680 Y970.045620 Z-0.125000
G01 X423.098680 Y978.729970 Z-0.125000
G00 Z5.000000

(End cutting path id: path900)


(Start cutting path id: path896)
(Change tool to Default tool)

G00 Z5.000000
G00 X423.098680 Y978.729970

G01 Z-0.125000 F100.0(Penetrate)
G03 X423.089953 Y979.181522 Z-0.125000 I-11.687134 J-0.000000 F400.000000
G03 X423.057180 Y979.867200 Z-0.125000 I-37.629794 J-1.454978
G00 Z5.000000

(End cutting path id: path896)


(Start cutting path id: path896)
(Change tool to Default tool)

G00 Z5.000000
G00 X423.098680 Y978.729970

G01 Z-0.125000 F100.0(Penetrate)
G03 X423.089953 Y979.181522 Z-0.125000 I-11.687134 J-0.000000 F400.000000
G03 X423.057180 Y979.867200 Z-0.125000 I-37.629794 J-1.454978
G00 Z5.000000

(End cutting path id: path896)


(Start cutting path id: path898)
(Change tool to Default tool)

G00 Z5.000000
G00 X423.057150 Y979.867200

G01 Z-0.125000 F100.0(Penetrate)
G02 X423.012511 Y980.567837 Z-0.125000 I112.208332 J7.500814 F400.000000
G03 X422.974150 Y981.190530 Z-0.125000 I-304.787177 J-18.463710
G00 Z5.000000

(End cutting path id: path898)


(Start cutting path id: path898)
(Change tool to Default tool)

G00 Z5.000000
G00 X423.057150 Y979.867200

G01 Z-0.125000 F100.0(Penetrate)
G02 X423.012511 Y980.567837 Z-0.125000 I112.208332 J7.500814 F400.000000
G03 X422.974150 Y981.190530 Z-0.125000 I-304.787177 J-18.463710
G00 Z5.000000

(End cutting path id: path898)


(Start cutting path id: path902)
(Change tool to Default tool)

G00 Z5.000000
G00 X422.974100 Y981.190530

G01 Z-0.125000 F100.0(Penetrate)
G01 X424.614450 Y981.190530 Z-0.125000 F400.000000
G00 Z5.000000

(End cutting path id: path902)


(Start cutting path id: path902)
(Change tool to Default tool)

G00 Z5.000000
G00 X422.974100 Y981.190530

G01 Z-0.125000 F100.0(Penetrate)
G01 X424.614450 Y981.190530 Z-0.125000 F400.000000
G00 Z5.000000

(End cutting path id: path902)


(Start cutting path id: path862)
(Change tool to Default tool)

G00 Z5.000000
G00 X424.614450 Y981.190530

G01 Z-0.125000 F100.0(Penetrate)
G02 X424.645226 Y980.733974 Z-0.125000 I-12.854781 J-1.095853 F400.000000
G02 X424.655950 Y980.301420 Z-0.125000 I-8.718478 J-0.432554
G00 Z5.000000

(End cutting path id: path862)


(Start cutting path id: path862)
(Change tool to Default tool)

G00 Z5.000000
G00 X424.614450 Y981.190530

G01 Z-0.125000 F100.0(Penetrate)
G02 X424.645226 Y980.733974 Z-0.125000 I-12.854781 J-1.095853 F400.000000
G02 X424.655950 Y980.301420 Z-0.125000 I-8.718478 J-0.432554
G00 Z5.000000

(End cutting path id: path862)


(Start cutting path id: path864)
(Change tool to Default tool)

G00 Z5.000000
G00 X424.655980 Y980.301420

G01 Z-0.125000 F100.0(Penetrate)
G02 X424.670191 Y979.864594 Z-0.125000 I-64.436848 J-2.314990 F400.000000
G02 X424.676780 Y979.412310 Z-0.125000 I-15.520566 J-0.452284
G00 Z5.000000

(End cutting path id: path864)


(Start cutting path id: path864)
(Change tool to Default tool)

G00 Z5.000000
G00 X424.655980 Y980.301420

G01 Z-0.125000 F100.0(Penetrate)
G02 X424.670191 Y979.864594 Z-0.125000 I-64.436848 J-2.314990 F400.000000
G02 X424.676780 Y979.412310 Z-0.125000 I-15.520566 J-0.452284
G00 Z5.000000

(End cutting path id: path864)


(Start cutting path id: path880)
(Change tool to Default tool)

G00 Z5.000000
G00 X424.676750 Y979.412310

G01 Z-0.125000 F100.0(Penetrate)
G01 X424.718250 Y979.412310 Z-0.125000 F400.000000
G00 Z5.000000

(End cutting path id: path880)


(Start cutting path id: path880)
(Change tool to Default tool)

G00 Z5.000000
G00 X424.676750 Y979.412310

G01 Z-0.125000 F100.0(Penetrate)
G01 X424.718250 Y979.412310 Z-0.125000 F400.000000
G00 Z5.000000

(End cutting path id: path880)


(Start cutting path id: path868)
(Change tool to Default tool)

G00 Z5.000000
G00 X424.718270 Y979.412310

G01 Z-0.125000 F100.0(Penetrate)
G02 X425.013896 Y979.840868 Z-0.125000 I3.127115 J-1.840891 F400.000000
G02 X425.382720 Y980.239390 Z-0.125000 I2.983890 J-2.391599
G00 Z5.000000

(End cutting path id: path868)


(Start cutting path id: path868)
(Change tool to Default tool)

G00 Z5.000000
G00 X424.718270 Y979.412310

G01 Z-0.125000 F100.0(Penetrate)
G02 X425.013896 Y979.840868 Z-0.125000 I3.127115 J-1.840891 F400.000000
G02 X425.382720 Y980.239390 Z-0.125000 I2.983890 J-2.391599
G00 Z5.000000

(End cutting path id: path868)


(Start cutting path id: path870)
(Change tool to Default tool)

G00 Z5.000000
G00 X425.382720 Y980.239390

G01 Z-0.125000 F100.0(Penetrate)
G02 X425.815776 Y980.583336 Z-0.125000 I2.958823 J-3.280798 F400.000000
G02 X426.296340 Y980.880380 Z-0.125000 I2.940381 J-4.219757
G00 Z5.000000

(End cutting path id: path870)


(Start cutting path id: path870)
(Change tool to Default tool)

G00 Z5.000000
G00 X425.382720 Y980.239390

G01 Z-0.125000 F100.0(Penetrate)
G02 X425.815776 Y980.583336 Z-0.125000 I2.958823 J-3.280798 F400.000000
G02 X426.296340 Y980.880380 Z-0.125000 I2.940381 J-4.219757
G00 Z5.000000

(End cutting path id: path870)


(Start cutting path id: path872)
(Change tool to Default tool)

G00 Z5.000000
G00 X426.296340 Y980.880380

G01 Z-0.125000 F100.0(Penetrate)
G02 X426.826581 Y981.133210 Z-0.125000 I2.230558 J-3.995551 F400.000000
G02 X427.376070 Y981.314590 Z-0.125000 I1.738591 J-4.344012
G00 Z5.000000

(End cutting path id: path872)


(Start cutting path id: path872)
(Change tool to Default tool)

G00 Z5.000000
G00 X426.296340 Y980.880380

G01 Z-0.125000 F100.0(Penetrate)
G02 X426.826581 Y981.133210 Z-0.125000 I2.230558 J-3.995551 F400.000000
G02 X427.376070 Y981.314590 Z-0.125000 I1.738591 J-4.344012
G00 Z5.000000

(End cutting path id: path872)


(Start cutting path id: path874)
(Change tool to Default tool)

G00 Z5.000000
G00 X427.376070 Y981.314590

G01 Z-0.125000 F100.0(Penetrate)
G02 X427.939656 Y981.439088 Z-0.125000 I1.234144 J-4.248908 F400.000000
G02 X428.476560 Y981.480010 Z-0.125000 I0.536904 J-3.501707
G00 Z5.000000

(End cutting path id: path874)


(Start cutting path id: path874)
(Change tool to Default tool)

G00 Z5.000000
G00 X427.376070 Y981.314590

G01 Z-0.125000 F100.0(Penetrate)
G02 X427.939656 Y981.439088 Z-0.125000 I1.234144 J-4.248908 F400.000000
G02 X428.476560 Y981.480010 Z-0.125000 I0.536904 J-3.501707
G00 Z5.000000

(End cutting path id: path874)


(Start cutting path id: path876)
(Change tool to Default tool)

G00 Z5.000000
G00 X428.476560 Y981.480010

G01 Z-0.125000 F100.0(Penetrate)
G02 X430.479432 Y981.130961 Z-0.125000 I0.000000 J-5.920850 F400.000000
G02 X431.653450 Y980.342770 Z-0.125000 I-0.981472 J-2.730363
G00 Z5.000000

(End cutting path id: path876)


(Start cutting path id: path876)
(Change tool to Default tool)

G00 Z5.000000
G00 X428.476560 Y981.480010

G01 Z-0.125000 F100.0(Penetrate)
G02 X430.479432 Y981.130961 Z-0.125000 I0.000000 J-5.920850 F400.000000
G02 X431.653450 Y980.342770 Z-0.125000 I-0.981472 J-2.730363
G00 Z5.000000

(End cutting path id: path876)


(Start cutting path id: path878)
(Change tool to Default tool)

G00 Z5.000000
G00 X431.653450 Y980.342770

G01 Z-0.125000 F100.0(Penetrate)
G02 X432.379064 Y979.104164 Z-0.125000 I-2.434691 J-2.258165 F400.000000
G02 X432.691650 Y977.117160 Z-0.125000 I-6.159071 J-1.987004
G00 Z5.000000

(End cutting path id: path878)


(Start cutting path id: path878)
(Change tool to Default tool)

G00 Z5.000000
G00 X431.653450 Y980.342770

G01 Z-0.125000 F100.0(Penetrate)
G02 X432.379064 Y979.104164 Z-0.125000 I-2.434691 J-2.258165 F400.000000
G02 X432.691650 Y977.117160 Z-0.125000 I-6.159071 J-1.987004
G00 Z5.000000

(End cutting path id: path878)


(Start cutting path id: path866)
(Change tool to Default tool)

G00 Z5.000000
G00 X419.288900 Y970.045620

G01 Z-0.125000 F100.0(Penetrate)
G01 X417.710840 Y970.045620 Z-0.125000 F400.000000
G01 X417.710840 Y981.190530 Z-0.125000
G01 X419.288900 Y981.190530 Z-0.125000
G01 X419.288900 Y970.045620 Z-0.125000
G00 Z5.000000

(End cutting path id: path866)


(Start cutting path id: path866)
(Change tool to Default tool)

G00 Z5.000000
G00 X419.288900 Y970.045620

G01 Z-0.125000 F100.0(Penetrate)
G01 X417.710840 Y970.045620 Z-0.125000 F400.000000
G01 X417.710840 Y981.190530 Z-0.125000
G01 X419.288900 Y981.190530 Z-0.125000
G01 X419.288900 Y970.045620 Z-0.125000
G00 Z5.000000

(End cutting path id: path866)


(Start cutting path id: path814)
(Change tool to Default tool)

G00 Z5.000000
G00 X407.437480 Y972.113330

G01 Z-0.125000 F100.0(Penetrate)
G02 X406.313194 Y970.982338 Z-0.125000 I-6.011963 J4.852010 F400.000000
G02 X405.215730 Y970.293750 Z-0.125000 I-3.296972 J4.035821
G00 Z5.000000

(End cutting path id: path814)


(Start cutting path id: path814)
(Change tool to Default tool)

G00 Z5.000000
G00 X407.437480 Y972.113330

G01 Z-0.125000 F100.0(Penetrate)
G02 X406.313194 Y970.982338 Z-0.125000 I-6.011963 J4.852010 F400.000000
G02 X405.215730 Y970.293750 Z-0.125000 I-3.296972 J4.035821
G00 Z5.000000

(End cutting path id: path814)


(Start cutting path id: path816)
(Change tool to Default tool)

G00 Z5.000000
G00 X405.215730 Y970.293750

G01 Z-0.125000 F100.0(Penetrate)
G02 X403.978270 Y969.895824 Z-0.125000 I-2.486124 J5.608208 F400.000000
G02 X402.620230 Y969.756150 Z-0.125000 I-1.358040 J6.532236
G00 Z5.000000

(End cutting path id: path816)


(Start cutting path id: path816)
(Change tool to Default tool)

G00 Z5.000000
G00 X405.215730 Y970.293750

G01 Z-0.125000 F100.0(Penetrate)
G02 X403.978270 Y969.895824 Z-0.125000 I-2.486124 J5.608208 F400.000000
G02 X402.620230 Y969.756150 Z-0.125000 I-1.358040 J6.532236
G00 Z5.000000

(End cutting path id: path816)


(Start cutting path id: path818)
(Change tool to Default tool)

G00 Z5.000000
G00 X402.620230 Y969.756150

G01 Z-0.125000 F100.0(Penetrate)
G02 X401.396904 Y969.870381 Z-0.125000 I0.000000 J6.607581 F400.000000
G02 X400.315430 Y970.190360 Z-0.125000 I1.030839 J5.471638
G00 Z5.000000

(End cutting path id: path818)


(Start cutting path id: path818)
(Change tool to Default tool)

G00 Z5.000000
G00 X402.620230 Y969.756150

G01 Z-0.125000 F100.0(Penetrate)
G02 X401.396904 Y969.870381 Z-0.125000 I0.000000 J6.607581 F400.000000
G02 X400.315430 Y970.190360 Z-0.125000 I1.030839 J5.471638
G00 Z5.000000

(End cutting path id: path818)


(Start cutting path id: path820)
(Change tool to Default tool)

G00 Z5.000000
G00 X400.315430 Y970.190360

G01 Z-0.125000 F100.0(Penetrate)
G02 X399.317875 Y970.733242 Z-0.125000 I2.297062 J5.408846 F400.000000
G02 X398.488200 Y971.430980 Z-0.125000 I2.925641 J4.321006
G00 Z5.000000

(End cutting path id: path820)


(Start cutting path id: path820)
(Change tool to Default tool)

G00 Z5.000000
G00 X400.315430 Y970.190360

G01 Z-0.125000 F100.0(Penetrate)
G02 X399.317875 Y970.733242 Z-0.125000 I2.297062 J5.408846 F400.000000
G02 X398.488200 Y971.430980 Z-0.125000 I2.925641 J4.321006
G00 Z5.000000

(End cutting path id: path820)


(Start cutting path id: path822)
(Change tool to Default tool)

G00 Z5.000000
G00 X398.488200 Y971.430980

G01 Z-0.125000 F100.0(Penetrate)
G02 X397.806037 Y972.273992 Z-0.125000 I3.983122 J3.920640 F400.000000
G02 X397.263120 Y973.291910 Z-0.125000 I5.175020 J3.413894
G00 Z5.000000

(End cutting path id: path822)


(Start cutting path id: path822)
(Change tool to Default tool)

G00 Z5.000000
G00 X398.488200 Y971.430980

G01 Z-0.125000 F100.0(Penetrate)
G02 X397.806037 Y972.273992 Z-0.125000 I3.983122 J3.920640 F400.000000
G02 X397.263120 Y973.291910 Z-0.125000 I5.175020 J3.413894
G00 Z5.000000

(End cutting path id: path822)


(Start cutting path id: path824)
(Change tool to Default tool)

G00 Z5.000000
G00 X397.263120 Y973.291910

G01 Z-0.125000 F100.0(Penetrate)
G02 X396.941926 Y974.385685 Z-0.125000 I5.218383 J2.126461 F400.000000
G02 X396.827080 Y975.628420 Z-0.125000 I6.666335 J1.242735
G00 Z5.000000

(End cutting path id: path824)


(Start cutting path id: path824)
(Change tool to Default tool)

G00 Z5.000000
G00 X397.263120 Y973.291910

G01 Z-0.125000 F100.0(Penetrate)
G02 X396.941926 Y974.385685 Z-0.125000 I5.218383 J2.126461 F400.000000
G02 X396.827080 Y975.628420 Z-0.125000 I6.666335 J1.242735
G00 Z5.000000

(End cutting path id: path824)


(Start cutting path id: path826)
(Change tool to Default tool)

G00 Z5.000000
G00 X396.827080 Y975.628420

G01 Z-0.125000 F100.0(Penetrate)
G02 X396.942178 Y976.864390 Z-0.125000 I6.693742 J0.000000 F400.000000
G02 X397.263120 Y977.944240 Z-0.125000 I5.374531 J-1.009746
G00 Z5.000000

(End cutting path id: path826)


(Start cutting path id: path826)
(Change tool to Default tool)

G00 Z5.000000
G00 X396.827080 Y975.628420

G01 Z-0.125000 F100.0(Penetrate)
G02 X396.942178 Y976.864390 Z-0.125000 I6.693742 J0.000000 F400.000000
G02 X397.263120 Y977.944240 Z-0.125000 I5.374531 J-1.009746
G00 Z5.000000

(End cutting path id: path826)


(Start cutting path id: path828)
(Change tool to Default tool)

G00 Z5.000000
G00 X397.263120 Y977.944240

G01 Z-0.125000 F100.0(Penetrate)
G02 X397.786643 Y978.957952 Z-0.125000 I5.893885 J-2.401806 F400.000000
G02 X398.446670 Y979.805170 Z-0.125000 I4.758248 J-3.026217
G00 Z5.000000

(End cutting path id: path828)


(Start cutting path id: path828)
(Change tool to Default tool)

G00 Z5.000000
G00 X397.263120 Y977.944240

G01 Z-0.125000 F100.0(Penetrate)
G02 X397.786643 Y978.957952 Z-0.125000 I5.893885 J-2.401806 F400.000000
G02 X398.446670 Y979.805170 Z-0.125000 I4.758248 J-3.026217
G00 Z5.000000

(End cutting path id: path828)


(Start cutting path id: path830)
(Change tool to Default tool)

G00 Z5.000000
G00 X398.446670 Y979.805170

G01 Z-0.125000 F100.0(Penetrate)
G02 X399.272973 Y980.496445 Z-0.125000 I3.799321 J-3.701955 F400.000000
G02 X400.253140 Y981.025120 Z-0.125000 I3.117009 J-4.606005
G00 Z5.000000

(End cutting path id: path830)


(Start cutting path id: path830)
(Change tool to Default tool)

G00 Z5.000000
G00 X398.446670 Y979.805170

G01 Z-0.125000 F100.0(Penetrate)
G02 X399.272973 Y980.496445 Z-0.125000 I3.799321 J-3.701955 F400.000000
G02 X400.253140 Y981.025120 Z-0.125000 I3.117009 J-4.606005
G00 Z5.000000

(End cutting path id: path830)


(Start cutting path id: path832)
(Change tool to Default tool)

G00 Z5.000000
G00 X400.253140 Y981.025120

G01 Z-0.125000 F100.0(Penetrate)
G02 X401.314128 Y981.361247 Z-0.125000 I2.158285 J-4.970081 F400.000000
G02 X402.474890 Y981.480010 Z-0.125000 I1.160762 J-5.613106
G00 Z5.000000

(End cutting path id: path832)


(Start cutting path id: path832)
(Change tool to Default tool)

G00 Z5.000000
G00 X400.253140 Y981.025120

G01 Z-0.125000 F100.0(Penetrate)
G02 X401.314128 Y981.361247 Z-0.125000 I2.158285 J-4.970081 F400.000000
G02 X402.474890 Y981.480010 Z-0.125000 I1.160762 J-5.613106
G00 Z5.000000

(End cutting path id: path832)


(Start cutting path id: path834)
(Change tool to Default tool)

G00 Z5.000000
G00 X402.474890 Y981.480010

G01 Z-0.125000 F100.0(Penetrate)
G02 X403.712938 Y981.355750 Z-0.125000 I0.000000 J-6.229672 F400.000000
G02 X404.738160 Y981.025120 Z-0.125000 I-0.958574 J-4.727193
G00 Z5.000000

(End cutting path id: path834)


(Start cutting path id: path834)
(Change tool to Default tool)

G00 Z5.000000
G00 X402.474890 Y981.480010

G01 Z-0.125000 F100.0(Penetrate)
G02 X403.712938 Y981.355750 Z-0.125000 I0.000000 J-6.229672 F400.000000
G02 X404.738160 Y981.025120 Z-0.125000 I-0.958574 J-4.727193
G00 Z5.000000

(End cutting path id: path834)


(Start cutting path id: path836)
(Change tool to Default tool)

G00 Z5.000000
G00 X404.738160 Y981.025120

G01 Z-0.125000 F100.0(Penetrate)
G02 X405.690626 Y980.482482 Z-0.125000 I-2.420819 J-5.356376 F400.000000
G02 X406.440810 Y979.825850 Z-0.125000 I-2.659843 J-3.795644
G00 Z5.000000

(End cutting path id: path836)


(Start cutting path id: path836)
(Change tool to Default tool)

G00 Z5.000000
G00 X404.738160 Y981.025120

G01 Z-0.125000 F100.0(Penetrate)
G02 X405.690626 Y980.482482 Z-0.125000 I-2.420819 J-5.356376 F400.000000
G02 X406.440810 Y979.825850 Z-0.125000 I-2.659843 J-3.795644
G00 Z5.000000

(End cutting path id: path836)


(Start cutting path id: path838)
(Change tool to Default tool)

G00 Z5.000000
G00 X406.440810 Y979.825850

G01 Z-0.125000 F100.0(Penetrate)
G02 X407.033639 Y979.024769 Z-0.125000 I-3.434566 J-3.161600 F400.000000
G02 X407.479010 Y978.068300 Z-0.125000 I-4.830281 J-2.831103
G00 Z5.000000

(End cutting path id: path838)


(Start cutting path id: path838)
(Change tool to Default tool)

G00 Z5.000000
G00 X406.440810 Y979.825850

G01 Z-0.125000 F100.0(Penetrate)
G02 X407.033639 Y979.024769 Z-0.125000 I-3.434566 J-3.161600 F400.000000
G02 X407.479010 Y978.068300 Z-0.125000 I-4.830281 J-2.831103
G00 Z5.000000

(End cutting path id: path838)


(Start cutting path id: path840)
(Change tool to Default tool)

G00 Z5.000000
G00 X407.479010 Y978.068300

G01 Z-0.125000 F100.0(Penetrate)
G02 X407.739267 Y977.037229 Z-0.125000 I-5.926154 J-2.044229 F400.000000
G02 X407.832000 Y975.897220 Z-0.125000 I-6.960974 J-1.140009
G00 Z5.000000

(End cutting path id: path840)


(Start cutting path id: path840)
(Change tool to Default tool)

G00 Z5.000000
G00 X407.479010 Y978.068300

G01 Z-0.125000 F100.0(Penetrate)
G02 X407.739267 Y977.037229 Z-0.125000 I-5.926154 J-2.044229 F400.000000
G02 X407.832000 Y975.897220 Z-0.125000 I-6.960974 J-1.140009
G00 Z5.000000

(End cutting path id: path840)


(Start cutting path id: path860)
(Change tool to Default tool)

G00 Z5.000000
G00 X407.832000 Y975.897220

G01 Z-0.125000 F100.0(Penetrate)
G01 X407.832000 Y975.194200 Z-0.125000 F400.000000
G01 X398.508960 Y975.194200 Z-0.125000
G00 Z5.000000

(End cutting path id: path860)


(Start cutting path id: path860)
(Change tool to Default tool)

G00 Z5.000000
G00 X407.832000 Y975.897220

G01 Z-0.125000 F100.0(Penetrate)
G01 X407.832000 Y975.194200 Z-0.125000 F400.000000
G01 X398.508960 Y975.194200 Z-0.125000
G00 Z5.000000

(End cutting path id: path860)


(Start cutting path id: path800)
(Change tool to Default tool)

G00 Z5.000000
G00 X398.508960 Y975.194200

G01 Z-0.125000 F100.0(Penetrate)
G03 X398.639671 Y974.383557 Z-0.125000 I4.823619 J0.361918 F400.000000
G03 X398.903480 Y973.622750 Z-0.125000 I4.398148 J1.098913
G00 Z5.000000

(End cutting path id: path800)


(Start cutting path id: path800)
(Change tool to Default tool)

G00 Z5.000000
G00 X398.508960 Y975.194200

G01 Z-0.125000 F100.0(Penetrate)
G03 X398.639671 Y974.383557 Z-0.125000 I4.823619 J0.361918 F400.000000
G03 X398.903480 Y973.622750 Z-0.125000 I4.398148 J1.098913
G00 Z5.000000

(End cutting path id: path800)


(Start cutting path id: path802)
(Change tool to Default tool)

G00 Z5.000000
G00 X398.903480 Y973.622750

G01 Z-0.125000 F100.0(Penetrate)
G03 X399.309935 Y972.917790 Z-0.125000 I4.436787 J2.088441 F400.000000
G03 X399.796330 Y972.340770 Z-0.125000 I3.293412 J2.282646
G00 Z5.000000

(End cutting path id: path802)


(Start cutting path id: path802)
(Change tool to Default tool)

G00 Z5.000000
G00 X398.903480 Y973.622750

G01 Z-0.125000 F100.0(Penetrate)
G03 X399.309935 Y972.917790 Z-0.125000 I4.436787 J2.088441 F400.000000
G03 X399.796330 Y972.340770 Z-0.125000 I3.293412 J2.282646
G00 Z5.000000

(End cutting path id: path802)


(Start cutting path id: path804)
(Change tool to Default tool)

G00 Z5.000000
G00 X399.796330 Y972.340770

G01 Z-0.125000 F100.0(Penetrate)
G03 X400.394465 Y971.858460 Z-0.125000 I2.953418 J3.050631 F400.000000
G03 X401.062930 Y971.493010 Z-0.125000 I2.412555 J3.618847
G00 Z5.000000

(End cutting path id: path804)


(Start cutting path id: path804)
(Change tool to Default tool)

G00 Z5.000000
G00 X399.796330 Y972.340770

G01 Z-0.125000 F100.0(Penetrate)
G03 X400.394465 Y971.858460 Z-0.125000 I2.953418 J3.050631 F400.000000
G03 X401.062930 Y971.493010 Z-0.125000 I2.412555 J3.618847
G00 Z5.000000

(End cutting path id: path804)


(Start cutting path id: path806)
(Change tool to Default tool)

G00 Z5.000000
G00 X401.062930 Y971.493010

G01 Z-0.125000 F100.0(Penetrate)
G03 X401.803605 Y971.263387 Z-0.125000 I1.469894 J3.431934 F400.000000
G03 X402.620230 Y971.182860 Z-0.125000 I0.816625 J4.100438
G00 Z5.000000

(End cutting path id: path806)


(Start cutting path id: path806)
(Change tool to Default tool)

G00 Z5.000000
G00 X401.062930 Y971.493010

G01 Z-0.125000 F100.0(Penetrate)
G03 X401.803605 Y971.263387 Z-0.125000 I1.469894 J3.431934 F400.000000
G03 X402.620230 Y971.182860 Z-0.125000 I0.816625 J4.100438
G00 Z5.000000

(End cutting path id: path806)


(Start cutting path id: path808)
(Change tool to Default tool)

G00 Z5.000000
G00 X402.620230 Y971.182860

G01 Z-0.125000 F100.0(Penetrate)
G03 X403.835460 Y971.340805 Z-0.125000 I-0.000000 J4.753970 F400.000000
G03 X404.800450 Y971.761820 Z-0.125000 I-0.883519 J3.341488
G00 Z5.000000

(End cutting path id: path808)


(Start cutting path id: path808)
(Change tool to Default tool)

G00 Z5.000000
G00 X402.620230 Y971.182860

G01 Z-0.125000 F100.0(Penetrate)
G03 X403.835460 Y971.340805 Z-0.125000 I-0.000000 J4.753970 F400.000000
G03 X404.800450 Y971.761820 Z-0.125000 I-0.883519 J3.341488
G00 Z5.000000

(End cutting path id: path808)


(Start cutting path id: path810)
(Change tool to Default tool)

G00 Z5.000000
G00 X404.800450 Y971.761820

G01 Z-0.125000 F100.0(Penetrate)
G03 X405.653495 Y972.436780 Z-0.125000 I-2.910515 J4.554978 F400.000000
G03 X406.212400 Y973.126500 Z-0.125000 I-2.589717 J2.669853
G00 Z5.000000

(End cutting path id: path810)


(Start cutting path id: path810)
(Change tool to Default tool)

G00 Z5.000000
G00 X404.800450 Y971.761820

G01 Z-0.125000 F100.0(Penetrate)
G03 X405.653495 Y972.436780 Z-0.125000 I-2.910515 J4.554978 F400.000000
G03 X406.212400 Y973.126500 Z-0.125000 I-2.589717 J2.669853
G00 Z5.000000

(End cutting path id: path810)


(Start cutting path id: path842)
(Change tool to Default tool)

G00 Z5.000000
G00 X406.212400 Y973.126500

G01 Z-0.125000 F100.0(Penetrate)
G01 X407.437480 Y972.113330 Z-0.125000 F400.000000
G00 Z5.000000

(End cutting path id: path842)


(Start cutting path id: path842)
(Change tool to Default tool)

G00 Z5.000000
G00 X406.212400 Y973.126500

G01 Z-0.125000 F100.0(Penetrate)
G01 X407.437480 Y972.113330 Z-0.125000 F400.000000
G00 Z5.000000

(End cutting path id: path842)


(Start cutting path id: path786)
(Change tool to Default tool)

G00 Z5.000000
G00 X406.108580 Y976.476170

G01 Z-0.125000 F100.0(Penetrate)
G03 X405.841940 Y977.961186 Z-0.125000 I-4.268626 J-0.000000 F400.000000
G03 X405.153440 Y979.060800 Z-0.125000 I-3.000680 J-1.113462
G00 Z5.000000

(End cutting path id: path786)


(Start cutting path id: path786)
(Change tool to Default tool)

G00 Z5.000000
G00 X406.108580 Y976.476170

G01 Z-0.125000 F100.0(Penetrate)
G03 X405.841940 Y977.961186 Z-0.125000 I-4.268626 J-0.000000 F400.000000
G03 X405.153440 Y979.060800 Z-0.125000 I-3.000680 J-1.113462
G00 Z5.000000

(End cutting path id: path786)


(Start cutting path id: path788)
(Change tool to Default tool)

G00 Z5.000000
G00 X405.153440 Y979.060800

G01 Z-0.125000 F100.0(Penetrate)
G03 X404.073936 Y979.766570 Z-0.125000 I-2.087399 J-2.014303 F400.000000
G03 X402.474890 Y980.053300 Z-0.125000 I-1.599046 J-4.315451
G00 Z5.000000

(End cutting path id: path788)


(Start cutting path id: path788)
(Change tool to Default tool)

G00 Z5.000000
G00 X405.153440 Y979.060800

G01 Z-0.125000 F100.0(Penetrate)
G03 X404.073936 Y979.766570 Z-0.125000 I-2.087399 J-2.014303 F400.000000
G03 X402.474890 Y980.053300 Z-0.125000 I-1.599046 J-4.315451
G00 Z5.000000

(End cutting path id: path788)


(Start cutting path id: path790)
(Change tool to Default tool)

G00 Z5.000000
G00 X402.474890 Y980.053300

G01 Z-0.125000 F100.0(Penetrate)
G03 X401.719919 Y979.975810 Z-0.125000 I-0.000000 J-3.716502 F400.000000
G03 X400.979880 Y979.743140 Z-0.125000 I0.788835 J-3.802234
G00 Z5.000000

(End cutting path id: path790)


(Start cutting path id: path790)
(Change tool to Default tool)

G00 Z5.000000
G00 X402.474890 Y980.053300

G01 Z-0.125000 F100.0(Penetrate)
G03 X401.719919 Y979.975810 Z-0.125000 I-0.000000 J-3.716502 F400.000000
G03 X400.979880 Y979.743140 Z-0.125000 I0.788835 J-3.802234
G00 Z5.000000

(End cutting path id: path790)


(Start cutting path id: path792)
(Change tool to Default tool)

G00 Z5.000000
G00 X400.979880 Y979.743140

G01 Z-0.125000 F100.0(Penetrate)
G03 X400.306994 Y979.395461 Z-0.125000 I1.757294 J-4.225987 F400.000000
G03 X399.734040 Y978.957410 Z-0.125000 I2.062041 J-3.290797
G00 Z5.000000

(End cutting path id: path792)


(Start cutting path id: path792)
(Change tool to Default tool)

G00 Z5.000000
G00 X400.979880 Y979.743140

G01 Z-0.125000 F100.0(Penetrate)
G03 X400.306994 Y979.395461 Z-0.125000 I1.757294 J-4.225987 F400.000000
G03 X399.734040 Y978.957410 Z-0.125000 I2.062041 J-3.290797
G00 Z5.000000

(End cutting path id: path792)


(Start cutting path id: path794)
(Change tool to Default tool)

G00 Z5.000000
G00 X399.734040 Y978.957410

G01 Z-0.125000 F100.0(Penetrate)
G03 X399.243682 Y978.418599 Z-0.125000 I2.615918 J-2.873216 F400.000000
G03 X398.861950 Y977.799500 Z-0.125000 I3.166596 J-2.379737
G00 Z5.000000

(End cutting path id: path794)


(Start cutting path id: path794)
(Change tool to Default tool)

G00 Z5.000000
G00 X399.734040 Y978.957410

G01 Z-0.125000 F100.0(Penetrate)
G03 X399.243682 Y978.418599 Z-0.125000 I2.615918 J-2.873216 F400.000000
G03 X398.861950 Y977.799500 Z-0.125000 I3.166596 J-2.379737
G00 Z5.000000

(End cutting path id: path794)


(Start cutting path id: path796)
(Change tool to Default tool)

G00 Z5.000000
G00 X398.861950 Y977.799500

G01 Z-0.125000 F100.0(Penetrate)
G03 X398.627649 Y977.139563 Z-0.125000 I2.882156 J-1.394828 F400.000000
G03 X398.550490 Y976.476170 Z-0.125000 I2.813255 J-0.663393
G00 Z5.000000

(End cutting path id: path796)


(Start cutting path id: path796)
(Change tool to Default tool)

G00 Z5.000000
G00 X398.861950 Y977.799500

G01 Z-0.125000 F100.0(Penetrate)
G03 X398.627649 Y977.139563 Z-0.125000 I2.882156 J-1.394828 F400.000000
G03 X398.550490 Y976.476170 Z-0.125000 I2.813255 J-0.663393
G00 Z5.000000

(End cutting path id: path796)


(Start cutting path id: path812)
(Change tool to Default tool)

G00 Z5.000000
G00 X398.550490 Y976.476170

G01 Z-0.125000 F100.0(Penetrate)
G01 X406.108580 Y976.476170 Z-0.125000 F400.000000
G00 Z5.000000

(End cutting path id: path812)


(Start cutting path id: path812)
(Change tool to Default tool)

G00 Z5.000000
G00 X398.550490 Y976.476170

G01 Z-0.125000 F100.0(Penetrate)
G01 X406.108580 Y976.476170 Z-0.125000 F400.000000
G00 Z5.000000

(End cutting path id: path812)


(Start cutting path id: path778)
(Change tool to Default tool)

G00 Z5.000000
G00 X393.701850 Y977.117160

G01 Z-0.125000 F100.0(Penetrate)
G01 X393.701850 Y970.045620 Z-0.125000 F400.000000
G01 X392.123780 Y970.045620 Z-0.125000
G01 X392.123780 Y976.207370 Z-0.125000
G00 Z5.000000

(End cutting path id: path778)


(Start cutting path id: path778)
(Change tool to Default tool)

G00 Z5.000000
G00 X393.701850 Y977.117160

G01 Z-0.125000 F100.0(Penetrate)
G01 X393.701850 Y970.045620 Z-0.125000 F400.000000
G01 X392.123780 Y970.045620 Z-0.125000
G01 X392.123780 Y976.207370 Z-0.125000
G00 Z5.000000

(End cutting path id: path778)


(Start cutting path id: path766)
(Change tool to Default tool)

G00 Z5.000000
G00 X392.123780 Y976.207370

G01 Z-0.125000 F100.0(Penetrate)
