%
(Header)
(Generated by gcodetools from Inkscape.)
(Using default header. To add your own header create file "header" in the output dir.)
M3
(Header end.)
G21 (All units in mm)

(Start cutting path id: path3645)
(Change tool to Default tool)

G00 Z5.000000
G00 X88.690044 Y226.688892

G01 Z-0.125000 F100.0(Penetrate)
G01 X92.690531 Y226.688892 Z-0.125000 F400.000000
G01 X92.690531 Y227.355639 Z-0.125000
G01 X92.362449 Y228.022387 Z-0.125000
G01 X92.023783 Y228.361053 Z-0.125000
G01 X91.357035 Y228.689135 Z-0.125000
G01 X90.351622 Y228.689135 Z-0.125000
G01 X89.695457 Y228.361053 Z-0.125000
G01 X89.018126 Y227.683722 Z-0.125000
G01 X88.690044 Y226.688892 Z-0.125000
G01 X88.690044 Y226.022144 Z-0.125000
G01 X89.018126 Y225.022022 Z-0.125000
G01 X89.695457 Y224.355274 Z-0.125000
G01 X90.351622 Y224.021900 Z-0.125000
G01 X91.357035 Y224.021900 Z-0.125000
G01 X92.023783 Y224.355274 Z-0.125000
G01 X92.690531 Y225.022022 Z-0.125000
G00 Z5.000000

(End cutting path id: path3645)


(Start cutting path id: path3645)
(Change tool to Default tool)

G00 Z5.000000
G00 X88.690044 Y226.688892

G01 Z-0.125000 F100.0(Penetrate)
G01 X92.690531 Y226.688892 Z-0.125000 F400.000000
G01 X92.690531 Y227.355639 Z-0.125000
G01 X92.362449 Y228.022387 Z-0.125000
G01 X92.023783 Y228.361053 Z-0.125000
G01 X91.357035 Y228.689135 Z-0.125000
G01 X90.351622 Y228.689135 Z-0.125000
G01 X89.695457 Y228.361053 Z-0.125000
G01 X89.018126 Y227.683722 Z-0.125000
G01 X88.690044 Y226.688892 Z-0.125000
G01 X88.690044 Y226.022144 Z-0.125000
G01 X89.018126 Y225.022022 Z-0.125000
G01 X89.695457 Y224.355274 Z-0.125000
G01 X90.351622 Y224.021900 Z-0.125000
G01 X91.357035 Y224.021900 Z-0.125000
G01 X92.023783 Y224.355274 Z-0.125000
G01 X92.690531 Y225.022022 Z-0.125000
G00 Z5.000000

(End cutting path id: path3645)


(Start cutting path id: path3709)
(Change tool to Default tool)

G00 Z5.000000
G00 X87.028449 Y228.689135

G01 Z-0.125000 F100.0(Penetrate)
G01 X85.017622 Y224.021900 Z-0.125000 F400.000000
G00 Z5.000000

(End cutting path id: path3709)


(Start cutting path id: path3709)
(Change tool to Default tool)

G00 Z5.000000
G00 X87.028449 Y228.689135

G01 Z-0.125000 F100.0(Penetrate)
G01 X85.017622 Y224.021900 Z-0.125000 F400.000000
G00 Z5.000000

(End cutting path id: path3709)


(Start cutting path id: path3643)
(Change tool to Default tool)

G00 Z5.000000
G00 X83.027961 Y228.689135

G01 Z-0.125000 F100.0(Penetrate)
G01 X85.017622 Y224.021900 Z-0.125000 F400.000000
G00 Z5.000000

(End cutting path id: path3643)


(Start cutting path id: path3643)
(Change tool to Default tool)

G00 Z5.000000
G00 X83.027961 Y228.689135

G01 Z-0.125000 F100.0(Penetrate)
G01 X85.017622 Y224.021900 Z-0.125000 F400.000000
G00 Z5.000000

(End cutting path id: path3643)


(Start cutting path id: path3641)
(Change tool to Default tool)

G00 Z5.000000
G00 X77.355344 Y226.688892

G01 Z-0.125000 F100.0(Penetrate)
G01 X81.355831 Y226.688892 Z-0.125000 F400.000000
G01 X81.355831 Y227.355639 Z-0.125000
G01 X81.027749 Y228.022387 Z-0.125000
G01 X80.689083 Y228.361053 Z-0.125000
G01 X80.022335 Y228.689135 Z-0.125000
G01 X79.016922 Y228.689135 Z-0.125000
G01 X78.360757 Y228.361053 Z-0.125000
G01 X77.683426 Y227.683722 Z-0.125000
G01 X77.355344 Y226.688892 Z-0.125000
G01 X77.355344 Y226.022144 Z-0.125000
G01 X77.683426 Y225.022022 Z-0.125000
G01 X78.360757 Y224.355274 Z-0.125000
G01 X79.016922 Y224.021900 Z-0.125000
G01 X80.022335 Y224.021900 Z-0.125000
G01 X80.689083 Y224.355274 Z-0.125000
G01 X81.355831 Y225.022022 Z-0.125000
G00 Z5.000000

(End cutting path id: path3641)


(Start cutting path id: path3641)
(Change tool to Default tool)

G00 Z5.000000
G00 X77.355344 Y226.688892

G01 Z-0.125000 F100.0(Penetrate)
G01 X81.355831 Y226.688892 Z-0.125000 F400.000000
G01 X81.355831 Y227.355639 Z-0.125000
G01 X81.027749 Y228.022387 Z-0.125000
G01 X80.689083 Y228.361053 Z-0.125000
G01 X80.022335 Y228.689135 Z-0.125000
G01 X79.016922 Y228.689135 Z-0.125000
G01 X78.360757 Y228.361053 Z-0.125000
G01 X77.683426 Y227.683722 Z-0.125000
G01 X77.355344 Y226.688892 Z-0.125000
G01 X77.355344 Y226.022144 Z-0.125000
G01 X77.683426 Y225.022022 Z-0.125000
G01 X78.360757 Y224.355274 Z-0.125000
G01 X79.016922 Y224.021900 Z-0.125000
G01 X80.022335 Y224.021900 Z-0.125000
G01 X80.689083 Y224.355274 Z-0.125000
G01 X81.355831 Y225.022022 Z-0.125000
G00 Z5.000000

(End cutting path id: path3641)


(Start cutting path id: path3701)
(Change tool to Default tool)

G00 Z5.000000
G00 X75.016426 Y228.689135

G01 Z-0.125000 F100.0(Penetrate)
G01 X75.016426 Y224.021900 Z-0.125000 F400.000000
G00 Z5.000000

(End cutting path id: path3701)


(Start cutting path id: path3701)
(Change tool to Default tool)

G00 Z5.000000
G00 X75.016426 Y228.689135

G01 Z-0.125000 F100.0(Penetrate)
G01 X75.016426 Y224.021900 Z-0.125000 F400.000000
G00 Z5.000000

(End cutting path id: path3701)


(Start cutting path id: path3697)
(Change tool to Default tool)

G00 Z5.000000
G00 X73.026749 Y228.689135

G01 Z-0.125000 F100.0(Penetrate)
G01 X71.015922 Y224.021900 Z-0.125000 F400.000000
G00 Z5.000000

(End cutting path id: path3697)


(Start cutting path id: path3697)
(Change tool to Default tool)

G00 Z5.000000
G00 X73.026749 Y228.689135

G01 Z-0.125000 F100.0(Penetrate)
G01 X71.015922 Y224.021900 Z-0.125000 F400.000000
G00 Z5.000000

(End cutting path id: path3697)


(Start cutting path id: path3637)
(Change tool to Default tool)

G00 Z5.000000
G00 X69.026261 Y228.689135

G01 Z-0.125000 F100.0(Penetrate)
G01 X71.015922 Y224.021900 Z-0.125000 F400.000000
G00 Z5.000000

(End cutting path id: path3637)


(Start cutting path id: path3637)
(Change tool to Default tool)

G00 Z5.000000
G00 X69.026261 Y228.689135

G01 Z-0.125000 F100.0(Penetrate)
G01 X71.015922 Y224.021900 Z-0.125000 F400.000000
G00 Z5.000000

(End cutting path id: path3637)


(Start cutting path id: path3639)
(Change tool to Default tool)

G00 Z5.000000
G00 X74.688344 Y231.028045

G01 Z-0.125000 F100.0(Penetrate)
G01 X75.016426 Y230.689379 Z-0.125000 F400.000000
G01 X75.355092 Y231.028045 Z-0.125000
G01 X75.016426 Y231.356127 Z-0.125000
G01 X74.688344 Y231.028045 Z-0.125000
G00 Z5.000000

(End cutting path id: path3639)


(Start cutting path id: path3639)
(Change tool to Default tool)

G00 Z5.000000
G00 X74.688344 Y231.028045

G01 Z-0.125000 F100.0(Penetrate)
G01 X75.016426 Y230.689379 Z-0.125000 F400.000000
G01 X75.355092 Y231.028045 Z-0.125000
G01 X75.016426 Y231.356127 Z-0.125000
G01 X74.688344 Y231.028045 Z-0.125000
G00 Z5.000000

(End cutting path id: path3639)


(Start cutting path id: path3705)
(Change tool to Default tool)

G00 Z5.000000
G00 X78.688839 Y231.853542

G01 Z-0.125000 F100.0(Penetrate)
G01 X79.651920 Y230.551796 Z-0.125000 F400.000000
G00 Z5.000000

(End cutting path id: path3705)


(Start cutting path id: path3705)
(Change tool to Default tool)

G00 Z5.000000
G00 X78.688839 Y231.853542

G01 Z-0.125000 F100.0(Penetrate)
G01 X79.651920 Y230.551796 Z-0.125000 F400.000000
G00 Z5.000000

(End cutting path id: path3705)


(Start cutting path id: path3635)
(Change tool to Default tool)

G00 Z5.000000
G00 X63.353644 Y226.688892

G01 Z-0.125000 F100.0(Penetrate)
G01 X67.354131 Y226.688892 Z-0.125000 F400.000000
G01 X67.354131 Y227.355639 Z-0.125000
G01 X67.026049 Y228.022387 Z-0.125000
G01 X66.687383 Y228.361053 Z-0.125000
G01 X66.020635 Y228.689135 Z-0.125000
G01 X65.015222 Y228.689135 Z-0.125000
G01 X64.359057 Y228.361053 Z-0.125000
G01 X63.681726 Y227.683722 Z-0.125000
G01 X63.353644 Y226.688892 Z-0.125000
G01 X63.353644 Y226.022144 Z-0.125000
G01 X63.681726 Y225.022022 Z-0.125000
G01 X64.359057 Y224.355274 Z-0.125000
G01 X65.015222 Y224.021900 Z-0.125000
G01 X66.020635 Y224.021900 Z-0.125000
G01 X66.687383 Y224.355274 Z-0.125000
G01 X67.354131 Y225.022022 Z-0.125000
G00 Z5.000000

(End cutting path id: path3635)


(Start cutting path id: path3635)
(Change tool to Default tool)

G00 Z5.000000
G00 X63.353644 Y226.688892

G01 Z-0.125000 F100.0(Penetrate)
G01 X67.354131 Y226.688892 Z-0.125000 F400.000000
G01 X67.354131 Y227.355639 Z-0.125000
G01 X67.026049 Y228.022387 Z-0.125000
G01 X66.687383 Y228.361053 Z-0.125000
G01 X66.020635 Y228.689135 Z-0.125000
G01 X65.015222 Y228.689135 Z-0.125000
G01 X64.359057 Y228.361053 Z-0.125000
G01 X63.681726 Y227.683722 Z-0.125000
G01 X63.353644 Y226.688892 Z-0.125000
G01 X63.353644 Y226.022144 Z-0.125000
G01 X63.681726 Y225.022022 Z-0.125000
G01 X64.359057 Y224.355274 Z-0.125000
G01 X65.015222 Y224.021900 Z-0.125000
G01 X66.020635 Y224.021900 Z-0.125000
G01 X66.687383 Y224.355274 Z-0.125000
G01 X67.354131 Y225.022022 Z-0.125000
G00 Z5.000000

(End cutting path id: path3635)


(Start cutting path id: path3691)
(Change tool to Default tool)

G00 Z5.000000
G00 X57.352926 Y227.355639

G01 Z-0.125000 F100.0(Penetrate)
G01 X58.358339 Y228.361053 Z-0.125000 F400.000000
G01 X59.025087 Y228.689135 Z-0.125000
G01 X60.019918 Y228.689135 Z-0.125000
G01 X60.697249 Y228.361053 Z-0.125000
G01 X61.025331 Y227.355639 Z-0.125000
G01 X61.025331 Y224.021900 Z-0.125000
G00 Z5.000000

(End cutting path id: path3691)


(Start cutting path id: path3691)
(Change tool to Default tool)

G00 Z5.000000
G00 X57.352926 Y227.355639

G01 Z-0.125000 F100.0(Penetrate)
G01 X58.358339 Y228.361053 Z-0.125000 F400.000000
G01 X59.025087 Y228.689135 Z-0.125000
G01 X60.019918 Y228.689135 Z-0.125000
G01 X60.697249 Y228.361053 Z-0.125000
G01 X61.025331 Y227.355639 Z-0.125000
G01 X61.025331 Y224.021900 Z-0.125000
G00 Z5.000000

(End cutting path id: path3691)


(Start cutting path id: path3633)
(Change tool to Default tool)

G00 Z5.000000
G00 X57.352926 Y228.689135

G01 Z-0.125000 F100.0(Penetrate)
G01 X57.352926 Y224.021900 Z-0.125000 F400.000000
G00 Z5.000000

(End cutting path id: path3633)


(Start cutting path id: path3633)
(Change tool to Default tool)

G00 Z5.000000
G00 X57.352926 Y228.689135

G01 Z-0.125000 F100.0(Penetrate)
G01 X57.352926 Y224.021900 Z-0.125000 F400.000000
G00 Z5.000000

(End cutting path id: path3633)


(Start cutting path id: path3631)
(Change tool to Default tool)

G00 Z5.000000
G00 X51.024084 Y226.688892

G01 Z-0.125000 F100.0(Penetrate)
G01 X55.024571 Y226.688892 Z-0.125000 F400.000000
G01 X55.024571 Y227.355639 Z-0.125000
G01 X54.696489 Y228.022387 Z-0.125000
G01 X54.357823 Y228.361053 Z-0.125000
G01 X53.691075 Y228.689135 Z-0.125000
G01 X52.685662 Y228.689135 Z-0.125000
G01 X52.029497 Y228.361053 Z-0.125000
G01 X51.352166 Y227.683722 Z-0.125000
G01 X51.024084 Y226.688892 Z-0.125000
G01 X51.024084 Y226.022144 Z-0.125000
G01 X51.352166 Y225.022022 Z-0.125000
G01 X52.029497 Y224.355274 Z-0.125000
G01 X52.685662 Y224.021900 Z-0.125000
G01 X53.691075 Y224.021900 Z-0.125000
G01 X54.357823 Y224.355274 Z-0.125000
G01 X55.024571 Y225.022022 Z-0.125000
G00 Z5.000000

(End cutting path id: path3631)


(Start cutting path id: path3631)
(Change tool to Default tool)

G00 Z5.000000
G00 X51.024084 Y226.688892

G01 Z-0.125000 F100.0(Penetrate)
G01 X55.024571 Y226.688892 Z-0.125000 F400.000000
G01 X55.024571 Y227.355639 Z-0.125000
G01 X54.696489 Y228.022387 Z-0.125000
G01 X54.357823 Y228.361053 Z-0.125000
G01 X53.691075 Y228.689135 Z-0.125000
G01 X52.685662 Y228.689135 Z-0.125000
G01 X52.029497 Y228.361053 Z-0.125000
G01 X51.352166 Y227.683722 Z-0.125000
G01 X51.024084 Y226.688892 Z-0.125000
G01 X51.024084 Y226.022144 Z-0.125000
G01 X51.352166 Y225.022022 Z-0.125000
G01 X52.029497 Y224.355274 Z-0.125000
G01 X52.685662 Y224.021900 Z-0.125000
G01 X53.691075 Y224.021900 Z-0.125000
G01 X54.357823 Y224.355274 Z-0.125000
G01 X55.024571 Y225.022022 Z-0.125000
G00 Z5.000000

(End cutting path id: path3631)


(Start cutting path id: path3629)
(Change tool to Default tool)

G00 Z5.000000
G00 X49.023845 Y229.355883

G01 Z-0.125000 F100.0(Penetrate)
G01 X48.685179 Y230.022631 Z-0.125000 F400.000000
G01 X48.018431 Y230.689379 Z-0.125000
G01 X47.351683 Y231.028045 Z-0.125000
G01 X46.018187 Y231.028045 Z-0.125000
G01 X45.351439 Y230.689379 Z-0.125000
G01 X44.684692 Y230.022631 Z-0.125000
G01 X44.346026 Y229.355883 Z-0.125000
G01 X44.017944 Y228.361053 Z-0.125000
G01 X44.017944 Y226.688892 Z-0.125000
G01 X44.346026 Y225.694061 Z-0.125000
G01 X44.684692 Y225.022022 Z-0.125000
G01 X45.351439 Y224.355274 Z-0.125000
G01 X46.018187 Y224.021900 Z-0.125000
G01 X47.351683 Y224.021900 Z-0.125000
G01 X48.018431 Y224.355274 Z-0.125000
G01 X48.685179 Y225.022022 Z-0.125000
G01 X49.023845 Y225.694061 Z-0.125000
G01 X49.023845 Y226.688892 Z-0.125000
G00 Z5.000000

(End cutting path id: path3629)


(Start cutting path id: path3629)
(Change tool to Default tool)

G00 Z5.000000
G00 X49.023845 Y229.355883

G01 Z-0.125000 F100.0(Penetrate)
G01 X48.685179 Y230.022631 Z-0.125000 F400.000000
G01 X48.018431 Y230.689379 Z-0.125000
G01 X47.351683 Y231.028045 Z-0.125000
G01 X46.018187 Y231.028045 Z-0.125000
G01 X45.351439 Y230.689379 Z-0.125000
G01 X44.684692 Y230.022631 Z-0.125000
G01 X44.346026 Y229.355883 Z-0.125000
G01 X44.017944 Y228.361053 Z-0.125000
G01 X44.017944 Y226.688892 Z-0.125000
G01 X44.346026 Y225.694061 Z-0.125000
G01 X44.684692 Y225.022022 Z-0.125000
G01 X45.351439 Y224.355274 Z-0.125000
G01 X46.018187 Y224.021900 Z-0.125000
G01 X47.351683 Y224.021900 Z-0.125000
G01 X48.018431 Y224.355274 Z-0.125000
G01 X48.685179 Y225.022022 Z-0.125000
G01 X49.023845 Y225.694061 Z-0.125000
G01 X49.023845 Y226.688892 Z-0.125000
G00 Z5.000000

(End cutting path id: path3629)


(Start cutting path id: path3685)
(Change tool to Default tool)

G00 Z5.000000
G00 X47.351683 Y226.688892

G01 Z-0.125000 F100.0(Penetrate)
G01 X49.023845 Y226.688892 Z-0.125000 F400.000000
G00 Z5.000000

(End cutting path id: path3685)


(Start cutting path id: path3685)
(Change tool to Default tool)

G00 Z5.000000
G00 X47.351683 Y226.688892

G01 Z-0.125000 F100.0(Penetrate)
G01 X49.023845 Y226.688892 Z-0.125000 F400.000000
G00 Z5.000000

(End cutting path id: path3685)


(Footer)
M5
G00 X0.0000 Y0.0000
M2
(Using default footer. To add your own footer create file "footer" in the output dir.)
(end)
%