%
(Header)
(Generated by gcodetools from Inkscape.)
(Using default header. To add your own header create file "header" in the output dir.)
M3
(Header end.)
G21 (All units in mm)

(Start cutting path id: path41)
(Change tool to Default tool)

G00 Z5.000000
G00 X138.895380 Y225.893631

G01 Z-0.125000 F100.0(Penetrate)
G01 X138.228630 Y226.560379 Z-0.125000 F400.000000
G01 X137.223220 Y226.899045 Z-0.125000
G01 X135.889720 Y226.899045 Z-0.125000
G01 X134.894890 Y226.560379 Z-0.125000
G01 X134.228140 Y225.893631 Z-0.125000
G01 X134.228140 Y225.226883 Z-0.125000
G01 X134.556230 Y224.560135 Z-0.125000
G01 X134.894890 Y224.232053 Z-0.125000
G01 X135.561640 Y223.893387 Z-0.125000
G01 X137.561880 Y223.226640 Z-0.125000
G01 X138.228630 Y222.898557 Z-0.125000
G01 X138.556710 Y222.559892 Z-0.125000
G01 X138.895380 Y221.893144 Z-0.125000
G01 X138.895380 Y220.893022 Z-0.125000
G01 X138.228630 Y220.226274 Z-0.125000
G01 X137.223220 Y219.892900 Z-0.125000
G01 X135.889720 Y219.892900 Z-0.125000
G01 X134.894890 Y220.226274 Z-0.125000
G01 X134.228140 Y220.893022 Z-0.125000
G00 Z5.000000

(End cutting path id: path41)


(Start cutting path id: path41)
(Change tool to Default tool)

G00 Z5.000000
G00 X138.895380 Y225.893631

G01 Z-0.125000 F100.0(Penetrate)
G01 X138.228630 Y226.560379 Z-0.125000 F400.000000
G01 X137.223220 Y226.899045 Z-0.125000
G01 X135.889720 Y226.899045 Z-0.125000
G01 X134.894890 Y226.560379 Z-0.125000
G01 X134.228140 Y225.893631 Z-0.125000
G01 X134.228140 Y225.226883 Z-0.125000
G01 X134.556230 Y224.560135 Z-0.125000
G01 X134.894890 Y224.232053 Z-0.125000
G01 X135.561640 Y223.893387 Z-0.125000
G01 X137.561880 Y223.226640 Z-0.125000
G01 X138.228630 Y222.898557 Z-0.125000
G01 X138.556710 Y222.559892 Z-0.125000
G01 X138.895380 Y221.893144 Z-0.125000
G01 X138.895380 Y220.893022 Z-0.125000
G01 X138.228630 Y220.226274 Z-0.125000
G01 X137.223220 Y219.892900 Z-0.125000
G01 X135.889720 Y219.892900 Z-0.125000
G01 X134.894890 Y220.226274 Z-0.125000
G01 X134.228140 Y220.893022 Z-0.125000
G00 Z5.000000

(End cutting path id: path41)


(Start cutting path id: path139)
(Change tool to Default tool)

G00 Z5.000000
G00 X131.899840 Y226.899045

G01 Z-0.125000 F100.0(Penetrate)
G01 X131.899840 Y219.892900 Z-0.125000 F400.000000
G00 Z5.000000

(End cutting path id: path139)


(Start cutting path id: path139)
(Change tool to Default tool)

G00 Z5.000000
G00 X131.899840 Y226.899045

G01 Z-0.125000 F100.0(Penetrate)
G01 X131.899840 Y219.892900 Z-0.125000 F400.000000
G00 Z5.000000

(End cutting path id: path139)


(Start cutting path id: path39)
(Change tool to Default tool)

G00 Z5.000000
G00 X127.222030 Y226.899045

G01 Z-0.125000 F100.0(Penetrate)
G01 X127.222030 Y219.892900 Z-0.125000 F400.000000
G00 Z5.000000

(End cutting path id: path39)


(Start cutting path id: path39)
(Change tool to Default tool)

G00 Z5.000000
G00 X127.222030 Y226.899045

G01 Z-0.125000 F100.0(Penetrate)
G01 X127.222030 Y219.892900 Z-0.125000 F400.000000
G00 Z5.000000

(End cutting path id: path39)


(Start cutting path id: path133)
(Change tool to Default tool)

G00 Z5.000000
G00 X120.893230 Y219.892900

G01 Z-0.125000 F100.0(Penetrate)
G01 X125.232380 Y219.892900 Z-0.125000 F400.000000
G00 Z5.000000

(End cutting path id: path133)


(Start cutting path id: path133)
(Change tool to Default tool)

G00 Z5.000000
G00 X120.893230 Y219.892900

G01 Z-0.125000 F100.0(Penetrate)
G01 X125.232380 Y219.892900 Z-0.125000 F400.000000
G00 Z5.000000

(End cutting path id: path133)


(Start cutting path id: path131)
(Change tool to Default tool)

G00 Z5.000000
G00 X120.893230 Y223.554722

G01 Z-0.125000 F100.0(Penetrate)
G01 X123.560220 Y223.554722 Z-0.125000 F400.000000
G00 Z5.000000

(End cutting path id: path131)


(Start cutting path id: path131)
(Change tool to Default tool)

G00 Z5.000000
G00 X120.893230 Y223.554722

G01 Z-0.125000 F100.0(Penetrate)
G01 X123.560220 Y223.554722 Z-0.125000 F400.000000
G00 Z5.000000

(End cutting path id: path131)


(Start cutting path id: path37)
(Change tool to Default tool)

G00 Z5.000000
G00 X120.893230 Y226.899045

G01 Z-0.125000 F100.0(Penetrate)
G01 X120.893230 Y219.892900 Z-0.125000 F400.000000
G00 Z5.000000

(End cutting path id: path37)


(Start cutting path id: path37)
(Change tool to Default tool)

G00 Z5.000000
G00 X120.893230 Y226.899045

G01 Z-0.125000 F100.0(Penetrate)
G01 X120.893230 Y219.892900 Z-0.125000 F400.000000
G00 Z5.000000

(End cutting path id: path37)


(Start cutting path id: path35)
(Change tool to Default tool)

G00 Z5.000000
G00 X118.564880 Y225.893631

G01 Z-0.125000 F100.0(Penetrate)
G01 X117.898130 Y226.560379 Z-0.125000 F400.000000
G01 X116.892720 Y226.899045 Z-0.125000
G01 X115.559220 Y226.899045 Z-0.125000
G01 X114.564390 Y226.560379 Z-0.125000
G01 X113.897640 Y225.893631 Z-0.125000
G01 X113.897640 Y225.226883 Z-0.125000
G01 X114.225730 Y224.560135 Z-0.125000
G01 X114.564390 Y224.232053 Z-0.125000
G01 X115.231140 Y223.893387 Z-0.125000
G01 X117.231380 Y223.226640 Z-0.125000
G01 X117.898130 Y222.898557 Z-0.125000
G01 X118.226210 Y222.559892 Z-0.125000
G01 X118.564880 Y221.893144 Z-0.125000
G01 X118.564880 Y220.893022 Z-0.125000
G01 X117.898130 Y220.226274 Z-0.125000
G01 X116.892720 Y219.892900 Z-0.125000
G01 X115.559220 Y219.892900 Z-0.125000
G01 X114.564390 Y220.226274 Z-0.125000
G01 X113.897640 Y220.893022 Z-0.125000
G00 Z5.000000

(End cutting path id: path35)


(Start cutting path id: path35)
(Change tool to Default tool)

G00 Z5.000000
G00 X118.564880 Y225.893631

G01 Z-0.125000 F100.0(Penetrate)
G01 X117.898130 Y226.560379 Z-0.125000 F400.000000
G01 X116.892720 Y226.899045 Z-0.125000
G01 X115.559220 Y226.899045 Z-0.125000
G01 X114.564390 Y226.560379 Z-0.125000
G01 X113.897640 Y225.893631 Z-0.125000
G01 X113.897640 Y225.226883 Z-0.125000
G01 X114.225730 Y224.560135 Z-0.125000
G01 X114.564390 Y224.232053 Z-0.125000
G01 X115.231140 Y223.893387 Z-0.125000
G01 X117.231380 Y223.226640 Z-0.125000
G01 X117.898130 Y222.898557 Z-0.125000
G01 X118.226210 Y222.559892 Z-0.125000
G01 X118.564880 Y221.893144 Z-0.125000
G01 X118.564880 Y220.893022 Z-0.125000
G01 X117.898130 Y220.226274 Z-0.125000
G01 X116.892720 Y219.892900 Z-0.125000
G01 X115.559220 Y219.892900 Z-0.125000
G01 X114.564390 Y220.226274 Z-0.125000
G01 X113.897640 Y220.893022 Z-0.125000
G00 Z5.000000

(End cutting path id: path35)


(Start cutting path id: path123)
(Change tool to Default tool)

G00 Z5.000000
G00 X112.564080 Y226.899045

G01 Z-0.125000 F100.0(Penetrate)
G01 X109.897090 Y223.554722 Z-0.125000 F400.000000
G00 Z5.000000

(End cutting path id: path123)


(Start cutting path id: path123)
(Change tool to Default tool)

G00 Z5.000000
G00 X112.564080 Y226.899045

G01 Z-0.125000 F100.0(Penetrate)
G01 X109.897090 Y223.554722 Z-0.125000 F400.000000
G00 Z5.000000

(End cutting path id: path123)


(Start cutting path id: path33)
(Change tool to Default tool)

G00 Z5.000000
G00 X107.230100 Y226.899045

G01 Z-0.125000 F100.0(Penetrate)
G01 X109.897090 Y223.554722 Z-0.125000 F400.000000
G01 X109.897090 Y219.892900 Z-0.125000
G00 Z5.000000

(End cutting path id: path33)


(Start cutting path id: path33)
(Change tool to Default tool)

G00 Z5.000000
G00 X107.230100 Y226.899045

G01 Z-0.125000 F100.0(Penetrate)
G01 X109.897090 Y223.554722 Z-0.125000 F400.000000
G01 X109.897090 Y219.892900 Z-0.125000
G00 Z5.000000

(End cutting path id: path33)


(Start cutting path id: path119)
(Change tool to Default tool)

G00 Z5.000000
G00 X101.896130 Y219.892900

G01 Z-0.125000 F100.0(Penetrate)
G01 X106.235280 Y219.892900 Z-0.125000 F400.000000
G00 Z5.000000

(End cutting path id: path119)


(Start cutting path id: path119)
(Change tool to Default tool)

G00 Z5.000000
G00 X101.896130 Y219.892900

G01 Z-0.125000 F100.0(Penetrate)
G01 X106.235280 Y219.892900 Z-0.125000 F400.000000
G00 Z5.000000

(End cutting path id: path119)


(Start cutting path id: path117)
(Change tool to Default tool)

G00 Z5.000000
G00 X101.896130 Y223.554722

G01 Z-0.125000 F100.0(Penetrate)
G01 X104.563120 Y223.554722 Z-0.125000 F400.000000
G00 Z5.000000

(End cutting path id: path117)


(Start cutting path id: path117)
(Change tool to Default tool)

G00 Z5.000000
G00 X101.896130 Y223.554722

G01 Z-0.125000 F100.0(Penetrate)
G01 X104.563120 Y223.554722 Z-0.125000 F400.000000
G00 Z5.000000

(End cutting path id: path117)


(Start cutting path id: path31)
(Change tool to Default tool)

G00 Z5.000000
G00 X101.896130 Y226.899045

G01 Z-0.125000 F100.0(Penetrate)
G01 X101.896130 Y219.892900 Z-0.125000 F400.000000
G00 Z5.000000

(End cutting path id: path31)


(Start cutting path id: path31)
(Change tool to Default tool)

G00 Z5.000000
G00 X101.896130 Y226.899045

G01 Z-0.125000 F100.0(Penetrate)
G01 X101.896130 Y219.892900 Z-0.125000 F400.000000
G00 Z5.000000

(End cutting path id: path31)


(Start cutting path id: path29)
(Change tool to Default tool)

G00 Z5.000000
G00 X99.567845 Y225.226883

G01 Z-0.125000 F100.0(Penetrate)
G01 X99.229179 Y225.893631 Z-0.125000 F400.000000
G01 X98.562431 Y226.560379 Z-0.125000
G01 X97.895683 Y226.899045 Z-0.125000
G01 X96.562187 Y226.899045 Z-0.125000
G01 X95.895440 Y226.560379 Z-0.125000
G01 X95.228692 Y225.893631 Z-0.125000
G01 X94.890026 Y225.226883 Z-0.125000
G01 X94.561944 Y224.232053 Z-0.125000
G01 X94.561944 Y222.559892 Z-0.125000
G01 X94.890026 Y221.565061 Z-0.125000
G01 X95.228692 Y220.893022 Z-0.125000
G01 X95.895440 Y220.226274 Z-0.125000
G01 X96.562187 Y219.892900 Z-0.125000
G01 X97.895683 Y219.892900 Z-0.125000
G01 X98.562431 Y220.226274 Z-0.125000
G01 X99.229179 Y220.893022 Z-0.125000
G01 X99.567845 Y221.565061 Z-0.125000
G00 Z5.000000

(End cutting path id: path29)


(Start cutting path id: path29)
(Change tool to Default tool)

G00 Z5.000000
G00 X99.567845 Y225.226883

G01 Z-0.125000 F100.0(Penetrate)
G01 X99.229179 Y225.893631 Z-0.125000 F400.000000
G01 X98.562431 Y226.560379 Z-0.125000
G01 X97.895683 Y226.899045 Z-0.125000
G01 X96.562187 Y226.899045 Z-0.125000
G01 X95.895440 Y226.560379 Z-0.125000
G01 X95.228692 Y225.893631 Z-0.125000
G01 X94.890026 Y225.226883 Z-0.125000
G01 X94.561944 Y224.232053 Z-0.125000
G01 X94.561944 Y222.559892 Z-0.125000
G01 X94.890026 Y221.565061 Z-0.125000
G01 X95.228692 Y220.893022 Z-0.125000
G01 X95.895440 Y220.226274 Z-0.125000
G01 X96.562187 Y219.892900 Z-0.125000
G01 X97.895683 Y219.892900 Z-0.125000
G01 X98.562431 Y220.226274 Z-0.125000
G01 X99.229179 Y220.893022 Z-0.125000
G01 X99.567845 Y221.565061 Z-0.125000
G00 Z5.000000

(End cutting path id: path29)


(Start cutting path id: path115)
(Change tool to Default tool)

G00 Z5.000000
G00 X101.896130 Y226.899045

G01 Z-0.125000 F100.0(Penetrate)
G01 X106.235280 Y226.899045 Z-0.125000 F400.000000
G00 Z5.000000

(End cutting path id: path115)


(Start cutting path id: path115)
(Change tool to Default tool)

G00 Z5.000000
G00 X101.896130 Y226.899045

G01 Z-0.125000 F100.0(Penetrate)
G01 X106.235280 Y226.899045 Z-0.125000 F400.000000
G00 Z5.000000

(End cutting path id: path115)


(Start cutting path id: path129)
(Change tool to Default tool)

G00 Z5.000000
G00 X120.893230 Y226.899045

G01 Z-0.125000 F100.0(Penetrate)
G01 X125.232380 Y226.899045 Z-0.125000 F400.000000
G00 Z5.000000

(End cutting path id: path129)


(Start cutting path id: path129)
(Change tool to Default tool)

G00 Z5.000000
G00 X120.893230 Y226.899045

G01 Z-0.125000 F100.0(Penetrate)
G01 X125.232380 Y226.899045 Z-0.125000 F400.000000
G00 Z5.000000

(End cutting path id: path129)


(Start cutting path id: path137)
(Change tool to Default tool)

G00 Z5.000000
G00 X127.222030 Y226.899045

G01 Z-0.125000 F100.0(Penetrate)
G01 X131.899840 Y219.892900 Z-0.125000 F400.000000
G00 Z5.000000

(End cutting path id: path137)


(Start cutting path id: path137)
(Change tool to Default tool)

G00 Z5.000000
G00 X127.222030 Y226.899045

G01 Z-0.125000 F100.0(Penetrate)
G01 X131.899840 Y219.892900 Z-0.125000 F400.000000
G00 Z5.000000

(End cutting path id: path137)


(Start cutting path id: path27)
(Change tool to Default tool)

G00 Z5.000000
G00 X84.560744 Y222.559892

G01 Z-0.125000 F100.0(Penetrate)
G01 X88.561231 Y222.559892 Z-0.125000 F400.000000
G01 X88.561231 Y223.226640 Z-0.125000
G01 X88.233149 Y223.893387 Z-0.125000
G01 X87.894483 Y224.232053 Z-0.125000
G01 X87.227735 Y224.560135 Z-0.125000
G01 X86.222322 Y224.560135 Z-0.125000
G01 X85.566157 Y224.232053 Z-0.125000
G01 X84.888826 Y223.554722 Z-0.125000
G01 X84.560744 Y222.559892 Z-0.125000
G01 X84.560744 Y221.893144 Z-0.125000
G01 X84.888826 Y220.893022 Z-0.125000
G01 X85.566157 Y220.226274 Z-0.125000
G01 X86.222322 Y219.892900 Z-0.125000
G01 X87.227735 Y219.892900 Z-0.125000
G01 X87.894483 Y220.226274 Z-0.125000
G01 X88.561231 Y220.893022 Z-0.125000
G00 Z5.000000

(End cutting path id: path27)


(Start cutting path id: path27)
(Change tool to Default tool)

G00 Z5.000000
G00 X84.560744 Y222.559892

G01 Z-0.125000 F100.0(Penetrate)
G01 X88.561231 Y222.559892 Z-0.125000 F400.000000
G01 X88.561231 Y223.226640 Z-0.125000
G01 X88.233149 Y223.893387 Z-0.125000
G01 X87.894483 Y224.232053 Z-0.125000
G01 X87.227735 Y224.560135 Z-0.125000
G01 X86.222322 Y224.560135 Z-0.125000
G01 X85.566157 Y224.232053 Z-0.125000
G01 X84.888826 Y223.554722 Z-0.125000
G01 X84.560744 Y222.559892 Z-0.125000
G01 X84.560744 Y221.893144 Z-0.125000
G01 X84.888826 Y220.893022 Z-0.125000
G01 X85.566157 Y220.226274 Z-0.125000
G01 X86.222322 Y219.892900 Z-0.125000
G01 X87.227735 Y219.892900 Z-0.125000
G01 X87.894483 Y220.226274 Z-0.125000
G01 X88.561231 Y220.893022 Z-0.125000
G00 Z5.000000

(End cutting path id: path27)


(Start cutting path id: path107)
(Change tool to Default tool)

G00 Z5.000000
G00 X80.549626 Y222.559892

G01 Z-0.125000 F100.0(Penetrate)
G01 X80.888292 Y223.554722 Z-0.125000 F400.000000
G01 X81.555039 Y224.232053 Z-0.125000
G01 X82.221787 Y224.560135 Z-0.125000
G01 X83.216618 Y224.560135 Z-0.125000
G00 Z5.000000

(End cutting path id: path107)


(Start cutting path id: path107)
(Change tool to Default tool)

G00 Z5.000000
G00 X80.549626 Y222.559892

G01 Z-0.125000 F100.0(Penetrate)
G01 X80.888292 Y223.554722 Z-0.125000 F400.000000
G01 X81.555039 Y224.232053 Z-0.125000
G01 X82.221787 Y224.560135 Z-0.125000
G01 X83.216618 Y224.560135 Z-0.125000
G00 Z5.000000

(End cutting path id: path107)


(Start cutting path id: path25)
(Change tool to Default tool)

G00 Z5.000000
G00 X80.549626 Y224.560135

G01 Z-0.125000 F100.0(Penetrate)
G01 X80.549626 Y219.892900 Z-0.125000 F400.000000
G00 Z5.000000

(End cutting path id: path25)


(Start cutting path id: path25)
(Change tool to Default tool)

G00 Z5.000000
G00 X80.549626 Y224.560135

G01 Z-0.125000 F100.0(Penetrate)
G01 X80.549626 Y219.892900 Z-0.125000 F400.000000
G00 Z5.000000

(End cutting path id: path25)


(Start cutting path id: path103)
(Change tool to Default tool)

G00 Z5.000000
G00 X76.210526 Y222.559892

G01 Z-0.125000 F100.0(Penetrate)
G01 X76.549192 Y223.554722 Z-0.125000 F400.000000
G01 X77.215939 Y224.232053 Z-0.125000
G01 X77.882687 Y224.560135 Z-0.125000
G01 X78.877518 Y224.560135 Z-0.125000
G00 Z5.000000

(End cutting path id: path103)


(Start cutting path id: path103)
(Change tool to Default tool)

G00 Z5.000000
G00 X76.210526 Y222.559892

G01 Z-0.125000 F100.0(Penetrate)
G01 X76.549192 Y223.554722 Z-0.125000 F400.000000
G01 X77.215939 Y224.232053 Z-0.125000
G01 X77.882687 Y224.560135 Z-0.125000
G01 X78.877518 Y224.560135 Z-0.125000
G00 Z5.000000

(End cutting path id: path103)


(Start cutting path id: path23)
(Change tool to Default tool)

G00 Z5.000000
G00 X76.210526 Y224.560135

G01 Z-0.125000 F100.0(Penetrate)
G01 X76.210526 Y219.892900 Z-0.125000 F400.000000
G00 Z5.000000

(End cutting path id: path23)


(Start cutting path id: path23)
(Change tool to Default tool)

G00 Z5.000000
G00 X76.210526 Y224.560135

G01 Z-0.125000 F100.0(Penetrate)
G01 X76.210526 Y219.892900 Z-0.125000 F400.000000
G00 Z5.000000

(End cutting path id: path23)


(Start cutting path id: path21)
(Change tool to Default tool)

G00 Z5.000000
G00 X69.881684 Y222.559892

G01 Z-0.125000 F100.0(Penetrate)
G01 X73.882171 Y222.559892 Z-0.125000 F400.000000
G01 X73.882171 Y223.226640 Z-0.125000
G01 X73.554089 Y223.893387 Z-0.125000
G01 X73.215423 Y224.232053 Z-0.125000
G01 X72.548675 Y224.560135 Z-0.125000
G01 X71.543262 Y224.560135 Z-0.125000
G01 X70.887097 Y224.232053 Z-0.125000
G01 X70.209766 Y223.554722 Z-0.125000
G01 X69.881684 Y222.559892 Z-0.125000
G01 X69.881684 Y221.893144 Z-0.125000
G01 X70.209766 Y220.893022 Z-0.125000
G01 X70.887097 Y220.226274 Z-0.125000
G01 X71.543262 Y219.892900 Z-0.125000
G01 X72.548675 Y219.892900 Z-0.125000
G01 X73.215423 Y220.226274 Z-0.125000
G01 X73.882171 Y220.893022 Z-0.125000
G00 Z5.000000

(End cutting path id: path21)


(Start cutting path id: path21)
(Change tool to Default tool)

G00 Z5.000000
G00 X69.881684 Y222.559892

G01 Z-0.125000 F100.0(Penetrate)
G01 X73.882171 Y222.559892 Z-0.125000 F400.000000
G01 X73.882171 Y223.226640 Z-0.125000
G01 X73.554089 Y223.893387 Z-0.125000
G01 X73.215423 Y224.232053 Z-0.125000
G01 X72.548675 Y224.560135 Z-0.125000
G01 X71.543262 Y224.560135 Z-0.125000
G01 X70.887097 Y224.232053 Z-0.125000
G01 X70.209766 Y223.554722 Z-0.125000
G01 X69.881684 Y222.559892 Z-0.125000
G01 X69.881684 Y221.893144 Z-0.125000
G01 X70.209766 Y220.893022 Z-0.125000
G01 X70.887097 Y220.226274 Z-0.125000
G01 X71.543262 Y219.892900 Z-0.125000
G01 X72.548675 Y219.892900 Z-0.125000
G01 X73.215423 Y220.226274 Z-0.125000
G01 X73.882171 Y220.893022 Z-0.125000
G00 Z5.000000

(End cutting path id: path21)


(Start cutting path id: path97)
(Change tool to Default tool)

G00 Z5.000000
G00 X67.542766 Y224.560135

G01 Z-0.125000 F100.0(Penetrate)
G01 X67.542766 Y219.892900 Z-0.125000 F400.000000
G00 Z5.000000

(End cutting path id: path97)


(Start cutting path id: path97)
(Change tool to Default tool)

G00 Z5.000000
G00 X67.542766 Y224.560135

G01 Z-0.125000 F100.0(Penetrate)
G01 X67.542766 Y219.892900 Z-0.125000 F400.000000
G00 Z5.000000

(End cutting path id: path97)


(Start cutting path id: path19)
(Change tool to Default tool)

G00 Z5.000000
G00 X67.214684 Y226.899045

G01 Z-0.125000 F100.0(Penetrate)
G01 X67.542766 Y226.560379 Z-0.125000 F400.000000
G01 X67.881432 Y226.899045 Z-0.125000
G01 X67.542766 Y227.227127 Z-0.125000
G01 X67.214684 Y226.899045 Z-0.125000
G00 Z5.000000

(End cutting path id: path19)


(Start cutting path id: path19)
(Change tool to Default tool)

G00 Z5.000000
G00 X67.214684 Y226.899045

G01 Z-0.125000 F100.0(Penetrate)
G01 X67.542766 Y226.560379 Z-0.125000 F400.000000
G01 X67.881432 Y226.899045 Z-0.125000
G01 X67.542766 Y227.227127 Z-0.125000
G01 X67.214684 Y226.899045 Z-0.125000
G00 Z5.000000

(End cutting path id: path19)


(Start cutting path id: path17)
(Change tool to Default tool)

G00 Z5.000000
G00 X60.536626 Y226.899045

G01 Z-0.125000 F100.0(Penetrate)
G01 X60.536626 Y219.892900 Z-0.125000 F400.000000
G00 Z5.000000

(End cutting path id: path17)


(Start cutting path id: path17)
(Change tool to Default tool)

G00 Z5.000000
G00 X60.536626 Y226.899045

G01 Z-0.125000 F100.0(Penetrate)
G01 X60.536626 Y219.892900 Z-0.125000 F400.000000
G00 Z5.000000

(End cutting path id: path17)


(Start cutting path id: path93)
(Change tool to Default tool)

G00 Z5.000000
G00 X60.536626 Y226.899045

G01 Z-0.125000 F100.0(Penetrate)
G01 X63.542283 Y226.899045 Z-0.125000 F400.000000
G01 X64.537113 Y226.560379 Z-0.125000
G01 X64.875779 Y226.221713 Z-0.125000
G01 X65.214445 Y225.565549 Z-0.125000
G01 X65.214445 Y224.560135 Z-0.125000
G01 X64.875779 Y223.893387 Z-0.125000
G01 X64.537113 Y223.554722 Z-0.125000
G01 X63.542283 Y223.226640 Z-0.125000
G01 X60.536626 Y223.226640 Z-0.125000
G00 Z5.000000

(End cutting path id: path93)


(Start cutting path id: path93)
(Change tool to Default tool)

G00 Z5.000000
G00 X60.536626 Y226.899045

G01 Z-0.125000 F100.0(Penetrate)
G01 X63.542283 Y226.899045 Z-0.125000 F400.000000
G01 X64.537113 Y226.560379 Z-0.125000
G01 X64.875779 Y226.221713 Z-0.125000
G01 X65.214445 Y225.565549 Z-0.125000
G01 X65.214445 Y224.560135 Z-0.125000
G01 X64.875779 Y223.893387 Z-0.125000
G01 X64.537113 Y223.554722 Z-0.125000
G01 X63.542283 Y223.226640 Z-0.125000
G01 X60.536626 Y223.226640 Z-0.125000
G00 Z5.000000

(End cutting path id: path93)


(Footer)
M5
G00 X0.0000 Y0.0000
M2
(Using default footer. To add your own footer create file "footer" in the output dir.)
(end)
%