%
(Header)
(Generated by gcodetools from Inkscape.)
(Using default header. To add your own header create file "header" in the output dir.)
M3
(Header end.)
G21 (All units in mm)

(Start cutting path id: path27)
(Change tool to Default tool)

G00 Z5.000000
G00 X64.150044 Y187.029990

G01 Z-0.125000 F100.0(Penetrate)
G01 X68.150531 Y187.029990 Z-0.125000 F400.000000
G01 X68.150531 Y187.696740 Z-0.125000
G01 X67.822449 Y188.363490 Z-0.125000
G01 X67.483783 Y188.702150 Z-0.125000
G01 X66.817035 Y189.030240 Z-0.125000
G01 X65.811622 Y189.030240 Z-0.125000
G01 X65.155457 Y188.702150 Z-0.125000
G01 X64.478126 Y188.024820 Z-0.125000
G01 X64.150044 Y187.029990 Z-0.125000
G01 X64.150044 Y186.363240 Z-0.125000
G01 X64.478126 Y185.363120 Z-0.125000
G01 X65.155457 Y184.696370 Z-0.125000
G01 X65.811622 Y184.363000 Z-0.125000
G01 X66.817035 Y184.363000 Z-0.125000
G01 X67.483783 Y184.696370 Z-0.125000
G01 X68.150531 Y185.363120 Z-0.125000
G00 Z5.000000

(End cutting path id: path27)


(Start cutting path id: path27)
(Change tool to Default tool)

G00 Z5.000000
G00 X64.150044 Y187.029990

G01 Z-0.125000 F100.0(Penetrate)
G01 X68.150531 Y187.029990 Z-0.125000 F400.000000
G01 X68.150531 Y187.696740 Z-0.125000
G01 X67.822449 Y188.363490 Z-0.125000
G01 X67.483783 Y188.702150 Z-0.125000
G01 X66.817035 Y189.030240 Z-0.125000
G01 X65.811622 Y189.030240 Z-0.125000
G01 X65.155457 Y188.702150 Z-0.125000
G01 X64.478126 Y188.024820 Z-0.125000
G01 X64.150044 Y187.029990 Z-0.125000
G01 X64.150044 Y186.363240 Z-0.125000
G01 X64.478126 Y185.363120 Z-0.125000
G01 X65.155457 Y184.696370 Z-0.125000
G01 X65.811622 Y184.363000 Z-0.125000
G01 X66.817035 Y184.363000 Z-0.125000
G01 X67.483783 Y184.696370 Z-0.125000
G01 X68.150531 Y185.363120 Z-0.125000
G00 Z5.000000

(End cutting path id: path27)


(Start cutting path id: path72)
(Change tool to Default tool)

G00 Z5.000000
G00 X60.138926 Y187.029990

G01 Z-0.125000 F100.0(Penetrate)
G01 X60.477592 Y188.024820 Z-0.125000 F400.000000
G01 X61.144339 Y188.702150 Z-0.125000
G01 X61.811087 Y189.030240 Z-0.125000
G01 X62.805918 Y189.030240 Z-0.125000
G00 Z5.000000

(End cutting path id: path72)


(Start cutting path id: path72)
(Change tool to Default tool)

G00 Z5.000000
G00 X60.138926 Y187.029990

G01 Z-0.125000 F100.0(Penetrate)
G01 X60.477592 Y188.024820 Z-0.125000 F400.000000
G01 X61.144339 Y188.702150 Z-0.125000
G01 X61.811087 Y189.030240 Z-0.125000
G01 X62.805918 Y189.030240 Z-0.125000
G00 Z5.000000

(End cutting path id: path72)


(Start cutting path id: path25)
(Change tool to Default tool)

G00 Z5.000000
G00 X60.138926 Y189.030240

G01 Z-0.125000 F100.0(Penetrate)
G01 X60.138926 Y184.363000 Z-0.125000 F400.000000
G00 Z5.000000

(End cutting path id: path25)


(Start cutting path id: path25)
(Change tool to Default tool)

G00 Z5.000000
G00 X60.138926 Y189.030240

G01 Z-0.125000 F100.0(Penetrate)
G01 X60.138926 Y184.363000 Z-0.125000 F400.000000
G00 Z5.000000

(End cutting path id: path25)


(Start cutting path id: path68)
(Change tool to Default tool)

G00 Z5.000000
G00 X55.799826 Y187.029990

G01 Z-0.125000 F100.0(Penetrate)
G01 X56.138492 Y188.024820 Z-0.125000 F400.000000
G01 X56.805239 Y188.702150 Z-0.125000
G01 X57.471987 Y189.030240 Z-0.125000
G01 X58.466818 Y189.030240 Z-0.125000
G00 Z5.000000

(End cutting path id: path68)


(Start cutting path id: path68)
(Change tool to Default tool)

G00 Z5.000000
G00 X55.799826 Y187.029990

G01 Z-0.125000 F100.0(Penetrate)
G01 X56.138492 Y188.024820 Z-0.125000 F400.000000
G01 X56.805239 Y188.702150 Z-0.125000
G01 X57.471987 Y189.030240 Z-0.125000
G01 X58.466818 Y189.030240 Z-0.125000
G00 Z5.000000

(End cutting path id: path68)


(Start cutting path id: path23)
(Change tool to Default tool)

G00 Z5.000000
G00 X55.799826 Y189.030240

G01 Z-0.125000 F100.0(Penetrate)
G01 X55.799826 Y184.363000 Z-0.125000 F400.000000
G00 Z5.000000

(End cutting path id: path23)


(Start cutting path id: path23)
(Change tool to Default tool)

G00 Z5.000000
G00 X55.799826 Y189.030240

G01 Z-0.125000 F100.0(Penetrate)
G01 X55.799826 Y184.363000 Z-0.125000 F400.000000
G00 Z5.000000

(End cutting path id: path23)


(Start cutting path id: path21)
(Change tool to Default tool)

G00 Z5.000000
G00 X49.470984 Y187.029990

G01 Z-0.125000 F100.0(Penetrate)
G01 X53.471471 Y187.029990 Z-0.125000 F400.000000
G01 X53.471471 Y187.696740 Z-0.125000
G01 X53.143389 Y188.363490 Z-0.125000
G01 X52.804723 Y188.702150 Z-0.125000
G01 X52.137975 Y189.030240 Z-0.125000
G01 X51.132562 Y189.030240 Z-0.125000
G01 X50.476397 Y188.702150 Z-0.125000
G01 X49.799066 Y188.024820 Z-0.125000
G01 X49.470984 Y187.029990 Z-0.125000
G01 X49.470984 Y186.363240 Z-0.125000
G01 X49.799066 Y185.363120 Z-0.125000
G01 X50.476397 Y184.696370 Z-0.125000
G01 X51.132562 Y184.363000 Z-0.125000
G01 X52.137975 Y184.363000 Z-0.125000
G01 X52.804723 Y184.696370 Z-0.125000
G01 X53.471471 Y185.363120 Z-0.125000
G00 Z5.000000

(End cutting path id: path21)


(Start cutting path id: path21)
(Change tool to Default tool)

G00 Z5.000000
G00 X49.470984 Y187.029990

G01 Z-0.125000 F100.0(Penetrate)
G01 X53.471471 Y187.029990 Z-0.125000 F400.000000
G01 X53.471471 Y187.696740 Z-0.125000
G01 X53.143389 Y188.363490 Z-0.125000
G01 X52.804723 Y188.702150 Z-0.125000
G01 X52.137975 Y189.030240 Z-0.125000
G01 X51.132562 Y189.030240 Z-0.125000
G01 X50.476397 Y188.702150 Z-0.125000
G01 X49.799066 Y188.024820 Z-0.125000
G01 X49.470984 Y187.029990 Z-0.125000
G01 X49.470984 Y186.363240 Z-0.125000
G01 X49.799066 Y185.363120 Z-0.125000
G01 X50.476397 Y184.696370 Z-0.125000
G01 X51.132562 Y184.363000 Z-0.125000
G01 X52.137975 Y184.363000 Z-0.125000
G01 X52.804723 Y184.696370 Z-0.125000
G01 X53.471471 Y185.363120 Z-0.125000
G00 Z5.000000

(End cutting path id: path21)


(Start cutting path id: path62)
(Change tool to Default tool)

G00 Z5.000000
G00 X47.132066 Y189.030240

G01 Z-0.125000 F100.0(Penetrate)
G01 X47.132066 Y184.363000 Z-0.125000 F400.000000
G00 Z5.000000

(End cutting path id: path62)


(Start cutting path id: path62)
(Change tool to Default tool)

G00 Z5.000000
G00 X47.132066 Y189.030240

G01 Z-0.125000 F100.0(Penetrate)
G01 X47.132066 Y184.363000 Z-0.125000 F400.000000
G00 Z5.000000

(End cutting path id: path62)


(Start cutting path id: path19)
(Change tool to Default tool)

G00 Z5.000000
G00 X46.803984 Y191.369140

G01 Z-0.125000 F100.0(Penetrate)
G01 X47.132066 Y191.030480 Z-0.125000 F400.000000
G01 X47.470732 Y191.369140 Z-0.125000
G01 X47.132066 Y191.697230 Z-0.125000
G01 X46.803984 Y191.369140 Z-0.125000
G00 Z5.000000

(End cutting path id: path19)


(Start cutting path id: path19)
(Change tool to Default tool)

G00 Z5.000000
G00 X46.803984 Y191.369140

G01 Z-0.125000 F100.0(Penetrate)
G01 X47.132066 Y191.030480 Z-0.125000 F400.000000
G01 X47.470732 Y191.369140 Z-0.125000
G01 X47.132066 Y191.697230 Z-0.125000
G01 X46.803984 Y191.369140 Z-0.125000
G00 Z5.000000

(End cutting path id: path19)


(Start cutting path id: path17)
(Change tool to Default tool)

G00 Z5.000000
G00 X40.125926 Y191.369140

G01 Z-0.125000 F100.0(Penetrate)
G01 X40.125926 Y184.363000 Z-0.125000 F400.000000
G00 Z5.000000

(End cutting path id: path17)


(Start cutting path id: path17)
(Change tool to Default tool)

G00 Z5.000000
G00 X40.125926 Y191.369140

G01 Z-0.125000 F100.0(Penetrate)
G01 X40.125926 Y184.363000 Z-0.125000 F400.000000
G00 Z5.000000

(End cutting path id: path17)


(Start cutting path id: path58)
(Change tool to Default tool)

G00 Z5.000000
G00 X40.125926 Y191.369140

G01 Z-0.125000 F100.0(Penetrate)
G01 X43.131583 Y191.369140 Z-0.125000 F400.000000
G01 X44.126413 Y191.030480 Z-0.125000
G01 X44.465079 Y190.691810 Z-0.125000
G01 X44.803745 Y190.035650 Z-0.125000
G01 X44.803745 Y189.030240 Z-0.125000
G01 X44.465079 Y188.363490 Z-0.125000
G01 X44.126413 Y188.024820 Z-0.125000
G01 X43.131583 Y187.696740 Z-0.125000
G01 X40.125926 Y187.696740 Z-0.125000
G00 Z5.000000

(End cutting path id: path58)


(Start cutting path id: path58)
(Change tool to Default tool)

G00 Z5.000000
G00 X40.125926 Y191.369140

G01 Z-0.125000 F100.0(Penetrate)
G01 X43.131583 Y191.369140 Z-0.125000 F400.000000
G01 X44.126413 Y191.030480 Z-0.125000
G01 X44.465079 Y190.691810 Z-0.125000
G01 X44.803745 Y190.035650 Z-0.125000
G01 X44.803745 Y189.030240 Z-0.125000
G01 X44.465079 Y188.363490 Z-0.125000
G01 X44.126413 Y188.024820 Z-0.125000
G01 X43.131583 Y187.696740 Z-0.125000
G01 X40.125926 Y187.696740 Z-0.125000
G00 Z5.000000

(End cutting path id: path58)


(Footer)
M5
G00 X0.0000 Y0.0000
M2
(Using default footer. To add your own footer create file "footer" in the output dir.)
(end)
%