%
(Header)
(Generated by gcodetools from Inkscape.)
(Using default header. To add your own header create file "header" in the output dir.)
M3
(Header end.)
G21 (All units in mm)

(Start cutting path id: path4613)
(Change tool to Default tool)

G00 Z5.000000
G00 X74.440026 Y198.171235

G01 Z-0.125000 F100.0(Penetrate)
G01 X74.440026 Y193.504000 Z-0.125000 F400.000000
G00 Z5.000000

(End cutting path id: path4613)


(Start cutting path id: path4613)
(Change tool to Default tool)

G00 Z5.000000
G00 X74.440026 Y198.171235

G01 Z-0.125000 F100.0(Penetrate)
G01 X74.440026 Y193.504000 Z-0.125000 F400.000000
G00 Z5.000000

(End cutting path id: path4613)


(Start cutting path id: path4668)
(Change tool to Default tool)

G00 Z5.000000
G00 X74.440026 Y196.170990

G01 Z-0.125000 F100.0(Penetrate)
G01 X74.778692 Y197.165822 Z-0.125000 F400.000000
G01 X75.445439 Y197.843153 Z-0.125000
G01 X76.112187 Y198.171235 Z-0.125000
G01 X77.107018 Y198.171235 Z-0.125000
G00 Z5.000000

(End cutting path id: path4668)


(Start cutting path id: path4668)
(Change tool to Default tool)

G00 Z5.000000
G00 X74.440026 Y196.170990

G01 Z-0.125000 F100.0(Penetrate)
G01 X74.778692 Y197.165822 Z-0.125000 F400.000000
G01 X75.445439 Y197.843153 Z-0.125000
G01 X76.112187 Y198.171235 Z-0.125000
G01 X77.107018 Y198.171235 Z-0.125000
G00 Z5.000000

(End cutting path id: path4668)


(Start cutting path id: path4611)
(Change tool to Default tool)

G00 Z5.000000
G00 X68.111244 Y196.170990

G01 Z-0.125000 F100.0(Penetrate)
G01 X72.111731 Y196.170990 Z-0.125000 F400.000000
G01 X72.111731 Y196.837740 Z-0.125000
G01 X71.783649 Y197.504487 Z-0.125000
G01 X71.444983 Y197.843153 Z-0.125000
G01 X70.778235 Y198.171235 Z-0.125000
G01 X69.772822 Y198.171235 Z-0.125000
G01 X69.116657 Y197.843153 Z-0.125000
G01 X68.439326 Y197.165822 Z-0.125000
G01 X68.111244 Y196.170990 Z-0.125000
G01 X68.111244 Y195.504240 Z-0.125000
G01 X68.439326 Y194.504120 Z-0.125000
G01 X69.116657 Y193.837370 Z-0.125000
G01 X69.772822 Y193.504000 Z-0.125000
G01 X70.778235 Y193.504000 Z-0.125000
G01 X71.444983 Y193.837370 Z-0.125000
G01 X72.111731 Y194.504120 Z-0.125000
G00 Z5.000000

(End cutting path id: path4611)


(Start cutting path id: path4611)
(Change tool to Default tool)

G00 Z5.000000
G00 X68.111244 Y196.170990

G01 Z-0.125000 F100.0(Penetrate)
G01 X72.111731 Y196.170990 Z-0.125000 F400.000000
G01 X72.111731 Y196.837740 Z-0.125000
G01 X71.783649 Y197.504487 Z-0.125000
G01 X71.444983 Y197.843153 Z-0.125000
G01 X70.778235 Y198.171235 Z-0.125000
G01 X69.772822 Y198.171235 Z-0.125000
G01 X69.116657 Y197.843153 Z-0.125000
G01 X68.439326 Y197.165822 Z-0.125000
G01 X68.111244 Y196.170990 Z-0.125000
G01 X68.111244 Y195.504240 Z-0.125000
G01 X68.439326 Y194.504120 Z-0.125000
G01 X69.116657 Y193.837370 Z-0.125000
G01 X69.772822 Y193.504000 Z-0.125000
G01 X70.778235 Y193.504000 Z-0.125000
G01 X71.444983 Y193.837370 Z-0.125000
G01 X72.111731 Y194.504120 Z-0.125000
G00 Z5.000000

(End cutting path id: path4611)


(Start cutting path id: path4662)
(Change tool to Default tool)

G00 Z5.000000
G00 X65.772326 Y198.171235

G01 Z-0.125000 F100.0(Penetrate)
G01 X65.772326 Y193.504000 Z-0.125000 F400.000000
G00 Z5.000000

(End cutting path id: path4662)


(Start cutting path id: path4662)
(Change tool to Default tool)

G00 Z5.000000
G00 X65.772326 Y198.171235

G01 Z-0.125000 F100.0(Penetrate)
G01 X65.772326 Y193.504000 Z-0.125000 F400.000000
G00 Z5.000000

(End cutting path id: path4662)


(Start cutting path id: path4658)
(Change tool to Default tool)

G00 Z5.000000
G00 X63.782649 Y198.171235

G01 Z-0.125000 F100.0(Penetrate)
G01 X61.771822 Y193.504000 Z-0.125000 F400.000000
G00 Z5.000000

(End cutting path id: path4658)


(Start cutting path id: path4658)
(Change tool to Default tool)

G00 Z5.000000
G00 X63.782649 Y198.171235

G01 Z-0.125000 F100.0(Penetrate)
G01 X61.771822 Y193.504000 Z-0.125000 F400.000000
G00 Z5.000000

(End cutting path id: path4658)


(Start cutting path id: path4607)
(Change tool to Default tool)

G00 Z5.000000
G00 X59.782161 Y198.171235

G01 Z-0.125000 F100.0(Penetrate)
G01 X61.771822 Y193.504000 Z-0.125000 F400.000000
G00 Z5.000000

(End cutting path id: path4607)


(Start cutting path id: path4607)
(Change tool to Default tool)

G00 Z5.000000
G00 X59.782161 Y198.171235

G01 Z-0.125000 F100.0(Penetrate)
G01 X61.771822 Y193.504000 Z-0.125000 F400.000000
G00 Z5.000000

(End cutting path id: path4607)


(Start cutting path id: path4654)
(Change tool to Default tool)

G00 Z5.000000
G00 X57.781911 Y197.165822

G01 Z-0.125000 F100.0(Penetrate)
G01 X57.115163 Y197.843153 Z-0.125000 F400.000000
G01 X56.448415 Y198.171235 Z-0.125000
G01 X55.443002 Y198.171235 Z-0.125000
G01 X54.786837 Y197.843153 Z-0.125000
G01 X54.109506 Y197.165822 Z-0.125000
G01 X53.781424 Y196.170990 Z-0.125000
G01 X53.781424 Y195.504240 Z-0.125000
G01 X54.109506 Y194.504120 Z-0.125000
G01 X54.786837 Y193.837370 Z-0.125000
G01 X55.443002 Y193.504000 Z-0.125000
G01 X56.448415 Y193.504000 Z-0.125000
G01 X57.115163 Y193.837370 Z-0.125000
G01 X57.781911 Y194.504120 Z-0.125000
G00 Z5.000000

(End cutting path id: path4654)


(Start cutting path id: path4654)
(Change tool to Default tool)

G00 Z5.000000
G00 X57.781911 Y197.165822

G01 Z-0.125000 F100.0(Penetrate)
G01 X57.115163 Y197.843153 Z-0.125000 F400.000000
G01 X56.448415 Y198.171235 Z-0.125000
G01 X55.443002 Y198.171235 Z-0.125000
G01 X54.786837 Y197.843153 Z-0.125000
G01 X54.109506 Y197.165822 Z-0.125000
G01 X53.781424 Y196.170990 Z-0.125000
G01 X53.781424 Y195.504240 Z-0.125000
G01 X54.109506 Y194.504120 Z-0.125000
G01 X54.786837 Y193.837370 Z-0.125000
G01 X55.443002 Y193.504000 Z-0.125000
G01 X56.448415 Y193.504000 Z-0.125000
G01 X57.115163 Y193.837370 Z-0.125000
G01 X57.781911 Y194.504120 Z-0.125000
G00 Z5.000000

(End cutting path id: path4654)


(Start cutting path id: path4605)
(Change tool to Default tool)

G00 Z5.000000
G00 X57.781911 Y198.171235

G01 Z-0.125000 F100.0(Penetrate)
G01 X57.781911 Y193.504000 Z-0.125000 F400.000000
G00 Z5.000000

(End cutting path id: path4605)


(Start cutting path id: path4605)
(Change tool to Default tool)

G00 Z5.000000
G00 X57.781911 Y198.171235

G01 Z-0.125000 F100.0(Penetrate)
G01 X57.781911 Y193.504000 Z-0.125000 F400.000000
G00 Z5.000000

(End cutting path id: path4605)


(Start cutting path id: path4650)
(Change tool to Default tool)

G00 Z5.000000
G00 X51.781179 Y200.510145

G01 Z-0.125000 F100.0(Penetrate)
G01 X47.113944 Y193.504000 Z-0.125000 F400.000000
G00 Z5.000000

(End cutting path id: path4650)


(Start cutting path id: path4650)
(Change tool to Default tool)

G00 Z5.000000
G00 X51.781179 Y200.510145

G01 Z-0.125000 F100.0(Penetrate)
G01 X47.113944 Y193.504000 Z-0.125000 F400.000000
G00 Z5.000000

(End cutting path id: path4650)


(Start cutting path id: path4603)
(Change tool to Default tool)

G00 Z5.000000
G00 X47.113944 Y200.510145

G01 Z-0.125000 F100.0(Penetrate)
G01 X51.781179 Y193.504000 Z-0.125000 F400.000000
G00 Z5.000000

(End cutting path id: path4603)


(Start cutting path id: path4603)
(Change tool to Default tool)

G00 Z5.000000
G00 X47.113944 Y200.510145

G01 Z-0.125000 F100.0(Penetrate)
G01 X51.781179 Y193.504000 Z-0.125000 F400.000000
G00 Z5.000000

(End cutting path id: path4603)


(Start cutting path id: path4609)
(Change tool to Default tool)

G00 Z5.000000
G00 X65.444244 Y200.510145

G01 Z-0.125000 F100.0(Penetrate)
G01 X65.772326 Y200.171479 Z-0.125000 F400.000000
G01 X66.110992 Y200.510145 Z-0.125000
G01 X65.772326 Y200.838227 Z-0.125000
G01 X65.444244 Y200.510145 Z-0.125000
G00 Z5.000000

(End cutting path id: path4609)


(Start cutting path id: path4609)
(Change tool to Default tool)

G00 Z5.000000
G00 X65.444244 Y200.510145

G01 Z-0.125000 F100.0(Penetrate)
G01 X65.772326 Y200.171479 Z-0.125000 F400.000000
G01 X66.110992 Y200.510145 Z-0.125000
G01 X65.772326 Y200.838227 Z-0.125000
G01 X65.444244 Y200.510145 Z-0.125000
G00 Z5.000000

(End cutting path id: path4609)


(Footer)
M5
G00 X0.0000 Y0.0000
M2
(Using default footer. To add your own footer create file "footer" in the output dir.)
(end)
%