%
(Header)
(Generated by gcodetools from Inkscape.)
(Using default header. To add your own header create file "header" in the output dir.)
M3
(Header end.)
G21 (All units in mm)

(Start cutting path id: path2090)
(Change tool to Default tool)

G00 Z5.000000
G00 X46.350949 Y216.220022

G01 Z-0.125000 F100.0(Penetrate)
G01 X46.012283 Y216.897353 Z-0.125000 F400.000000
G01 X45.017453 Y217.225435 Z-0.125000
G01 X44.012039 Y217.225435 Z-0.125000
G01 X43.006626 Y216.897353 Z-0.125000
G01 X42.678544 Y216.220022 Z-0.125000
G01 X43.006626 Y215.563857 Z-0.125000
G01 X43.683957 Y215.225192 Z-0.125000
G01 X45.345535 Y214.886526 Z-0.125000
G01 X46.012283 Y214.558444 Z-0.125000
G01 X46.350949 Y213.891696 Z-0.125000
G01 X46.350949 Y213.558322 Z-0.125000
G01 X46.012283 Y212.891574 Z-0.125000
G01 X45.017453 Y212.558200 Z-0.125000
G01 X44.012039 Y212.558200 Z-0.125000
G01 X43.006626 Y212.891574 Z-0.125000
G01 X42.678544 Y213.558322 Z-0.125000
G00 Z5.000000

(End cutting path id: path2090)


(Start cutting path id: path2090)
(Change tool to Default tool)

G00 Z5.000000
G00 X46.350949 Y216.220022

G01 Z-0.125000 F100.0(Penetrate)
G01 X46.012283 Y216.897353 Z-0.125000 F400.000000
G01 X45.017453 Y217.225435 Z-0.125000
G01 X44.012039 Y217.225435 Z-0.125000
G01 X43.006626 Y216.897353 Z-0.125000
G01 X42.678544 Y216.220022 Z-0.125000
G01 X43.006626 Y215.563857 Z-0.125000
G01 X43.683957 Y215.225192 Z-0.125000
G01 X45.345535 Y214.886526 Z-0.125000
G01 X46.012283 Y214.558444 Z-0.125000
G01 X46.350949 Y213.891696 Z-0.125000
G01 X46.350949 Y213.558322 Z-0.125000
G01 X46.012283 Y212.891574 Z-0.125000
G01 X45.017453 Y212.558200 Z-0.125000
G01 X44.012039 Y212.558200 Z-0.125000
G01 X43.006626 Y212.891574 Z-0.125000
G01 X42.678544 Y213.558322 Z-0.125000
G00 Z5.000000

(End cutting path id: path2090)


(Start cutting path id: path2135)
(Change tool to Default tool)

G00 Z5.000000
G00 X40.339626 Y217.225435

G01 Z-0.125000 F100.0(Penetrate)
G01 X40.339626 Y212.558200 Z-0.125000 F400.000000
G00 Z5.000000

(End cutting path id: path2135)


(Start cutting path id: path2135)
(Change tool to Default tool)

G00 Z5.000000
G00 X40.339626 Y217.225435

G01 Z-0.125000 F100.0(Penetrate)
G01 X40.339626 Y212.558200 Z-0.125000 F400.000000
G00 Z5.000000

(End cutting path id: path2135)


(Start cutting path id: path2131)
(Change tool to Default tool)

G00 Z5.000000
G00 X38.011349 Y217.225435

G01 Z-0.125000 F100.0(Penetrate)
G01 X34.338944 Y212.558200 Z-0.125000 F400.000000
G00 Z5.000000

(End cutting path id: path2131)


(Start cutting path id: path2131)
(Change tool to Default tool)

G00 Z5.000000
G00 X38.011349 Y217.225435

G01 Z-0.125000 F100.0(Penetrate)
G01 X34.338944 Y212.558200 Z-0.125000 F400.000000
G00 Z5.000000

(End cutting path id: path2131)


(Start cutting path id: path2086)
(Change tool to Default tool)

G00 Z5.000000
G00 X34.338944 Y217.225435

G01 Z-0.125000 F100.0(Penetrate)
G01 X38.011349 Y212.558200 Z-0.125000 F400.000000
G00 Z5.000000

(End cutting path id: path2086)


(Start cutting path id: path2086)
(Change tool to Default tool)

G00 Z5.000000
G00 X34.338944 Y217.225435

G01 Z-0.125000 F100.0(Penetrate)
G01 X38.011349 Y212.558200 Z-0.125000 F400.000000
G00 Z5.000000

(End cutting path id: path2086)


(Start cutting path id: path2088)
(Change tool to Default tool)

G00 Z5.000000
G00 X40.011544 Y219.564345

G01 Z-0.125000 F100.0(Penetrate)
G01 X40.339626 Y219.225679 Z-0.125000 F400.000000
G01 X40.678292 Y219.564345 Z-0.125000
G01 X40.339626 Y219.892427 Z-0.125000
G01 X40.011544 Y219.564345 Z-0.125000
G00 Z5.000000

(End cutting path id: path2088)


(Start cutting path id: path2088)
(Change tool to Default tool)

G00 Z5.000000
G00 X40.011544 Y219.564345

G01 Z-0.125000 F100.0(Penetrate)
G01 X40.339626 Y219.225679 Z-0.125000 F400.000000
G01 X40.678292 Y219.564345 Z-0.125000
G01 X40.339626 Y219.892427 Z-0.125000
G01 X40.011544 Y219.564345 Z-0.125000
G00 Z5.000000

(End cutting path id: path2088)


(Start cutting path id: path2084)
(Change tool to Default tool)

G00 Z5.000000
G00 X28.338164 Y215.225192

G01 Z-0.125000 F100.0(Penetrate)
G01 X32.338651 Y215.225192 Z-0.125000 F400.000000
G01 X32.338651 Y215.891940 Z-0.125000
G01 X32.010569 Y216.558687 Z-0.125000
G01 X31.671903 Y216.897353 Z-0.125000
G01 X31.005155 Y217.225435 Z-0.125000
G01 X29.999742 Y217.225435 Z-0.125000
G01 X29.343577 Y216.897353 Z-0.125000
G01 X28.666246 Y216.220022 Z-0.125000
G01 X28.338164 Y215.225192 Z-0.125000
G01 X28.338164 Y214.558444 Z-0.125000
G01 X28.666246 Y213.558322 Z-0.125000
G01 X29.343577 Y212.891574 Z-0.125000
G01 X29.999742 Y212.558200 Z-0.125000
G01 X31.005155 Y212.558200 Z-0.125000
G01 X31.671903 Y212.891574 Z-0.125000
G01 X32.338651 Y213.558322 Z-0.125000
G00 Z5.000000

(End cutting path id: path2084)


(Start cutting path id: path2084)
(Change tool to Default tool)

G00 Z5.000000
G00 X28.338164 Y215.225192

G01 Z-0.125000 F100.0(Penetrate)
G01 X32.338651 Y215.225192 Z-0.125000 F400.000000
G01 X32.338651 Y215.891940 Z-0.125000
G01 X32.010569 Y216.558687 Z-0.125000
G01 X31.671903 Y216.897353 Z-0.125000
G01 X31.005155 Y217.225435 Z-0.125000
G01 X29.999742 Y217.225435 Z-0.125000
G01 X29.343577 Y216.897353 Z-0.125000
G01 X28.666246 Y216.220022 Z-0.125000
G01 X28.338164 Y215.225192 Z-0.125000
G01 X28.338164 Y214.558444 Z-0.125000
G01 X28.666246 Y213.558322 Z-0.125000
G01 X29.343577 Y212.891574 Z-0.125000
G01 X29.999742 Y212.558200 Z-0.125000
G01 X31.005155 Y212.558200 Z-0.125000
G01 X31.671903 Y212.891574 Z-0.125000
G01 X32.338651 Y213.558322 Z-0.125000
G00 Z5.000000

(End cutting path id: path2084)


(Start cutting path id: path2082)
(Change tool to Default tool)

G00 Z5.000000
G00 X25.999256 Y219.564345

G01 Z-0.125000 F100.0(Penetrate)
G01 X25.999256 Y212.558200 Z-0.125000 F400.000000
G00 Z5.000000

(End cutting path id: path2082)


(Start cutting path id: path2082)
(Change tool to Default tool)

G00 Z5.000000
G00 X25.999256 Y219.564345

G01 Z-0.125000 F100.0(Penetrate)
G01 X25.999256 Y212.558200 Z-0.125000 F400.000000
G00 Z5.000000

(End cutting path id: path2082)


(Start cutting path id: path2123)
(Change tool to Default tool)

G00 Z5.000000
G00 X19.998526 Y214.886526

G01 Z-0.125000 F100.0(Penetrate)
G01 X23.342849 Y214.886526 Z-0.125000 F400.000000
G00 Z5.000000

(End cutting path id: path2123)


(Start cutting path id: path2123)
(Change tool to Default tool)

G00 Z5.000000
G00 X19.998526 Y214.886526

G01 Z-0.125000 F100.0(Penetrate)
G01 X23.342849 Y214.886526 Z-0.125000 F400.000000
G00 Z5.000000

(End cutting path id: path2123)


(Start cutting path id: path2080)
(Change tool to Default tool)

G00 Z5.000000
G00 X21.670687 Y219.564345

G01 Z-0.125000 F100.0(Penetrate)
G01 X19.003696 Y212.558200 Z-0.125000 F400.000000
G00 Z5.000000

(End cutting path id: path2080)


(Start cutting path id: path2080)
(Change tool to Default tool)

G00 Z5.000000
G00 X21.670687 Y219.564345

G01 Z-0.125000 F100.0(Penetrate)
G01 X19.003696 Y212.558200 Z-0.125000 F400.000000
G00 Z5.000000

(End cutting path id: path2080)


(Start cutting path id: path2121)
(Change tool to Default tool)

G00 Z5.000000
G00 X21.670687 Y219.564345

G01 Z-0.125000 F100.0(Penetrate)
G01 X24.337679 Y212.558200 Z-0.125000 F400.000000
G00 Z5.000000

(End cutting path id: path2121)


(Start cutting path id: path2121)
(Change tool to Default tool)

G00 Z5.000000
G00 X21.670687 Y219.564345

G01 Z-0.125000 F100.0(Penetrate)
G01 X24.337679 Y212.558200 Z-0.125000 F400.000000
G00 Z5.000000

(End cutting path id: path2121)


(Footer)
M5
G00 X0.0000 Y0.0000
M2
(Using default footer. To add your own footer create file "footer" in the output dir.)
(end)
%