%
(Header)
(Generated by gcodetools from Inkscape.)
(Using default header. To add your own header create file "header" in the output dir.)
M3
(Header end.)
G21 (All units in mm)

(Start cutting path id: path5412)
(Change tool to Default tool)

G00 Z5.000000
G00 X83.386826 Y123.551140

G01 Z-0.125000 F100.0(Penetrate)
G01 X83.386826 Y116.545000 Z-0.125000 F400.000000
G00 Z5.000000

(End cutting path id: path5412)


(Start cutting path id: path5412)
(Change tool to Default tool)

G00 Z5.000000
G00 X83.386826 Y123.551140

G01 Z-0.125000 F100.0(Penetrate)
G01 X83.386826 Y116.545000 Z-0.125000 F400.000000
G00 Z5.000000

(End cutting path id: path5412)


(Start cutting path id: path5453)
(Change tool to Default tool)

G00 Z5.000000
G00 X78.052826 Y121.212240

G01 Z-0.125000 F100.0(Penetrate)
G01 X78.052826 Y116.545000 Z-0.125000 F400.000000
G00 Z5.000000

(End cutting path id: path5453)


(Start cutting path id: path5453)
(Change tool to Default tool)

G00 Z5.000000
G00 X78.052826 Y121.212240

G01 Z-0.125000 F100.0(Penetrate)
G01 X78.052826 Y116.545000 Z-0.125000 F400.000000
G00 Z5.000000

(End cutting path id: path5453)


(Start cutting path id: path5408)
(Change tool to Default tool)

G00 Z5.000000
G00 X77.724744 Y123.551140

G01 Z-0.125000 F100.0(Penetrate)
G01 X78.052826 Y123.212480 Z-0.125000 F400.000000
G01 X78.391492 Y123.551140 Z-0.125000
G01 X78.052826 Y123.879230 Z-0.125000
G01 X77.724744 Y123.551140 Z-0.125000
G00 Z5.000000

(End cutting path id: path5408)


(Start cutting path id: path5408)
(Change tool to Default tool)

G00 Z5.000000
G00 X77.724744 Y123.551140

G01 Z-0.125000 F100.0(Penetrate)
G01 X78.052826 Y123.212480 Z-0.125000 F400.000000
G01 X78.391492 Y123.551140 Z-0.125000
G01 X78.052826 Y123.879230 Z-0.125000
G01 X77.724744 Y123.551140 Z-0.125000
G00 Z5.000000

(End cutting path id: path5408)


(Start cutting path id: path5410)
(Change tool to Default tool)

G00 Z5.000000
G00 X80.719826 Y123.551140

G01 Z-0.125000 F100.0(Penetrate)
G01 X80.719826 Y116.545000 Z-0.125000 F400.000000
G00 Z5.000000

(End cutting path id: path5410)


(Start cutting path id: path5410)
(Change tool to Default tool)

G00 Z5.000000
G00 X80.719826 Y123.551140

G01 Z-0.125000 F100.0(Penetrate)
G01 X80.719826 Y116.545000 Z-0.125000 F400.000000
G00 Z5.000000

(End cutting path id: path5410)


(Start cutting path id: path5449)
(Change tool to Default tool)

G00 Z5.000000
G00 X71.724026 Y120.206820

G01 Z-0.125000 F100.0(Penetrate)
G01 X72.401357 Y120.884150 Z-0.125000 F400.000000
G01 X73.057522 Y121.212240 Z-0.125000
G01 X74.062935 Y121.212240 Z-0.125000
G01 X74.729683 Y120.884150 Z-0.125000
G01 X75.396431 Y120.206820 Z-0.125000
G01 X75.724513 Y119.211990 Z-0.125000
G01 X75.724513 Y118.545240 Z-0.125000
G01 X75.396431 Y117.545120 Z-0.125000
G01 X74.729683 Y116.878370 Z-0.125000
G01 X74.062935 Y116.545000 Z-0.125000
G01 X73.057522 Y116.545000 Z-0.125000
G01 X72.401357 Y116.878370 Z-0.125000
G01 X71.724026 Y117.545120 Z-0.125000
G00 Z5.000000

(End cutting path id: path5449)


(Start cutting path id: path5449)
(Change tool to Default tool)

G00 Z5.000000
G00 X71.724026 Y120.206820

G01 Z-0.125000 F100.0(Penetrate)
G01 X72.401357 Y120.884150 Z-0.125000 F400.000000
G01 X73.057522 Y121.212240 Z-0.125000
G01 X74.062935 Y121.212240 Z-0.125000
G01 X74.729683 Y120.884150 Z-0.125000
G01 X75.396431 Y120.206820 Z-0.125000
G01 X75.724513 Y119.211990 Z-0.125000
G01 X75.724513 Y118.545240 Z-0.125000
G01 X75.396431 Y117.545120 Z-0.125000
G01 X74.729683 Y116.878370 Z-0.125000
G01 X74.062935 Y116.545000 Z-0.125000
G01 X73.057522 Y116.545000 Z-0.125000
G01 X72.401357 Y116.878370 Z-0.125000
G01 X71.724026 Y117.545120 Z-0.125000
G00 Z5.000000

(End cutting path id: path5449)


(Start cutting path id: path5445)
(Change tool to Default tool)

G00 Z5.000000
G00 X69.734389 Y121.212240

G01 Z-0.125000 F100.0(Penetrate)
G01 X67.723562 Y116.545000 Z-0.125000 F400.000000
G01 X67.067397 Y115.211500 Z-0.125000
G01 X66.390066 Y114.544760 Z-0.125000
G01 X65.733901 Y114.216670 Z-0.125000
G01 X65.395236 Y114.216670 Z-0.125000
G00 Z5.000000

(End cutting path id: path5445)


(Start cutting path id: path5445)
(Change tool to Default tool)

G00 Z5.000000
G00 X69.734389 Y121.212240

G01 Z-0.125000 F100.0(Penetrate)
G01 X67.723562 Y116.545000 Z-0.125000 F400.000000
G01 X67.067397 Y115.211500 Z-0.125000
G01 X66.390066 Y114.544760 Z-0.125000
G01 X65.733901 Y114.216670 Z-0.125000
G01 X65.395236 Y114.216670 Z-0.125000
G00 Z5.000000

(End cutting path id: path5445)


(Start cutting path id: path5404)
(Change tool to Default tool)

G00 Z5.000000
G00 X65.733901 Y121.212240

G01 Z-0.125000 F100.0(Penetrate)
G01 X67.723562 Y116.545000 Z-0.125000 F400.000000
G00 Z5.000000

(End cutting path id: path5404)


(Start cutting path id: path5404)
(Change tool to Default tool)

G00 Z5.000000
G00 X65.733901 Y121.212240

G01 Z-0.125000 F100.0(Penetrate)
G01 X67.723562 Y116.545000 Z-0.125000 F400.000000
G00 Z5.000000

(End cutting path id: path5404)


(Start cutting path id: path5402)
(Change tool to Default tool)

G00 Z5.000000
G00 X64.061745 Y121.878980

G01 Z-0.125000 F100.0(Penetrate)
G01 X63.723079 Y122.545730 Z-0.125000 F400.000000
G01 X63.056331 Y123.212480 Z-0.125000
G01 X62.389583 Y123.551140 Z-0.125000
G01 X61.056087 Y123.551140 Z-0.125000
G01 X60.389339 Y123.212480 Z-0.125000
G01 X59.722592 Y122.545730 Z-0.125000
G01 X59.383926 Y121.878980 Z-0.125000
G01 X59.055844 Y120.884150 Z-0.125000
G01 X59.055844 Y119.211990 Z-0.125000
G01 X59.383926 Y118.217160 Z-0.125000
G01 X59.722592 Y117.545120 Z-0.125000
G01 X60.389339 Y116.878370 Z-0.125000
G01 X61.056087 Y116.545000 Z-0.125000
G01 X62.389583 Y116.545000 Z-0.125000
G01 X63.056331 Y116.878370 Z-0.125000
G01 X63.723079 Y117.545120 Z-0.125000
G01 X64.061745 Y118.217160 Z-0.125000
G00 Z5.000000

(End cutting path id: path5402)


(Start cutting path id: path5402)
(Change tool to Default tool)

G00 Z5.000000
G00 X64.061745 Y121.878980

G01 Z-0.125000 F100.0(Penetrate)
G01 X63.723079 Y122.545730 Z-0.125000 F400.000000
G01 X63.056331 Y123.212480 Z-0.125000
G01 X62.389583 Y123.551140 Z-0.125000
G01 X61.056087 Y123.551140 Z-0.125000
G01 X60.389339 Y123.212480 Z-0.125000
G01 X59.722592 Y122.545730 Z-0.125000
G01 X59.383926 Y121.878980 Z-0.125000
G01 X59.055844 Y120.884150 Z-0.125000
G01 X59.055844 Y119.211990 Z-0.125000
G01 X59.383926 Y118.217160 Z-0.125000
G01 X59.722592 Y117.545120 Z-0.125000
G01 X60.389339 Y116.878370 Z-0.125000
G01 X61.056087 Y116.545000 Z-0.125000
G01 X62.389583 Y116.545000 Z-0.125000
G01 X63.056331 Y116.878370 Z-0.125000
G01 X63.723079 Y117.545120 Z-0.125000
G01 X64.061745 Y118.217160 Z-0.125000
G00 Z5.000000

(End cutting path id: path5402)


(Start cutting path id: path5406)
(Change tool to Default tool)

G00 Z5.000000
G00 X71.724026 Y123.551140

G01 Z-0.125000 F100.0(Penetrate)
G01 X71.724026 Y116.545000 Z-0.125000 F400.000000
G00 Z5.000000

(End cutting path id: path5406)


(Start cutting path id: path5406)
(Change tool to Default tool)

G00 Z5.000000
G00 X71.724026 Y123.551140

G01 Z-0.125000 F100.0(Penetrate)
G01 X71.724026 Y116.545000 Z-0.125000 F400.000000
G00 Z5.000000

(End cutting path id: path5406)


(Footer)
M5
G00 X0.0000 Y0.0000
M2
(Using default footer. To add your own footer create file "footer" in the output dir.)
(end)
%