%
(Header)
(Generated by gcodetools from Inkscape.)
(Using default header. To add your own header create file "header" in the output dir.)
M3
(Header end.)
G21 (All units in mm)

(Start cutting path id: path188)
(Change tool to Default tool)

G00 Z5.000000
G00 X96.348737 Y1782.991761

G01 Z-0.125000 F100.0(Penetrate)
G01 X2050.412493 Y1782.991761 Z-0.125000 F400.000000
G00 Z5.000000

(End cutting path id: path188)


(Start cutting path id: path188)
(Change tool to Default tool)

G00 Z5.000000
G00 X96.348737 Y1782.991761

G01 Z-0.125000 F100.0(Penetrate)
G01 X2050.412493 Y1782.991761 Z-0.125000 F400.000000
G00 Z5.000000

(End cutting path id: path188)


(Start cutting path id: path168)
(Change tool to Default tool)

G00 Z5.000000
G00 X2050.412493 Y1782.991761

G01 Z-0.125000 F100.0(Penetrate)
G02 X2096.931442 Y1759.362777 Z-0.125000 I-40.622927 J-137.581315 F400.000000
G02 X2129.952064 Y1718.815394 Z-0.125000 I-68.355318 J-89.385817
G00 Z5.000000

(End cutting path id: path168)


(Start cutting path id: path168)
(Change tool to Default tool)

G00 Z5.000000
G00 X2050.412493 Y1782.991761

G01 Z-0.125000 F100.0(Penetrate)
G02 X2096.931442 Y1759.362777 Z-0.125000 I-40.622927 J-137.581315 F400.000000
G02 X2129.952064 Y1718.815394 Z-0.125000 I-68.355318 J-89.385817
G00 Z5.000000

(End cutting path id: path168)


(Start cutting path id: path170)
(Change tool to Default tool)

G00 Z5.000000
G00 X2129.952064 Y1718.815394

G01 Z-0.125000 F100.0(Penetrate)
G02 X2138.551251 Y1693.489368 Z-0.125000 I-94.206381 J-46.109686 F400.000000
G02 X2140.809324 Y1666.884413 Z-0.125000 I-114.231699 J-23.093621
G00 Z5.000000

(End cutting path id: path170)


(Start cutting path id: path170)
(Change tool to Default tool)

G00 Z5.000000
G00 X2129.952064 Y1718.815394

G01 Z-0.125000 F100.0(Penetrate)
G02 X2138.551251 Y1693.489368 Z-0.125000 I-94.206381 J-46.109686 F400.000000
G02 X2140.809324 Y1666.884413 Z-0.125000 I-114.231699 J-23.093621
G00 Z5.000000

(End cutting path id: path170)


(Start cutting path id: path172)
(Change tool to Default tool)

G00 Z5.000000
G00 X2140.809324 Y1666.884413

G01 Z-0.125000 F100.0(Penetrate)
G01 X2140.695938 Y116.220708 Z-0.125000 F400.000000
G00 Z5.000000

(End cutting path id: path172)


(Start cutting path id: path172)
(Change tool to Default tool)

G00 Z5.000000
G00 X2140.809324 Y1666.884413

G01 Z-0.125000 F100.0(Penetrate)
G01 X2140.695938 Y116.220708 Z-0.125000 F400.000000
G00 Z5.000000

(End cutting path id: path172)


(Start cutting path id: path174)
(Change tool to Default tool)

G00 Z5.000000
G00 X2140.695938 Y116.220708

G01 Z-0.125000 F100.0(Penetrate)
G02 X2117.980113 Y53.061891 Z-0.125000 I-105.678307 J2.344051 F400.000000
G02 X2064.018505 Y13.577357 Z-0.125000 I-98.103046 J77.457070
G00 Z5.000000

(End cutting path id: path174)


(Start cutting path id: path174)
(Change tool to Default tool)

G00 Z5.000000
G00 X2140.695938 Y116.220708

G01 Z-0.125000 F100.0(Penetrate)
G02 X2117.980113 Y53.061891 Z-0.125000 I-105.678307 J2.344051 F400.000000
G02 X2064.018505 Y13.577357 Z-0.125000 I-98.103046 J77.457070
G00 Z5.000000

(End cutting path id: path174)


(Start cutting path id: path176)
(Change tool to Default tool)

G00 Z5.000000
G00 X2064.018505 Y13.577357

G01 Z-0.125000 F100.0(Penetrate)
G02 X2015.984020 Y3.989633 Z-0.125000 I-47.844184 J114.579081 F400.000000
G03 X1967.272067 Y3.685014 Z-0.125000 I-4.794438 J-3128.263282
G00 Z5.000000

(End cutting path id: path176)


(Start cutting path id: path176)
(Change tool to Default tool)

G00 Z5.000000
G00 X2064.018505 Y13.577357

G01 Z-0.125000 F100.0(Penetrate)
G02 X2015.984020 Y3.989633 Z-0.125000 I-47.844184 J114.579081 F400.000000
G03 X1967.272067 Y3.685014 Z-0.125000 I-4.794438 J-3128.263282
G00 Z5.000000

(End cutting path id: path176)


(Start cutting path id: path178)
(Change tool to Default tool)

G00 Z5.000000
G00 X1967.272067 Y3.685014

G01 Z-0.125000 F100.0(Penetrate)
G03 X1831.135812 Y3.621176 Z-0.125000 I-60.494761 J-16150.434717 F400.000000
G02 X1695.032462 Y4.450085 Z-0.125000 I-29.584273 J6316.599092
G00 Z5.000000

(End cutting path id: path178)


(Start cutting path id: path178)
(Change tool to Default tool)

G00 Z5.000000
G00 X1967.272067 Y3.685014

G01 Z-0.125000 F100.0(Penetrate)
G03 X1831.135812 Y3.621176 Z-0.125000 I-60.494761 J-16150.434717 F400.000000
G02 X1695.032462 Y4.450085 Z-0.125000 I-29.584273 J6316.599092
G00 Z5.000000

(End cutting path id: path178)


(Start cutting path id: path180)
(Change tool to Default tool)

G00 Z5.000000
G00 X1695.032462 Y4.450085

G01 Z-0.125000 F100.0(Penetrate)
G01 X5.102362 Y4.478998 Z-0.125000 F400.000000
G00 Z5.000000

(End cutting path id: path180)


(Start cutting path id: path180)
(Change tool to Default tool)

G00 Z5.000000
G00 X1695.032462 Y4.450085

G01 Z-0.125000 F100.0(Penetrate)
G01 X5.102362 Y4.478998 Z-0.125000 F400.000000
G00 Z5.000000

(End cutting path id: path180)


(Start cutting path id: path182)
(Change tool to Default tool)

G00 Z5.000000
G00 X5.102362 Y4.478998

G01 Z-0.125000 F100.0(Penetrate)
G01 X5.046236 Y1661.045327 Z-0.125000 F400.000000
G00 Z5.000000

(End cutting path id: path182)


(Start cutting path id: path182)
(Change tool to Default tool)

G00 Z5.000000
G00 X5.102362 Y4.478998

G01 Z-0.125000 F100.0(Penetrate)
G01 X5.046236 Y1661.045327 Z-0.125000 F400.000000
G00 Z5.000000

(End cutting path id: path182)


(Start cutting path id: path184)
(Change tool to Default tool)

G00 Z5.000000
G00 X5.046236 Y1661.045327

G01 Z-0.125000 F100.0(Penetrate)
G02 X6.156151 Y1686.450666 Z-0.125000 I164.927888 J5.521500 F400.000000
G02 X12.585540 Y1711.105445 Z-0.125000 I94.446259 J-11.463664
G00 Z5.000000

(End cutting path id: path184)


(Start cutting path id: path184)
(Change tool to Default tool)

G00 Z5.000000
G00 X5.046236 Y1661.045327

G01 Z-0.125000 F100.0(Penetrate)
G02 X6.156151 Y1686.450666 Z-0.125000 I164.927888 J5.521500 F400.000000
G02 X12.585540 Y1711.105445 Z-0.125000 I94.446259 J-11.463664
G00 Z5.000000

(End cutting path id: path184)


(Start cutting path id: path186)
(Change tool to Default tool)

G00 Z5.000000
G00 X12.585540 Y1711.105445

G01 Z-0.125000 F100.0(Penetrate)
G02 X45.953508 Y1757.087075 Z-0.125000 I104.472821 J-40.715824 F400.000000
G02 X96.348737 Y1782.991761 Z-0.125000 I85.346872 J-104.062609
G00 Z5.000000

(End cutting path id: path186)


(Start cutting path id: path186)
(Change tool to Default tool)

G00 Z5.000000
G00 X12.585540 Y1711.105445

G01 Z-0.125000 F100.0(Penetrate)
G02 X45.953508 Y1757.087075 Z-0.125000 I104.472821 J-40.715824 F400.000000
G02 X96.348737 Y1782.991761 Z-0.125000 I85.346872 J-104.062609
G00 Z5.000000

(End cutting path id: path186)


(Start cutting path id: path166)
(Change tool to Default tool)

G00 Z5.000000
G00 X130.337548 Y1762.582316

G01 Z-0.125000 F100.0(Penetrate)
G03 X98.994200 Y1757.538631 Z-0.125000 I0.409825 J-102.458295 F400.000000
G03 X70.411733 Y1743.703579 Z-0.125000 I36.372451 J-111.585954
G00 Z5.000000

(End cutting path id: path166)


(Start cutting path id: path166)
(Change tool to Default tool)

G00 Z5.000000
G00 X130.337548 Y1762.582316

G01 Z-0.125000 F100.0(Penetrate)
G03 X98.994200 Y1757.538631 Z-0.125000 I0.409825 J-102.458295 F400.000000
G03 X70.411733 Y1743.703579 Z-0.125000 I36.372451 J-111.585954
G00 Z5.000000

(End cutting path id: path166)


(Start cutting path id: path144)
(Change tool to Default tool)

G00 Z5.000000
G00 X70.411733 Y1743.703579

G01 Z-0.125000 F100.0(Penetrate)
G03 X42.103181 Y1714.365241 Z-0.125000 I53.217753 J-79.676416 F400.000000
G03 X30.330418 Y1675.190488 Z-0.125000 I67.385761 J-41.607057
G00 Z5.000000

(End cutting path id: path144)


(Start cutting path id: path144)
(Change tool to Default tool)

G00 Z5.000000
G00 X70.411733 Y1743.703579

G01 Z-0.125000 F100.0(Penetrate)
G03 X42.103181 Y1714.365241 Z-0.125000 I53.217753 J-79.676416 F400.000000
G03 X30.330418 Y1675.190488 Z-0.125000 I67.385761 J-41.607057
G00 Z5.000000

(End cutting path id: path144)


(Start cutting path id: path146)
(Change tool to Default tool)

G00 Z5.000000
G00 X30.330418 Y1675.190488

G01 Z-0.125000 F100.0(Penetrate)
G01 X30.330418 Y29.707058 Z-0.125000 F400.000000
G00 Z5.000000

(End cutting path id: path146)


(Start cutting path id: path146)
(Change tool to Default tool)

G00 Z5.000000
G00 X30.330418 Y1675.190488

G01 Z-0.125000 F100.0(Penetrate)
G01 X30.330418 Y29.707058 Z-0.125000 F400.000000
G00 Z5.000000

(End cutting path id: path146)


(Start cutting path id: path148)
(Change tool to Default tool)

G00 Z5.000000
G00 X30.330418 Y29.707058

G01 Z-0.125000 F100.0(Penetrate)
G03 X316.962903 Y29.600778 Z-0.125000 I171.957786 J77346.357909 F400.000000
G02 X603.637398 Y29.367184 Z-0.125000 I92.513305 J-62402.864532
G00 Z5.000000

(End cutting path id: path148)


(Start cutting path id: path148)
(Change tool to Default tool)

G00 Z5.000000
G00 X30.330418 Y29.707058

G01 Z-0.125000 F100.0(Penetrate)
G03 X316.962903 Y29.600778 Z-0.125000 I171.957786 J77346.357909 F400.000000
G02 X603.637398 Y29.367184 Z-0.125000 I92.513305 J-62402.864532
G00 Z5.000000

(End cutting path id: path148)


(Start cutting path id: path150)
(Change tool to Default tool)

G00 Z5.000000
G00 X603.637398 Y29.367184

G01 Z-0.125000 F100.0(Penetrate)
G03 X819.135737 Y28.889161 Z-0.125000 I158.778205 J23004.275363 F400.000000
G02 X1034.673819 Y28.942270 Z-0.125000 I119.734991 J-48562.515473
G00 Z5.000000

(End cutting path id: path150)


(Start cutting path id: path150)
(Change tool to Default tool)

G00 Z5.000000
G00 X603.637398 Y29.367184

G01 Z-0.125000 F100.0(Penetrate)
G03 X819.135737 Y28.889161 Z-0.125000 I158.778205 J23004.275363 F400.000000
G02 X1034.673819 Y28.942270 Z-0.125000 I119.734991 J-48562.515473
G00 Z5.000000

(End cutting path id: path150)


(Start cutting path id: path152)
(Change tool to Default tool)

G00 Z5.000000
G00 X1034.673819 Y28.942270

G01 Z-0.125000 F100.0(Penetrate)
G01 X2012.456307 Y28.913357 Z-0.125000 F400.000000
G00 Z5.000000

(End cutting path id: path152)


(Start cutting path id: path152)
(Change tool to Default tool)

G00 Z5.000000
G00 X1034.673819 Y28.942270

G01 Z-0.125000 F100.0(Penetrate)
G01 X2012.456307 Y28.913357 Z-0.125000 F400.000000
G00 Z5.000000

(End cutting path id: path152)


(Start cutting path id: path154)
(Change tool to Default tool)

G00 Z5.000000
G00 X2012.456307 Y28.913357

G01 Z-0.125000 F100.0(Penetrate)
G03 X2054.858089 Y36.946246 Z-0.125000 I0.223866 J114.744133 F400.000000
G03 X2090.862591 Y60.832310 Z-0.125000 I-38.211848 J96.676986
G00 Z5.000000

(End cutting path id: path154)


(Start cutting path id: path154)
(Change tool to Default tool)

G00 Z5.000000
G00 X2012.456307 Y28.913357

G01 Z-0.125000 F100.0(Penetrate)
G03 X2054.858089 Y36.946246 Z-0.125000 I0.223866 J114.744133 F400.000000
G03 X2090.862591 Y60.832310 Z-0.125000 I-38.211848 J96.676986
G00 Z5.000000

(End cutting path id: path154)


(Start cutting path id: path156)
(Change tool to Default tool)

G00 Z5.000000
G00 X2090.862591 Y60.832310

G01 Z-0.125000 F100.0(Penetrate)
G03 X2108.296024 Y86.120817 Z-0.125000 I-68.483279 J65.864515 F400.000000
G03 X2115.467029 Y116.078409 Z-0.125000 I-67.999549 J32.114244
G00 Z5.000000

(End cutting path id: path156)


(Start cutting path id: path156)
(Change tool to Default tool)

G00 Z5.000000
G00 X2090.862591 Y60.832310

G01 Z-0.125000 F100.0(Penetrate)
G03 X2108.296024 Y86.120817 Z-0.125000 I-68.483279 J65.864515 F400.000000
G03 X2115.467029 Y116.078409 Z-0.125000 I-67.999549 J32.114244
G00 Z5.000000

(End cutting path id: path156)


(Start cutting path id: path158)
(Change tool to Default tool)

G00 Z5.000000
G00 X2115.467029 Y116.078409

G01 Z-0.125000 F100.0(Penetrate)
G01 X2115.495942 Y1675.105449 Z-0.125000 F400.000000
G00 Z5.000000

(End cutting path id: path158)


(Start cutting path id: path158)
(Change tool to Default tool)

G00 Z5.000000
G00 X2115.467029 Y116.078409

G01 Z-0.125000 F100.0(Penetrate)
G01 X2115.495942 Y1675.105449 Z-0.125000 F400.000000
G00 Z5.000000

(End cutting path id: path158)


(Start cutting path id: path160)
(Change tool to Default tool)

G00 Z5.000000
G00 X2115.495942 Y1675.105449

G01 Z-0.125000 F100.0(Penetrate)
G03 X2107.966236 Y1706.263422 Z-0.125000 I-75.174751 J-1.678091 F400.000000
G03 X2089.444989 Y1732.279961 Z-0.125000 I-86.543817 J-42.009852
G00 Z5.000000

(End cutting path id: path160)


(Start cutting path id: path160)
(Change tool to Default tool)

G00 Z5.000000
G00 X2115.495942 Y1675.105449

G01 Z-0.125000 F100.0(Penetrate)
G03 X2107.966236 Y1706.263422 Z-0.125000 I-75.174751 J-1.678091 F400.000000
G03 X2089.444989 Y1732.279961 Z-0.125000 I-86.543817 J-42.009852
G00 Z5.000000

(End cutting path id: path160)


(Start cutting path id: path162)
(Change tool to Default tool)

G00 Z5.000000
G00 X2089.444989 Y1732.279961

G01 Z-0.125000 F100.0(Penetrate)
G03 X2055.322639 Y1754.541965 Z-0.125000 I-74.803240 J-77.373833 F400.000000
G03 X2015.347646 Y1762.582316 Z-0.125000 I-40.987188 J-100.386026
G00 Z5.000000

(End cutting path id: path162)


(Start cutting path id: path162)
(Change tool to Default tool)

G00 Z5.000000
G00 X2089.444989 Y1732.279961

G01 Z-0.125000 F100.0(Penetrate)
G03 X2055.322639 Y1754.541965 Z-0.125000 I-74.803240 J-77.373833 F400.000000
G03 X2015.347646 Y1762.582316 Z-0.125000 I-40.987188 J-100.386026
G00 Z5.000000

(End cutting path id: path162)


(Start cutting path id: path164)
(Change tool to Default tool)

G00 Z5.000000
G00 X2015.347646 Y1762.582316

G01 Z-0.125000 F100.0(Penetrate)
G01 X130.337548 Y1762.582316 Z-0.125000 F400.000000
G00 Z5.000000

(End cutting path id: path164)


(Start cutting path id: path164)
(Change tool to Default tool)

G00 Z5.000000
G00 X2015.347646 Y1762.582316

G01 Z-0.125000 F100.0(Penetrate)
G01 X130.337548 Y1762.582316 Z-0.125000 F400.000000
G00 Z5.000000

(End cutting path id: path164)


(Start cutting path id: path130)
(Change tool to Default tool)

G00 Z5.000000
G00 X398.154539 Y1563.051928

G01 Z-0.125000 F100.0(Penetrate)
G02 X448.386050 Y1564.122645 Z-0.125000 I28.590414 J-162.474393 F400.000000
G02 X496.034551 Y1547.772908 Z-0.125000 I-16.715369 J-126.320627
G00 Z5.000000

(End cutting path id: path130)


(Start cutting path id: path130)
(Change tool to Default tool)

G00 Z5.000000
G00 X398.154539 Y1563.051928

G01 Z-0.125000 F100.0(Penetrate)
G02 X448.386050 Y1564.122645 Z-0.125000 I28.590414 J-162.474393 F400.000000
G02 X496.034551 Y1547.772908 Z-0.125000 I-16.715369 J-126.320627
G00 Z5.000000

(End cutting path id: path130)


(Start cutting path id: path132)
(Change tool to Default tool)

G00 Z5.000000
G00 X496.034551 Y1547.772908

G01 Z-0.125000 F100.0(Penetrate)
G02 X541.257381 Y1507.137748 Z-0.125000 I-76.424184 J-130.534201 F400.000000
G02 X565.171260 Y1451.054534 Z-0.125000 I-106.008909 J-78.342238
G00 Z5.000000

(End cutting path id: path132)


(Start cutting path id: path132)
(Change tool to Default tool)

G00 Z5.000000
G00 X496.034551 Y1547.772908

G01 Z-0.125000 F100.0(Penetrate)
G02 X541.257381 Y1507.137748 Z-0.125000 I-76.424184 J-130.534201 F400.000000
G02 X565.171260 Y1451.054534 Z-0.125000 I-106.008909 J-78.342238
G00 Z5.000000

(End cutting path id: path132)


(Start cutting path id: path134)
(Change tool to Default tool)

G00 Z5.000000
G00 X565.171260 Y1451.054534

G01 Z-0.125000 F100.0(Penetrate)
G02 X565.525625 Y1396.322328 Z-0.125000 I-163.326982 J-28.424716 F400.000000
G02 X545.811201 Y1345.067718 Z-0.125000 I-131.384584 J21.116631
G00 Z5.000000

(End cutting path id: path134)


(Start cutting path id: path134)
(Change tool to Default tool)

G00 Z5.000000
G00 X565.171260 Y1451.054534

G01 Z-0.125000 F100.0(Penetrate)
G02 X565.525625 Y1396.322328 Z-0.125000 I-163.326982 J-28.424716 F400.000000
G02 X545.811201 Y1345.067718 Z-0.125000 I-131.384584 J21.116631
G00 Z5.000000

(End cutting path id: path134)


(Start cutting path id: path136)
(Change tool to Default tool)

G00 Z5.000000
G00 X545.811201 Y1345.067718

G01 Z-0.125000 F100.0(Penetrate)
G02 X511.829207 Y1307.830872 Z-0.125000 I-126.281834 J81.119365 F400.000000
G02 X466.781012 Y1285.001304 Z-0.125000 I-80.846967 J103.670176
G00 Z5.000000

(End cutting path id: path136)


(Start cutting path id: path136)
(Change tool to Default tool)

G00 Z5.000000
G00 X545.811201 Y1345.067718

G01 Z-0.125000 F100.0(Penetrate)
G02 X511.829207 Y1307.830872 Z-0.125000 I-126.281834 J81.119365 F400.000000
G02 X466.781012 Y1285.001304 Z-0.125000 I-80.846967 J103.670176
G00 Z5.000000

(End cutting path id: path136)


(Start cutting path id: path138)
(Change tool to Default tool)

G00 Z5.000000
G00 X466.781012 Y1285.001304

G01 Z-0.125000 F100.0(Penetrate)
G02 X398.447493 Y1281.808094 Z-0.125000 I-41.059539 J145.906336 F400.000000
G02 X336.642455 Y1311.562497 Z-0.125000 I23.326653 J127.520566
G00 Z5.000000

(End cutting path id: path138)


(Start cutting path id: path138)
(Change tool to Default tool)

G00 Z5.000000
G00 X466.781012 Y1285.001304

G01 Z-0.125000 F100.0(Penetrate)
G02 X398.447493 Y1281.808094 Z-0.125000 I-41.059539 J145.906336 F400.000000
G02 X336.642455 Y1311.562497 Z-0.125000 I23.326653 J127.520566
G00 Z5.000000

(End cutting path id: path138)


(Start cutting path id: path140)
(Change tool to Default tool)

G00 Z5.000000
G00 X336.642455 Y1311.562497

G01 Z-0.125000 F100.0(Penetrate)
G02 X297.129817 Y1362.511255 Z-0.125000 I87.077225 J108.327728 F400.000000
G02 X284.995506 Y1425.826474 Z-0.125000 I125.451749 J56.863101
G00 Z5.000000

(End cutting path id: path140)


(Start cutting path id: path140)
(Change tool to Default tool)

G00 Z5.000000
G00 X336.642455 Y1311.562497

G01 Z-0.125000 F100.0(Penetrate)
G02 X297.129817 Y1362.511255 Z-0.125000 I87.077225 J108.327728 F400.000000
G02 X284.995506 Y1425.826474 Z-0.125000 I125.451749 J56.863101
G00 Z5.000000

(End cutting path id: path140)


(Start cutting path id: path142)
(Change tool to Default tool)

G00 Z5.000000
G00 X284.995506 Y1425.826474

G01 Z-0.125000 F100.0(Penetrate)
G02 X293.194648 Y1473.148101 Z-0.125000 I125.206677 J2.677292 F400.000000
G02 X317.285550 Y1514.349253 Z-0.125000 I136.066492 J-51.916297
G02 X353.468723 Y1545.766724 Z-0.125000 I114.165384 J-94.938455
G02 X398.154539 Y1563.051928 Z-0.125000 I68.819973 J-111.510191
G00 Z5.000000

(End cutting path id: path142)


(Start cutting path id: path142)
(Change tool to Default tool)

G00 Z5.000000
G00 X284.995506 Y1425.826474

G01 Z-0.125000 F100.0(Penetrate)
G02 X293.194648 Y1473.148101 Z-0.125000 I125.206677 J2.677292 F400.000000
G02 X317.285550 Y1514.349253 Z-0.125000 I136.066492 J-51.916297
G02 X353.468723 Y1545.766724 Z-0.125000 I114.165384 J-94.938455
G02 X398.154539 Y1563.051928 Z-0.125000 I68.819973 J-111.510191
G00 Z5.000000

(End cutting path id: path142)


(Start cutting path id: path68)
(Change tool to Default tool)

G00 Z5.000000
G00 X291.401802 Y1207.530453

G01 Z-0.125000 F100.0(Penetrate)
G02 X425.522900 Y1207.562559 Z-0.125000 I107.207077 J-167199.653610 F400.000000
G02 X559.643989 Y1207.530453 Z-0.125000 I-142.876184 J-863349.168631
G00 Z5.000000

(End cutting path id: path68)


(Start cutting path id: path68)
(Change tool to Default tool)

G00 Z5.000000
G00 X291.401802 Y1207.530453

G01 Z-0.125000 F100.0(Penetrate)
G02 X425.522900 Y1207.562559 Z-0.125000 I107.207077 J-167199.653610 F400.000000
G02 X559.643989 Y1207.530453 Z-0.125000 I-142.876184 J-863349.168631
G00 Z5.000000

(End cutting path id: path68)


(Start cutting path id: path70)
(Change tool to Default tool)

G00 Z5.000000
G00 X559.643989 Y1207.530453

G01 Z-0.125000 F100.0(Penetrate)
G01 X559.615642 Y234.708874 Z-0.125000 F400.000000
G00 Z5.000000

(End cutting path id: path70)


(Start cutting path id: path70)
(Change tool to Default tool)

G00 Z5.000000
G00 X559.643989 Y1207.530453

G01 Z-0.125000 F100.0(Penetrate)
G01 X559.615642 Y234.708874 Z-0.125000 F400.000000
G00 Z5.000000

(End cutting path id: path70)


(Start cutting path id: path72)
(Change tool to Default tool)

G00 Z5.000000
G00 X559.615642 Y234.708874

G01 Z-0.125000 F100.0(Penetrate)
G02 X425.508939 Y234.676878 Z-0.125000 I-256.485092 J790617.526137 F400.000000
G02 X291.401802 Y234.708874 Z-0.125000 I-26.242222 J170899.666848
G00 Z5.000000

(End cutting path id: path72)


(Start cutting path id: path72)
(Change tool to Default tool)

G00 Z5.000000
G00 X559.615642 Y234.708874

G01 Z-0.125000 F100.0(Penetrate)
G02 X425.508939 Y234.676878 Z-0.125000 I-256.485092 J790617.526137 F400.000000
G02 X291.401802 Y234.708874 Z-0.125000 I-26.242222 J170899.666848
G00 Z5.000000

(End cutting path id: path72)


(Start cutting path id: path74)
(Change tool to Default tool)

G00 Z5.000000
G00 X291.401802 Y234.708874

G01 Z-0.125000 F100.0(Penetrate)
G01 X291.401802 Y1207.530453 Z-0.125000 F400.000000
G00 Z5.000000

(End cutting path id: path74)


(Start cutting path id: path74)
(Change tool to Default tool)

G00 Z5.000000
G00 X291.401802 Y234.708874

G01 Z-0.125000 F100.0(Penetrate)
G01 X291.401802 Y1207.530453 Z-0.125000 F400.000000
G00 Z5.000000

(End cutting path id: path74)


(Start cutting path id: path60)
(Change tool to Default tool)

G00 Z5.000000
G00 X803.820317 Y1207.530453

G01 Z-0.125000 F100.0(Penetrate)
G02 X937.941264 Y1207.562559 Z-0.125000 R863345.420261 F400.000000
G02 X1072.063071 Y1207.530453 Z-0.125000 I27.358144 J-167201.522854
G00 Z5.000000

(End cutting path id: path60)


(Start cutting path id: path60)
(Change tool to Default tool)

G00 Z5.000000
G00 X803.820317 Y1207.530453

G01 Z-0.125000 F100.0(Penetrate)
G02 X937.941264 Y1207.562559 Z-0.125000 R863345.420261 F400.000000
G02 X1072.063071 Y1207.530453 Z-0.125000 I27.358144 J-167201.522854
G00 Z5.000000

(End cutting path id: path60)


(Start cutting path id: path62)
(Change tool to Default tool)

G00 Z5.000000
G00 X1072.063071 Y1207.530453

G01 Z-0.125000 F100.0(Penetrate)
G01 X1072.063071 Y234.708874 Z-0.125000 F400.000000
G00 Z5.000000

(End cutting path id: path62)


(Start cutting path id: path62)
(Change tool to Default tool)

G00 Z5.000000
G00 X1072.063071 Y1207.530453

G01 Z-0.125000 F100.0(Penetrate)
G01 X1072.063071 Y234.708874 Z-0.125000 F400.000000
G00 Z5.000000

(End cutting path id: path62)


(Start cutting path id: path64)
(Change tool to Default tool)

G00 Z5.000000
G00 X1072.063071 Y234.708874

G01 Z-0.125000 F100.0(Penetrate)
G02 X937.955296 Y234.676878 Z-0.125000 I-107.576400 J170901.478431 F400.000000
G02 X803.848380 Y234.708874 Z-0.125000 I116.193257 J790620.194815
G00 Z5.000000

(End cutting path id: path64)


(Start cutting path id: path64)
(Change tool to Default tool)

G00 Z5.000000
G00 X1072.063071 Y234.708874

G01 Z-0.125000 F100.0(Penetrate)
G02 X937.955296 Y234.676878 Z-0.125000 I-107.576400 J170901.478431 F400.000000
G02 X803.848380 Y234.708874 Z-0.125000 I116.193257 J790620.194815
G00 Z5.000000

(End cutting path id: path64)


(Start cutting path id: path66)
(Change tool to Default tool)

G00 Z5.000000
G00 X803.848380 Y234.708874

G01 Z-0.125000 F100.0(Penetrate)
G01 X803.820034 Y1207.530453 Z-0.125000 F400.000000
G00 Z5.000000

(End cutting path id: path66)


(Start cutting path id: path66)
(Change tool to Default tool)

G00 Z5.000000
G00 X803.848380 Y234.708874

G01 Z-0.125000 F100.0(Penetrate)
G01 X803.820034 Y1207.530453 Z-0.125000 F400.000000
G00 Z5.000000

(End cutting path id: path66)


(Start cutting path id: path124)
(Change tool to Default tool)

G00 Z5.000000
G00 X869.158605 Y1297.389272

G01 Z-0.125000 F100.0(Penetrate)
G02 X826.204496 Y1334.835770 Z-0.125000 I78.288850 J133.162669 F400.000000
G02 X801.410589 Y1386.311805 Z-0.125000 I103.019155 J81.329251
G00 Z5.000000

(End cutting path id: path124)


(Start cutting path id: path124)
(Change tool to Default tool)

G00 Z5.000000
G00 X869.158605 Y1297.389272

G01 Z-0.125000 F100.0(Penetrate)
G02 X826.204496 Y1334.835770 Z-0.125000 I78.288850 J133.162669 F400.000000
G02 X801.410589 Y1386.311805 Z-0.125000 I103.019155 J81.329251
G00 Z5.000000

(End cutting path id: path124)


(Start cutting path id: path126)
(Change tool to Default tool)

G00 Z5.000000
G00 X801.410589 Y1386.311805

G01 Z-0.125000 F100.0(Penetrate)
G02 X798.101455 Y1441.808542 Z-0.125000 I164.742719 J37.670229 F400.000000
G02 X815.697199 Y1494.708353 Z-0.125000 I129.670004 J-13.755060
G00 Z5.000000

(End cutting path id: path126)


(Start cutting path id: path126)
(Change tool to Default tool)

G00 Z5.000000
G00 X801.410589 Y1386.311805

G01 Z-0.125000 F100.0(Penetrate)
G02 X798.101455 Y1441.808542 Z-0.125000 I164.742719 J37.670229 F400.000000
G02 X815.697199 Y1494.708353 Z-0.125000 I129.670004 J-13.755060
G00 Z5.000000

(End cutting path id: path126)


(Start cutting path id: path128)
(Change tool to Default tool)

G00 Z5.000000
G00 X815.697199 Y1494.708353

G01 Z-0.125000 F100.0(Penetrate)
G02 X857.935854 Y1540.736640 Z-0.125000 I130.679172 J-77.525346 F400.000000
G02 X916.072267 Y1564.015424 Z-0.125000 I76.550623 J-106.943152
G00 Z5.000000

(End cutting path id: path128)


(Start cutting path id: path128)
(Change tool to Default tool)

G00 Z5.000000
G00 X815.697199 Y1494.708353

G01 Z-0.125000 F100.0(Penetrate)
G02 X857.935854 Y1540.736640 Z-0.125000 I130.679172 J-77.525346 F400.000000
G02 X916.072267 Y1564.015424 Z-0.125000 I76.550623 J-106.943152
G00 Z5.000000

(End cutting path id: path128)


(Start cutting path id: path114)
(Change tool to Default tool)

G00 Z5.000000
G00 X916.072267 Y1564.015424

G01 Z-0.125000 F100.0(Penetrate)
G02 X962.895010 Y1563.751758 Z-0.125000 I22.471241 J-167.083581 F400.000000
G02 X1007.263083 Y1548.425444 Z-0.125000 I-18.172607 J-124.491409
G00 Z5.000000

(End cutting path id: path114)


(Start cutting path id: path114)
(Change tool to Default tool)

G00 Z5.000000
G00 X916.072267 Y1564.015424

G01 Z-0.125000 F100.0(Penetrate)
G02 X962.895010 Y1563.751758 Z-0.125000 I22.471241 J-167.083581 F400.000000
G02 X1007.263083 Y1548.425444 Z-0.125000 I-18.172607 J-124.491409
G00 Z5.000000

(End cutting path id: path114)


(Start cutting path id: path116)
(Change tool to Default tool)

G00 Z5.000000
G00 X1007.263083 Y1548.425444

G01 Z-0.125000 F100.0(Penetrate)
G02 X1052.304846 Y1508.904354 Z-0.125000 I-75.444440 J-131.410572 F400.000000
G02 X1076.967009 Y1454.115951 Z-0.125000 I-105.416466 J-80.396462
G00 Z5.000000

(End cutting path id: path116)


(Start cutting path id: path116)
(Change tool to Default tool)

G00 Z5.000000
G00 X1007.263083 Y1548.425444

G01 Z-0.125000 F100.0(Penetrate)
G02 X1052.304846 Y1508.904354 Z-0.125000 I-75.444440 J-131.410572 F400.000000
G02 X1076.967009 Y1454.115951 Z-0.125000 I-105.416466 J-80.396462
G00 Z5.000000

(End cutting path id: path116)


(Start cutting path id: path118)
(Change tool to Default tool)

G00 Z5.000000
G00 X1076.967009 Y1454.115951

G01 Z-0.125000 F100.0(Penetrate)
G02 X1078.545638 Y1400.242548 Z-0.125000 I-160.358081 J-31.658734 F400.000000
G02 X1060.752835 Y1349.234930 Z-0.125000 I-135.165395 J18.542148
G00 Z5.000000

(End cutting path id: path118)


(Start cutting path id: path118)
(Change tool to Default tool)

G00 Z5.000000
G00 X1076.967009 Y1454.115951

G01 Z-0.125000 F100.0(Penetrate)
G02 X1078.545638 Y1400.242548 Z-0.125000 I-160.358081 J-31.658734 F400.000000
G02 X1060.752835 Y1349.234930 Z-0.125000 I-135.165395 J18.542148
G00 Z5.000000

(End cutting path id: path118)


(Start cutting path id: path120)
(Change tool to Default tool)

G00 Z5.000000
G00 X1060.752835 Y1349.234930

G01 Z-0.125000 F100.0(Penetrate)
G02 X1022.805026 Y1306.765921 Z-0.125000 I-128.733845 J76.840524 F400.000000
G02 X971.007405 Y1282.846973 Z-0.125000 I-79.924205 J105.035092
G00 Z5.000000

(End cutting path id: path120)


(Start cutting path id: path120)
(Change tool to Default tool)

G00 Z5.000000
G00 X1060.752835 Y1349.234930

G01 Z-0.125000 F100.0(Penetrate)
G02 X1022.805026 Y1306.765921 Z-0.125000 I-128.733845 J76.840524 F400.000000
G02 X971.007405 Y1282.846973 Z-0.125000 I-79.924205 J105.035092
G00 Z5.000000

(End cutting path id: path120)


(Start cutting path id: path122)
(Change tool to Default tool)

G00 Z5.000000
G00 X971.007405 Y1282.846973

G01 Z-0.125000 F100.0(Penetrate)
G02 X918.814135 Y1280.706324 Z-0.125000 I-32.752998 J161.225014 F400.000000
G02 X869.158605 Y1297.389272 Z-0.125000 I15.153640 J127.343097
G00 Z5.000000

(End cutting path id: path122)


(Start cutting path id: path122)
(Change tool to Default tool)

G00 Z5.000000
G00 X971.007405 Y1282.846973

G01 Z-0.125000 F100.0(Penetrate)
G02 X918.814135 Y1280.706324 Z-0.125000 I-32.752998 J161.225014 F400.000000
G02 X869.158605 Y1297.389272 Z-0.125000 I15.153640 J127.343097
G00 Z5.000000

(End cutting path id: path122)


(Start cutting path id: path110)
(Change tool to Default tool)

G00 Z5.000000
G00 X1222.582726 Y1179.666173

G01 Z-0.125000 F100.0(Penetrate)
G03 X1284.996340 Y1182.900874 Z-0.125000 I-263.311608 J5684.354702 F400.000000
G02 X1347.420215 Y1186.327307 Z-0.125000 I734.145358 J-12804.559339
G00 Z5.000000

(End cutting path id: path110)


(Start cutting path id: path110)
(Change tool to Default tool)

G00 Z5.000000
G00 X1222.582726 Y1179.666173

G01 Z-0.125000 F100.0(Penetrate)
G03 X1284.996340 Y1182.900874 Z-0.125000 I-263.311608 J5684.354702 F400.000000
G02 X1347.420215 Y1186.327307 Z-0.125000 I734.145358 J-12804.559339
G00 Z5.000000

(End cutting path id: path110)


(Start cutting path id: path112)
(Change tool to Default tool)

G00 Z5.000000
G00 X1347.420215 Y1186.327307

G01 Z-0.125000 F100.0(Penetrate)
G02 X1392.283881 Y1348.175892 Z-0.125000 I260133.985702 J-72020.968144 F400.000000
G02 X1437.278181 Y1510.015436 Z-0.125000 I178775.820055 J-49615.622873
G00 Z5.000000

(End cutting path id: path112)


(Start cutting path id: path112)
(Change tool to Default tool)

G00 Z5.000000
G00 X1347.420215 Y1186.327307

G01 Z-0.125000 F100.0(Penetrate)
G02 X1392.283881 Y1348.175892 Z-0.125000 I260133.985702 J-72020.968144 F400.000000
G02 X1437.278181 Y1510.015436 Z-0.125000 I178775.820055 J-49615.622873
G00 Z5.000000

(End cutting path id: path112)


(Start cutting path id: path76)
(Change tool to Default tool)

G00 Z5.000000
G00 X1437.278181 Y1510.015436

G01 Z-0.125000 F100.0(Penetrate)
G03 X1521.551206 Y1510.050860 Z-0.125000 I37.654919 J10661.723415 F400.000000
G02 X1605.826466 Y1509.703625 Z-0.125000 I21.694943 J-4961.691218
G00 Z5.000000

(End cutting path id: path76)


(Start cutting path id: path76)
(Change tool to Default tool)

G00 Z5.000000
G00 X1437.278181 Y1510.015436

G01 Z-0.125000 F100.0(Penetrate)
G03 X1521.551206 Y1510.050860 Z-0.125000 I37.654919 J10661.723415 F400.000000
G02 X1605.826466 Y1509.703625 Z-0.125000 I21.694943 J-4961.691218
G00 Z5.000000

(End cutting path id: path76)


(Start cutting path id: path78)
(Change tool to Default tool)

G00 Z5.000000
G00 X1605.826466 Y1509.703625

G01 Z-0.125000 F100.0(Penetrate)
G03 X1605.613706 Y1349.057320 Z-0.125000 I30356.855683 J-120.527796 F400.000000
G02 X1605.656103 Y1188.368252 Z-0.125000 I-75960.943726 J-100.386762
G00 Z5.000000

(End cutting path id: path78)


(Start cutting path id: path78)
(Change tool to Default tool)

G00 Z5.000000
G00 X1605.826466 Y1509.703625

G01 Z-0.125000 F100.0(Penetrate)
G03 X1605.613706 Y1349.057320 Z-0.125000 I30356.855683 J-120.527796 F400.000000
G02 X1605.656103 Y1188.368252 Z-0.125000 I-75960.943726 J-100.386762
G00 Z5.000000

(End cutting path id: path78)


(Start cutting path id: path80)
(Change tool to Default tool)

G00 Z5.000000
G00 X1605.656103 Y1188.368252

G01 Z-0.125000 F100.0(Penetrate)
G03 X1733.187382 Y1188.304541 Z-0.125000 I91.194033 J54766.966237 F400.000000
G02 X1860.717755 Y1188.282929 Z-0.125000 I50.678168 J-76438.429566
G00 Z5.000000

(End cutting path id: path80)


(Start cutting path id: path80)
(Change tool to Default tool)

G00 Z5.000000
G00 X1605.656103 Y1188.368252

G01 Z-0.125000 F100.0(Penetrate)
G03 X1733.187382 Y1188.304541 Z-0.125000 I91.194033 J54766.966237 F400.000000
G02 X1860.717755 Y1188.282929 Z-0.125000 I50.678168 J-76438.429566
G00 Z5.000000

(End cutting path id: path80)


(Start cutting path id: path82)
(Change tool to Default tool)

G00 Z5.000000
G00 X1860.717755 Y1188.282929

G01 Z-0.125000 F100.0(Penetrate)
G02 X1860.763930 Y1113.689641 Z-0.125000 I-33996.760614 J-58.339936 F400.000000
G03 X1860.746101 Y1039.096408 Z-0.125000 I156040.518795 J-74.626947
G00 Z5.000000

(End cutting path id: path82)


(Start cutting path id: path82)
(Change tool to Default tool)

G00 Z5.000000
G00 X1860.717755 Y1188.282929

G01 Z-0.125000 F100.0(Penetrate)
G02 X1860.763930 Y1113.689641 Z-0.125000 I-33996.760614 J-58.339936 F400.000000
G03 X1860.746101 Y1039.096408 Z-0.125000 I156040.518795 J-74.626947
G00 Z5.000000

(End cutting path id: path82)


(Start cutting path id: path84)
(Change tool to Default tool)

G00 Z5.000000
G00 X1860.746101 Y1039.096408

G01 Z-0.125000 F100.0(Penetrate)
G02 X1733.215580 Y1039.088970 Z-0.125000 I-69.925686 J104209.947914 F400.000000
G03 X1605.685017 Y1039.039432 Z-0.125000 I-37.436850 J-67691.242052
G00 Z5.000000

(End cutting path id: path84)


(Start cutting path id: path84)
(Change tool to Default tool)

G00 Z5.000000
G00 X1860.746101 Y1039.096408

G01 Z-0.125000 F100.0(Penetrate)
G02 X1733.215580 Y1039.088970 Z-0.125000 I-69.925686 J104209.947914 F400.000000
G03 X1605.685017 Y1039.039432 Z-0.125000 I-37.436850 J-67691.242052
G00 Z5.000000

(End cutting path id: path84)


(Start cutting path id: path86)
(Change tool to Default tool)

G00 Z5.000000
G00 X1605.685017 Y1039.039432

G01 Z-0.125000 F100.0(Penetrate)
G03 X1605.649408 Y797.371045 Z-0.125000 R316146.072955 F400.000000
G02 X1605.656103 Y555.704373 Z-0.125000 R583286.296968
G00 Z5.000000

(End cutting path id: path86)


(Start cutting path id: path86)
(Change tool to Default tool)

G00 Z5.000000
G00 X1605.685017 Y1039.039432

G01 Z-0.125000 F100.0(Penetrate)
G03 X1605.649408 Y797.371045 Z-0.125000 R316146.072955 F400.000000
G02 X1605.656103 Y555.704373 Z-0.125000 R583286.296968
G00 Z5.000000

(End cutting path id: path86)


(Start cutting path id: path88)
(Change tool to Default tool)

G00 Z5.000000
G00 X1605.656103 Y555.704373

G01 Z-0.125000 F100.0(Penetrate)
G03 X1608.467636 Y493.859135 Z-0.125000 I599.559741 J-3.730073 F400.000000
G03 X1627.511785 Y434.636112 Z-0.125000 I145.746535 J14.193732
G00 Z5.000000

(End cutting path id: path88)


(Start cutting path id: path88)
(Change tool to Default tool)

G00 Z5.000000
G00 X1605.656103 Y555.704373

G01 Z-0.125000 F100.0(Penetrate)
G03 X1608.467636 Y493.859135 Z-0.125000 I599.559741 J-3.730073 F400.000000
G03 X1627.511785 Y434.636112 Z-0.125000 I145.746535 J14.193732
G00 Z5.000000

(End cutting path id: path88)


(Start cutting path id: path90)
(Change tool to Default tool)

G00 Z5.000000
G00 X1627.511785 Y434.636112

G01 Z-0.125000 F100.0(Penetrate)
G03 X1658.864040 Y406.416825 Z-0.125000 I57.776457 J32.664757 F400.000000
G03 X1699.114352 Y395.518293 Z-0.125000 I57.430047 J132.324662
G00 Z5.000000

(End cutting path id: path90)


(Start cutting path id: path90)
(Change tool to Default tool)

G00 Z5.000000
G00 X1627.511785 Y434.636112

G01 Z-0.125000 F100.0(Penetrate)
G03 X1658.864040 Y406.416825 Z-0.125000 I57.776457 J32.664757 F400.000000
G03 X1699.114352 Y395.518293 Z-0.125000 I57.430047 J132.324662
G00 Z5.000000

(End cutting path id: path90)


(Start cutting path id: path92)
(Change tool to Default tool)

G00 Z5.000000
G00 X1699.114352 Y395.518293

G01 Z-0.125000 F100.0(Penetrate)
G03 X1777.372745 Y396.883097 Z-0.125000 I33.361312 J331.415033 F400.000000
G03 X1853.801220 Y413.432966 Z-0.125000 I-67.595350 J496.911164
G00 Z5.000000

(End cutting path id: path92)


(Start cutting path id: path92)
(Change tool to Default tool)

G00 Z5.000000
G00 X1699.114352 Y395.518293

G01 Z-0.125000 F100.0(Penetrate)
G03 X1777.372745 Y396.883097 Z-0.125000 I33.361312 J331.415033 F400.000000
G03 X1853.801220 Y413.432966 Z-0.125000 I-67.595350 J496.911164
G00 Z5.000000

(End cutting path id: path92)


(Start cutting path id: path94)
(Change tool to Default tool)

G00 Z5.000000
G00 X1853.801220 Y413.432966

G01 Z-0.125000 F100.0(Penetrate)
G02 X1853.872219 Y337.167052 Z-0.125000 I-20483.079443 J-57.200912 F400.000000
G03 X1853.858196 Y260.900430 Z-0.125000 I51058.392032 J-47.526012
G00 Z5.000000

(End cutting path id: path94)


(Start cutting path id: path94)
(Change tool to Default tool)

G00 Z5.000000
G00 X1853.801220 Y413.432966

G01 Z-0.125000 F100.0(Penetrate)
G02 X1853.872219 Y337.167052 Z-0.125000 I-20483.079443 J-57.200912 F400.000000
G03 X1853.858196 Y260.900430 Z-0.125000 I51058.392032 J-47.526012
G00 Z5.000000

(End cutting path id: path94)


(Start cutting path id: path96)
(Change tool to Default tool)

G00 Z5.000000
G00 X1853.858196 Y260.900430

G01 Z-0.125000 F100.0(Penetrate)
G02 X1767.295716 Y237.402271 Z-0.125000 I-141.084327 J348.537774 F400.000000
G02 X1678.251647 Y227.792910 Z-0.125000 I-170.856076 J1165.855584
G00 Z5.000000

(End cutting path id: path96)


(Start cutting path id: path96)
(Change tool to Default tool)

G00 Z5.000000
G00 X1853.858196 Y260.900430

G01 Z-0.125000 F100.0(Penetrate)
G02 X1767.295716 Y237.402271 Z-0.125000 I-141.084327 J348.537774 F400.000000
G02 X1678.251647 Y227.792910 Z-0.125000 I-170.856076 J1165.855584
G00 Z5.000000

(End cutting path id: path96)


(Start cutting path id: path98)
(Change tool to Default tool)

G00 Z5.000000
G00 X1678.251647 Y227.792910

G01 Z-0.125000 F100.0(Penetrate)
G02 X1591.144970 Y227.595804 Z-0.125000 I-45.027382 J651.321257 F400.000000
G02 X1505.990547 Y247.379457 Z-0.125000 I17.278747 J267.528750
G00 Z5.000000

(End cutting path id: path98)


(Start cutting path id: path98)
(Change tool to Default tool)

G00 Z5.000000
G00 X1678.251647 Y227.792910

G01 Z-0.125000 F100.0(Penetrate)
G02 X1591.144970 Y227.595804 Z-0.125000 I-45.027382 J651.321257 F400.000000
G02 X1505.990547 Y247.379457 Z-0.125000 I17.278747 J267.528750
G00 Z5.000000

(End cutting path id: path98)


(Start cutting path id: path100)
(Change tool to Default tool)

G00 Z5.000000
G00 X1505.990547 Y247.379457

G01 Z-0.125000 F100.0(Penetrate)
G02 X1428.764692 Y296.985624 Z-0.125000 I91.699740 J227.671150 F400.000000
G02 X1374.661157 Y371.083368 Z-0.125000 I175.345276 J184.831988
G00 Z5.000000

(End cutting path id: path100)


(Start cutting path id: path100)
(Change tool to Default tool)

G00 Z5.000000
G00 X1505.990547 Y247.379457

G01 Z-0.125000 F100.0(Penetrate)
G02 X1428.764692 Y296.985624 Z-0.125000 I91.699740 J227.671150 F400.000000
G02 X1374.661157 Y371.083368 Z-0.125000 I175.345276 J184.831988
G00 Z5.000000

(End cutting path id: path100)


(Start cutting path id: path102)
(Change tool to Default tool)

G00 Z5.000000
G00 X1374.661157 Y371.083368

G01 Z-0.125000 F100.0(Penetrate)
G02 X1346.517050 Y455.667029 Z-0.125000 I286.274313 J142.228155 F400.000000
G02 X1337.356940 Y544.195432 Z-0.125000 I560.164430 J102.698801
G00 Z5.000000

(End cutting path id: path102)


(Start cutting path id: path102)
(Change tool to Default tool)

G00 Z5.000000
G00 X1374.661157 Y371.083368

G01 Z-0.125000 F100.0(Penetrate)
G02 X1346.517050 Y455.667029 Z-0.125000 I286.274313 J142.228155 F400.000000
G02 X1337.356940 Y544.195432 Z-0.125000 I560.164430 J102.698801
G00 Z5.000000

(End cutting path id: path102)


(Start cutting path id: path104)
(Change tool to Default tool)

G00 Z5.000000
G00 X1337.356940 Y544.195432

G01 Z-0.125000 F100.0(Penetrate)
G01 X1337.356940 Y1040.286389 Z-0.125000 F400.000000
G00 Z5.000000

(End cutting path id: path104)


(Start cutting path id: path104)
(Change tool to Default tool)

G00 Z5.000000
G00 X1337.356940 Y544.195432

G01 Z-0.125000 F100.0(Penetrate)
G01 X1337.356940 Y1040.286389 Z-0.125000 F400.000000
G00 Z5.000000

(End cutting path id: path104)


(Start cutting path id: path106)
(Change tool to Default tool)

G00 Z5.000000
G00 X1337.356940 Y1040.286389

G01 Z-0.125000 F100.0(Penetrate)
G01 X1222.582726 Y1040.343365 Z-0.125000 F400.000000
G00 Z5.000000

(End cutting path id: path106)


(Start cutting path id: path106)
(Change tool to Default tool)

G00 Z5.000000
G00 X1337.356940 Y1040.286389

G01 Z-0.125000 F100.0(Penetrate)
G01 X1222.582726 Y1040.343365 Z-0.125000 F400.000000
G00 Z5.000000

(End cutting path id: path106)


(Start cutting path id: path108)
(Change tool to Default tool)

G00 Z5.000000
G00 X1222.582726 Y1040.343365

G01 Z-0.125000 F100.0(Penetrate)
G01 X1222.582726 Y1179.666173 Z-0.125000 F400.000000
G00 Z5.000000

(End cutting path id: path108)


(Start cutting path id: path108)
(Change tool to Default tool)

G00 Z5.000000
G00 X1222.582726 Y1040.343365

G01 Z-0.125000 F100.0(Penetrate)
G01 X1222.582726 Y1179.666173 Z-0.125000 F400.000000
G00 Z5.000000

(End cutting path id: path108)


(Footer)
M5
G00 X0.0000 Y0.0000
M2
(Using default footer. To add your own footer create file "footer" in the output dir.)
(end)
%