%
(Header)
(Generated by gcodetools from Inkscape.)
(Using default header. To add your own header create file "header" in the output dir.)
M3
(Header end.)
G21 (All units in mm)

(Start cutting path id: path1068)
(Change tool to Default tool)

G00 Z5.000000
G00 X131.130330 Y225.387145

G01 Z-0.125000 F100.0(Penetrate)
G01 X131.130330 Y218.381000 Z-0.125000 F400.000000
G00 Z5.000000

(End cutting path id: path1068)


(Start cutting path id: path1068)
(Change tool to Default tool)

G00 Z5.000000
G00 X131.130330 Y225.387145

G01 Z-0.125000 F100.0(Penetrate)
G01 X131.130330 Y218.381000 Z-0.125000 F400.000000
G00 Z5.000000

(End cutting path id: path1068)


(Start cutting path id: path1150)
(Change tool to Default tool)

G00 Z5.000000
G00 X128.473930 Y222.042822

G01 Z-0.125000 F100.0(Penetrate)
G01 X127.807180 Y222.720153 Z-0.125000 F400.000000
G01 X127.140440 Y223.048235 Z-0.125000
G01 X126.135020 Y223.048235 Z-0.125000
G01 X125.478860 Y222.720153 Z-0.125000
G01 X124.801530 Y222.042822 Z-0.125000
G01 X124.473440 Y221.047992 Z-0.125000
G01 X124.473440 Y220.381244 Z-0.125000
G01 X124.801530 Y219.381122 Z-0.125000
G01 X125.478860 Y218.714374 Z-0.125000
G01 X126.135020 Y218.381000 Z-0.125000
G01 X127.140440 Y218.381000 Z-0.125000
G01 X127.807180 Y218.714374 Z-0.125000
G01 X128.473930 Y219.381122 Z-0.125000
G00 Z5.000000

(End cutting path id: path1150)


(Start cutting path id: path1150)
(Change tool to Default tool)

G00 Z5.000000
G00 X128.473930 Y222.042822

G01 Z-0.125000 F100.0(Penetrate)
G01 X127.807180 Y222.720153 Z-0.125000 F400.000000
G01 X127.140440 Y223.048235 Z-0.125000
G01 X126.135020 Y223.048235 Z-0.125000
G01 X125.478860 Y222.720153 Z-0.125000
G01 X124.801530 Y222.042822 Z-0.125000
G01 X124.473440 Y221.047992 Z-0.125000
G01 X124.473440 Y220.381244 Z-0.125000
G01 X124.801530 Y219.381122 Z-0.125000
G01 X125.478860 Y218.714374 Z-0.125000
G01 X126.135020 Y218.381000 Z-0.125000
G01 X127.140440 Y218.381000 Z-0.125000
G01 X127.807180 Y218.714374 Z-0.125000
G01 X128.473930 Y219.381122 Z-0.125000
G00 Z5.000000

(End cutting path id: path1150)


(Start cutting path id: path1066)
(Change tool to Default tool)

G00 Z5.000000
G00 X128.473930 Y223.048235

G01 Z-0.125000 F100.0(Penetrate)
G01 X128.473930 Y218.381000 Z-0.125000 F400.000000
G00 Z5.000000

(End cutting path id: path1066)


(Start cutting path id: path1066)
(Change tool to Default tool)

G00 Z5.000000
G00 X128.473930 Y223.048235

G01 Z-0.125000 F100.0(Penetrate)
G01 X128.473930 Y218.381000 Z-0.125000 F400.000000
G00 Z5.000000

(End cutting path id: path1066)


(Start cutting path id: path1146)
(Change tool to Default tool)

G00 Z5.000000
G00 X118.472730 Y221.714740

G01 Z-0.125000 F100.0(Penetrate)
G01 X119.478140 Y222.720153 Z-0.125000 F400.000000
G01 X120.134310 Y223.048235 Z-0.125000
G01 X121.139720 Y223.048235 Z-0.125000
G01 X121.806470 Y222.720153 Z-0.125000
G01 X122.145140 Y221.714740 Z-0.125000
G01 X122.145140 Y218.381000 Z-0.125000
G00 Z5.000000

(End cutting path id: path1146)


(Start cutting path id: path1146)
(Change tool to Default tool)

G00 Z5.000000
G00 X118.472730 Y221.714740

G01 Z-0.125000 F100.0(Penetrate)
G01 X119.478140 Y222.720153 Z-0.125000 F400.000000
G01 X120.134310 Y223.048235 Z-0.125000
G01 X121.139720 Y223.048235 Z-0.125000
G01 X121.806470 Y222.720153 Z-0.125000
G01 X122.145140 Y221.714740 Z-0.125000
G01 X122.145140 Y218.381000 Z-0.125000
G00 Z5.000000

(End cutting path id: path1146)


(Start cutting path id: path1144)
(Change tool to Default tool)

G00 Z5.000000
G00 X114.800330 Y221.714740

G01 Z-0.125000 F100.0(Penetrate)
G01 X115.805740 Y222.720153 Z-0.125000 F400.000000
G01 X116.472490 Y223.048235 Z-0.125000
G01 X117.467320 Y223.048235 Z-0.125000
G01 X118.144650 Y222.720153 Z-0.125000
G01 X118.472730 Y221.714740 Z-0.125000
G01 X118.472730 Y218.381000 Z-0.125000
G00 Z5.000000

(End cutting path id: path1144)


(Start cutting path id: path1144)
(Change tool to Default tool)

G00 Z5.000000
G00 X114.800330 Y221.714740

G01 Z-0.125000 F100.0(Penetrate)
G01 X115.805740 Y222.720153 Z-0.125000 F400.000000
G01 X116.472490 Y223.048235 Z-0.125000
G01 X117.467320 Y223.048235 Z-0.125000
G01 X118.144650 Y222.720153 Z-0.125000
G01 X118.472730 Y221.714740 Z-0.125000
G01 X118.472730 Y218.381000 Z-0.125000
G00 Z5.000000

(End cutting path id: path1144)


(Start cutting path id: path1064)
(Change tool to Default tool)

G00 Z5.000000
G00 X114.800330 Y223.048235

G01 Z-0.125000 F100.0(Penetrate)
G01 X114.800330 Y218.381000 Z-0.125000 F400.000000
G00 Z5.000000

(End cutting path id: path1064)


(Start cutting path id: path1064)
(Change tool to Default tool)

G00 Z5.000000
G00 X114.800330 Y223.048235

G01 Z-0.125000 F100.0(Penetrate)
G01 X114.800330 Y218.381000 Z-0.125000 F400.000000
G00 Z5.000000

(End cutting path id: path1064)


(Start cutting path id: path1140)
(Change tool to Default tool)

G00 Z5.000000
G00 X112.143830 Y222.042822

G01 Z-0.125000 F100.0(Penetrate)
G01 X111.477080 Y222.720153 Z-0.125000 F400.000000
G01 X110.810340 Y223.048235 Z-0.125000
G01 X109.804920 Y223.048235 Z-0.125000
G01 X109.148760 Y222.720153 Z-0.125000
G01 X108.471430 Y222.042822 Z-0.125000
G01 X108.143340 Y221.047992 Z-0.125000
G01 X108.143340 Y220.381244 Z-0.125000
G01 X108.471430 Y219.381122 Z-0.125000
G01 X109.148760 Y218.714374 Z-0.125000
G01 X109.804920 Y218.381000 Z-0.125000
G01 X110.810340 Y218.381000 Z-0.125000
G01 X111.477080 Y218.714374 Z-0.125000
G01 X112.143830 Y219.381122 Z-0.125000
G00 Z5.000000

(End cutting path id: path1140)


(Start cutting path id: path1140)
(Change tool to Default tool)

G00 Z5.000000
G00 X112.143830 Y222.042822

G01 Z-0.125000 F100.0(Penetrate)
G01 X111.477080 Y222.720153 Z-0.125000 F400.000000
G01 X110.810340 Y223.048235 Z-0.125000
G01 X109.804920 Y223.048235 Z-0.125000
G01 X109.148760 Y222.720153 Z-0.125000
G01 X108.471430 Y222.042822 Z-0.125000
G01 X108.143340 Y221.047992 Z-0.125000
G01 X108.143340 Y220.381244 Z-0.125000
G01 X108.471430 Y219.381122 Z-0.125000
G01 X109.148760 Y218.714374 Z-0.125000
G01 X109.804920 Y218.381000 Z-0.125000
G01 X110.810340 Y218.381000 Z-0.125000
G01 X111.477080 Y218.714374 Z-0.125000
G01 X112.143830 Y219.381122 Z-0.125000
G00 Z5.000000

(End cutting path id: path1140)


(Start cutting path id: path1062)
(Change tool to Default tool)

G00 Z5.000000
G00 X112.143830 Y223.048235

G01 Z-0.125000 F100.0(Penetrate)
G01 X112.143830 Y218.381000 Z-0.125000 F400.000000
G00 Z5.000000

(End cutting path id: path1062)


(Start cutting path id: path1062)
(Change tool to Default tool)

G00 Z5.000000
G00 X112.143830 Y223.048235

G01 Z-0.125000 F100.0(Penetrate)
G01 X112.143830 Y218.381000 Z-0.125000 F400.000000
G00 Z5.000000

(End cutting path id: path1062)


(Start cutting path id: path1134)
(Change tool to Default tool)

G00 Z5.000000
G00 X106.143140 Y225.387145

G01 Z-0.125000 F100.0(Penetrate)
G01 X101.465330 Y220.709326 Z-0.125000 F400.000000
G00 Z5.000000

(End cutting path id: path1134)


(Start cutting path id: path1134)
(Change tool to Default tool)

G00 Z5.000000
G00 X106.143140 Y225.387145

G01 Z-0.125000 F100.0(Penetrate)
G01 X101.465330 Y220.709326 Z-0.125000 F400.000000
G00 Z5.000000

(End cutting path id: path1134)


(Start cutting path id: path1136)
(Change tool to Default tool)

G00 Z5.000000
G00 X103.137490 Y222.381487

G01 Z-0.125000 F100.0(Penetrate)
G01 X106.143140 Y218.381000 Z-0.125000 F400.000000
G00 Z5.000000

(End cutting path id: path1136)


(Start cutting path id: path1136)
(Change tool to Default tool)

G00 Z5.000000
G00 X103.137490 Y222.381487

G01 Z-0.125000 F100.0(Penetrate)
G01 X106.143140 Y218.381000 Z-0.125000 F400.000000
G00 Z5.000000

(End cutting path id: path1136)


(Start cutting path id: path1060)
(Change tool to Default tool)

G00 Z5.000000
G00 X101.465330 Y225.387145

G01 Z-0.125000 F100.0(Penetrate)
G01 X101.465330 Y218.381000 Z-0.125000 F400.000000
G00 Z5.000000

(End cutting path id: path1060)


(Start cutting path id: path1060)
(Change tool to Default tool)

G00 Z5.000000
G00 X101.465330 Y225.387145

G01 Z-0.125000 F100.0(Penetrate)
G01 X101.465330 Y218.381000 Z-0.125000 F400.000000
G00 Z5.000000

(End cutting path id: path1060)


(Start cutting path id: path1058)
(Change tool to Default tool)

G00 Z5.000000
G00 X94.797826 Y225.387145

G01 Z-0.125000 F100.0(Penetrate)
G01 X94.797826 Y218.381000 Z-0.125000 F400.000000
G00 Z5.000000

(End cutting path id: path1058)


(Start cutting path id: path1058)
(Change tool to Default tool)

G00 Z5.000000
G00 X94.797826 Y225.387145

G01 Z-0.125000 F100.0(Penetrate)
G01 X94.797826 Y218.381000 Z-0.125000 F400.000000
G00 Z5.000000

(End cutting path id: path1058)


(Start cutting path id: path1056)
(Change tool to Default tool)

G00 Z5.000000
G00 X88.469044 Y221.047992

G01 Z-0.125000 F100.0(Penetrate)
G01 X92.469531 Y221.047992 Z-0.125000 F400.000000
G01 X92.469531 Y221.714740 Z-0.125000
G01 X92.141449 Y222.381487 Z-0.125000
G01 X91.802783 Y222.720153 Z-0.125000
G01 X91.136035 Y223.048235 Z-0.125000
G01 X90.130622 Y223.048235 Z-0.125000
G01 X89.474457 Y222.720153 Z-0.125000
G01 X88.797126 Y222.042822 Z-0.125000
G01 X88.469044 Y221.047992 Z-0.125000
G01 X88.469044 Y220.381244 Z-0.125000
G01 X88.797126 Y219.381122 Z-0.125000
G01 X89.474457 Y218.714374 Z-0.125000
G01 X90.130622 Y218.381000 Z-0.125000
G01 X91.136035 Y218.381000 Z-0.125000
G01 X91.802783 Y218.714374 Z-0.125000
G01 X92.469531 Y219.381122 Z-0.125000
G00 Z5.000000

(End cutting path id: path1056)


(Start cutting path id: path1056)
(Change tool to Default tool)

G00 Z5.000000
G00 X88.469044 Y221.047992

G01 Z-0.125000 F100.0(Penetrate)
G01 X92.469531 Y221.047992 Z-0.125000 F400.000000
G01 X92.469531 Y221.714740 Z-0.125000
G01 X92.141449 Y222.381487 Z-0.125000
G01 X91.802783 Y222.720153 Z-0.125000
G01 X91.136035 Y223.048235 Z-0.125000
G01 X90.130622 Y223.048235 Z-0.125000
G01 X89.474457 Y222.720153 Z-0.125000
G01 X88.797126 Y222.042822 Z-0.125000
G01 X88.469044 Y221.047992 Z-0.125000
G01 X88.469044 Y220.381244 Z-0.125000
G01 X88.797126 Y219.381122 Z-0.125000
G01 X89.474457 Y218.714374 Z-0.125000
G01 X90.130622 Y218.381000 Z-0.125000
G01 X91.136035 Y218.381000 Z-0.125000
G01 X91.802783 Y218.714374 Z-0.125000
G01 X92.469531 Y219.381122 Z-0.125000
G00 Z5.000000

(End cutting path id: path1056)


(Start cutting path id: path1054)
(Change tool to Default tool)

G00 Z5.000000
G00 X82.468344 Y221.047992

G01 Z-0.125000 F100.0(Penetrate)
G01 X86.468831 Y221.047992 Z-0.125000 F400.000000
G01 X86.468831 Y221.714740 Z-0.125000
G01 X86.140749 Y222.381487 Z-0.125000
G01 X85.802083 Y222.720153 Z-0.125000
G01 X85.135335 Y223.048235 Z-0.125000
G01 X84.129922 Y223.048235 Z-0.125000
G01 X83.473757 Y222.720153 Z-0.125000
G01 X82.796426 Y222.042822 Z-0.125000
G01 X82.468344 Y221.047992 Z-0.125000
G01 X82.468344 Y220.381244 Z-0.125000
G01 X82.796426 Y219.381122 Z-0.125000
G01 X83.473757 Y218.714374 Z-0.125000
G01 X84.129922 Y218.381000 Z-0.125000
G01 X85.135335 Y218.381000 Z-0.125000
G01 X85.802083 Y218.714374 Z-0.125000
G01 X86.468831 Y219.381122 Z-0.125000
G00 Z5.000000

(End cutting path id: path1054)


(Start cutting path id: path1054)
(Change tool to Default tool)

G00 Z5.000000
G00 X82.468344 Y221.047992

G01 Z-0.125000 F100.0(Penetrate)
G01 X86.468831 Y221.047992 Z-0.125000 F400.000000
G01 X86.468831 Y221.714740 Z-0.125000
G01 X86.140749 Y222.381487 Z-0.125000
G01 X85.802083 Y222.720153 Z-0.125000
G01 X85.135335 Y223.048235 Z-0.125000
G01 X84.129922 Y223.048235 Z-0.125000
G01 X83.473757 Y222.720153 Z-0.125000
G01 X82.796426 Y222.042822 Z-0.125000
G01 X82.468344 Y221.047992 Z-0.125000
G01 X82.468344 Y220.381244 Z-0.125000
G01 X82.796426 Y219.381122 Z-0.125000
G01 X83.473757 Y218.714374 Z-0.125000
G01 X84.129922 Y218.381000 Z-0.125000
G01 X85.135335 Y218.381000 Z-0.125000
G01 X85.802083 Y218.714374 Z-0.125000
G01 X86.468831 Y219.381122 Z-0.125000
G00 Z5.000000

(End cutting path id: path1054)


(Start cutting path id: path1124)
(Change tool to Default tool)

G00 Z5.000000
G00 X76.467526 Y222.042822

G01 Z-0.125000 F100.0(Penetrate)
G01 X77.144857 Y222.720153 Z-0.125000 F400.000000
G01 X77.801022 Y223.048235 Z-0.125000
G01 X78.806435 Y223.048235 Z-0.125000
G01 X79.473183 Y222.720153 Z-0.125000
G01 X80.139931 Y222.042822 Z-0.125000
G01 X80.468013 Y221.047992 Z-0.125000
G01 X80.468013 Y220.381244 Z-0.125000
G01 X80.139931 Y219.381122 Z-0.125000
G01 X79.473183 Y218.714374 Z-0.125000
G01 X78.806435 Y218.381000 Z-0.125000
G01 X77.801022 Y218.381000 Z-0.125000
G01 X77.144857 Y218.714374 Z-0.125000
G01 X76.467526 Y219.381122 Z-0.125000
G00 Z5.000000

(End cutting path id: path1124)


(Start cutting path id: path1124)
(Change tool to Default tool)

G00 Z5.000000
G00 X76.467526 Y222.042822

G01 Z-0.125000 F100.0(Penetrate)
G01 X77.144857 Y222.720153 Z-0.125000 F400.000000
G01 X77.801022 Y223.048235 Z-0.125000
G01 X78.806435 Y223.048235 Z-0.125000
G01 X79.473183 Y222.720153 Z-0.125000
G01 X80.139931 Y222.042822 Z-0.125000
G01 X80.468013 Y221.047992 Z-0.125000
G01 X80.468013 Y220.381244 Z-0.125000
G01 X80.139931 Y219.381122 Z-0.125000
G01 X79.473183 Y218.714374 Z-0.125000
G01 X78.806435 Y218.381000 Z-0.125000
G01 X77.801022 Y218.381000 Z-0.125000
G01 X77.144857 Y218.714374 Z-0.125000
G01 X76.467526 Y219.381122 Z-0.125000
G00 Z5.000000

(End cutting path id: path1124)


(Start cutting path id: path1120)
(Change tool to Default tool)

G00 Z5.000000
G00 X73.811161 Y222.042822

G01 Z-0.125000 F100.0(Penetrate)
G01 X73.144413 Y222.720153 Z-0.125000 F400.000000
G01 X72.477665 Y223.048235 Z-0.125000
G01 X71.472252 Y223.048235 Z-0.125000
G01 X70.816087 Y222.720153 Z-0.125000
G01 X70.138756 Y222.042822 Z-0.125000
G01 X69.810674 Y221.047992 Z-0.125000
G01 X69.810674 Y220.381244 Z-0.125000
G01 X70.138756 Y219.381122 Z-0.125000
G01 X70.816087 Y218.714374 Z-0.125000
G01 X71.472252 Y218.381000 Z-0.125000
G01 X72.477665 Y218.381000 Z-0.125000
G01 X73.144413 Y218.714374 Z-0.125000
G01 X73.811161 Y219.381122 Z-0.125000
G00 Z5.000000

(End cutting path id: path1120)


(Start cutting path id: path1120)
(Change tool to Default tool)

G00 Z5.000000
G00 X73.811161 Y222.042822

G01 Z-0.125000 F100.0(Penetrate)
G01 X73.144413 Y222.720153 Z-0.125000 F400.000000
G01 X72.477665 Y223.048235 Z-0.125000
G01 X71.472252 Y223.048235 Z-0.125000
G01 X70.816087 Y222.720153 Z-0.125000
G01 X70.138756 Y222.042822 Z-0.125000
G01 X69.810674 Y221.047992 Z-0.125000
G01 X69.810674 Y220.381244 Z-0.125000
G01 X70.138756 Y219.381122 Z-0.125000
G01 X70.816087 Y218.714374 Z-0.125000
G01 X71.472252 Y218.381000 Z-0.125000
G01 X72.477665 Y218.381000 Z-0.125000
G01 X73.144413 Y218.714374 Z-0.125000
G01 X73.811161 Y219.381122 Z-0.125000
G00 Z5.000000

(End cutting path id: path1120)


(Start cutting path id: path1050)
(Change tool to Default tool)

G00 Z5.000000
G00 X73.811161 Y223.048235

G01 Z-0.125000 F100.0(Penetrate)
G01 X73.811161 Y218.381000 Z-0.125000 F400.000000
G00 Z5.000000

(End cutting path id: path1050)


(Start cutting path id: path1050)
(Change tool to Default tool)

G00 Z5.000000
G00 X73.811161 Y223.048235

G01 Z-0.125000 F100.0(Penetrate)
G01 X73.811161 Y218.381000 Z-0.125000 F400.000000
G00 Z5.000000

(End cutting path id: path1050)


(Start cutting path id: path1052)
(Change tool to Default tool)

G00 Z5.000000
G00 X76.467526 Y225.387145

G01 Z-0.125000 F100.0(Penetrate)
G01 X76.467526 Y218.381000 Z-0.125000 F400.000000
G00 Z5.000000

(End cutting path id: path1052)


(Start cutting path id: path1052)
(Change tool to Default tool)

G00 Z5.000000
G00 X76.467526 Y225.387145

G01 Z-0.125000 F100.0(Penetrate)
G01 X76.467526 Y218.381000 Z-0.125000 F400.000000
G00 Z5.000000

(End cutting path id: path1052)


(Start cutting path id: path1116)
(Change tool to Default tool)

G00 Z5.000000
G00 X67.482345 Y225.387145

G01 Z-0.125000 F100.0(Penetrate)
G01 X67.482345 Y218.381000 Z-0.125000 F400.000000
G00 Z5.000000

(End cutting path id: path1116)


(Start cutting path id: path1116)
(Change tool to Default tool)

G00 Z5.000000
G00 X67.482345 Y225.387145

G01 Z-0.125000 F100.0(Penetrate)
G01 X67.482345 Y218.381000 Z-0.125000 F400.000000
G00 Z5.000000

(End cutting path id: path1116)


(Start cutting path id: path1048)
(Change tool to Default tool)

G00 Z5.000000
G00 X62.804526 Y225.387145

G01 Z-0.125000 F100.0(Penetrate)
G01 X62.804526 Y218.381000 Z-0.125000 F400.000000
G00 Z5.000000

(End cutting path id: path1048)


(Start cutting path id: path1048)
(Change tool to Default tool)

G00 Z5.000000
G00 X62.804526 Y225.387145

G01 Z-0.125000 F100.0(Penetrate)
G01 X62.804526 Y218.381000 Z-0.125000 F400.000000
G00 Z5.000000

(End cutting path id: path1048)


(Start cutting path id: path1114)
(Change tool to Default tool)

G00 Z5.000000
G00 X62.804526 Y225.387145

G01 Z-0.125000 F100.0(Penetrate)
G01 X67.482345 Y218.381000 Z-0.125000 F400.000000
G00 Z5.000000

(End cutting path id: path1114)


(Start cutting path id: path1114)
(Change tool to Default tool)

G00 Z5.000000
G00 X62.804526 Y225.387145

G01 Z-0.125000 F100.0(Penetrate)
G01 X67.482345 Y218.381000 Z-0.125000 F400.000000
G00 Z5.000000

(End cutting path id: path1114)


(Footer)
M5
G00 X0.0000 Y0.0000
M2
(Using default footer. To add your own footer create file "footer" in the output dir.)
(end)
%