%
(Header)
(Generated by gcodetools from Inkscape.)
(Using default header. To add your own header create file "header" in the output dir.)
M3
(Header end.)
G21 (All units in mm)

(Start cutting path id: path2823)
(Change tool to Default tool)

G00 Z5.000000
G00 X77.690049 Y236.971822

G01 Z-0.125000 F100.0(Penetrate)
G01 X77.351383 Y237.649153 Z-0.125000 F400.000000
G01 X76.356553 Y237.977235 Z-0.125000
G01 X75.351139 Y237.977235 Z-0.125000
G01 X74.345726 Y237.649153 Z-0.125000
G01 X74.017644 Y236.971822 Z-0.125000
G01 X74.345726 Y236.315657 Z-0.125000
G01 X75.023057 Y235.976992 Z-0.125000
G01 X76.684635 Y235.638326 Z-0.125000
G01 X77.351383 Y235.310244 Z-0.125000
G01 X77.690049 Y234.643496 Z-0.125000
G01 X77.690049 Y234.310122 Z-0.125000
G01 X77.351383 Y233.643374 Z-0.125000
G01 X76.356553 Y233.310000 Z-0.125000
G01 X75.351139 Y233.310000 Z-0.125000
G01 X74.345726 Y233.643374 Z-0.125000
G01 X74.017644 Y234.310122 Z-0.125000
G00 Z5.000000

(End cutting path id: path2823)


(Start cutting path id: path2823)
(Change tool to Default tool)

G00 Z5.000000
G00 X77.690049 Y236.971822

G01 Z-0.125000 F100.0(Penetrate)
G01 X77.351383 Y237.649153 Z-0.125000 F400.000000
G01 X76.356553 Y237.977235 Z-0.125000
G01 X75.351139 Y237.977235 Z-0.125000
G01 X74.345726 Y237.649153 Z-0.125000
G01 X74.017644 Y236.971822 Z-0.125000
G01 X74.345726 Y236.315657 Z-0.125000
G01 X75.023057 Y235.976992 Z-0.125000
G01 X76.684635 Y235.638326 Z-0.125000
G01 X77.351383 Y235.310244 Z-0.125000
G01 X77.690049 Y234.643496 Z-0.125000
G01 X77.690049 Y234.310122 Z-0.125000
G01 X77.351383 Y233.643374 Z-0.125000
G01 X76.356553 Y233.310000 Z-0.125000
G01 X75.351139 Y233.310000 Z-0.125000
G01 X74.345726 Y233.643374 Z-0.125000
G01 X74.017644 Y234.310122 Z-0.125000
G00 Z5.000000

(End cutting path id: path2823)


(Start cutting path id: path2873)
(Change tool to Default tool)

G00 Z5.000000
G00 X71.689331 Y236.971822

G01 Z-0.125000 F100.0(Penetrate)
G01 X71.022583 Y237.649153 Z-0.125000 F400.000000
G01 X70.355835 Y237.977235 Z-0.125000
G01 X69.350422 Y237.977235 Z-0.125000
G01 X68.694257 Y237.649153 Z-0.125000
G01 X68.016926 Y236.971822 Z-0.125000
G01 X67.688844 Y235.976992 Z-0.125000
G01 X67.688844 Y235.310244 Z-0.125000
G01 X68.016926 Y234.310122 Z-0.125000
G01 X68.694257 Y233.643374 Z-0.125000
G01 X69.350422 Y233.310000 Z-0.125000
G01 X70.355835 Y233.310000 Z-0.125000
G01 X71.022583 Y233.643374 Z-0.125000
G01 X71.689331 Y234.310122 Z-0.125000
G00 Z5.000000

(End cutting path id: path2873)


(Start cutting path id: path2873)
(Change tool to Default tool)

G00 Z5.000000
G00 X71.689331 Y236.971822

G01 Z-0.125000 F100.0(Penetrate)
G01 X71.022583 Y237.649153 Z-0.125000 F400.000000
G01 X70.355835 Y237.977235 Z-0.125000
G01 X69.350422 Y237.977235 Z-0.125000
G01 X68.694257 Y237.649153 Z-0.125000
G01 X68.016926 Y236.971822 Z-0.125000
G01 X67.688844 Y235.976992 Z-0.125000
G01 X67.688844 Y235.310244 Z-0.125000
G01 X68.016926 Y234.310122 Z-0.125000
G01 X68.694257 Y233.643374 Z-0.125000
G01 X69.350422 Y233.310000 Z-0.125000
G01 X70.355835 Y233.310000 Z-0.125000
G01 X71.022583 Y233.643374 Z-0.125000
G01 X71.689331 Y234.310122 Z-0.125000
G00 Z5.000000

(End cutting path id: path2873)


(Start cutting path id: path2821)
(Change tool to Default tool)

G00 Z5.000000
G00 X71.689331 Y237.977235

G01 Z-0.125000 F100.0(Penetrate)
G01 X71.689331 Y233.310000 Z-0.125000 F400.000000
G00 Z5.000000

(End cutting path id: path2821)


(Start cutting path id: path2821)
(Change tool to Default tool)

G00 Z5.000000
G00 X71.689331 Y237.977235

G01 Z-0.125000 F100.0(Penetrate)
G01 X71.689331 Y233.310000 Z-0.125000 F400.000000
G00 Z5.000000

(End cutting path id: path2821)


(Start cutting path id: path2819)
(Change tool to Default tool)

G00 Z5.000000
G00 X65.349926 Y240.316145

G01 Z-0.125000 F100.0(Penetrate)
G01 X65.349926 Y233.310000 Z-0.125000 F400.000000
G00 Z5.000000

(End cutting path id: path2819)


(Start cutting path id: path2819)
(Change tool to Default tool)

G00 Z5.000000
G00 X65.349926 Y240.316145

G01 Z-0.125000 F100.0(Penetrate)
G01 X65.349926 Y233.310000 Z-0.125000 F400.000000
G00 Z5.000000

(End cutting path id: path2819)


(Start cutting path id: path2817)
(Change tool to Default tool)

G00 Z5.000000
G00 X60.354522 Y237.977235

G01 Z-0.125000 F100.0(Penetrate)
G01 X59.698357 Y237.649153 Z-0.125000 F400.000000
G01 X59.021026 Y236.971822 Z-0.125000
G01 X58.692944 Y235.976992 Z-0.125000
G01 X58.692944 Y235.310244 Z-0.125000
G01 X59.021026 Y234.310122 Z-0.125000
G01 X59.698357 Y233.643374 Z-0.125000
G01 X60.354522 Y233.310000 Z-0.125000
G01 X61.359935 Y233.310000 Z-0.125000
G01 X62.026683 Y233.643374 Z-0.125000
G01 X62.693431 Y234.310122 Z-0.125000
G01 X63.021513 Y235.310244 Z-0.125000
G01 X63.021513 Y235.976992 Z-0.125000
G01 X62.693431 Y236.971822 Z-0.125000
G01 X62.026683 Y237.649153 Z-0.125000
G01 X61.359935 Y237.977235 Z-0.125000
G01 X60.354522 Y237.977235 Z-0.125000
G00 Z5.000000

(End cutting path id: path2817)


(Start cutting path id: path2817)
(Change tool to Default tool)

G00 Z5.000000
G00 X60.354522 Y237.977235

G01 Z-0.125000 F100.0(Penetrate)
G01 X59.698357 Y237.649153 Z-0.125000 F400.000000
G01 X59.021026 Y236.971822 Z-0.125000
G01 X58.692944 Y235.976992 Z-0.125000
G01 X58.692944 Y235.310244 Z-0.125000
G01 X59.021026 Y234.310122 Z-0.125000
G01 X59.698357 Y233.643374 Z-0.125000
G01 X60.354522 Y233.310000 Z-0.125000
G01 X61.359935 Y233.310000 Z-0.125000
G01 X62.026683 Y233.643374 Z-0.125000
G01 X62.693431 Y234.310122 Z-0.125000
G01 X63.021513 Y235.310244 Z-0.125000
G01 X63.021513 Y235.976992 Z-0.125000
G01 X62.693431 Y236.971822 Z-0.125000
G01 X62.026683 Y237.649153 Z-0.125000
G01 X61.359935 Y237.977235 Z-0.125000
G01 X60.354522 Y237.977235 Z-0.125000
G00 Z5.000000

(End cutting path id: path2817)


(Start cutting path id: path2815)
(Change tool to Default tool)

G00 Z5.000000
G00 X56.692731 Y236.971822

G01 Z-0.125000 F100.0(Penetrate)
G01 X56.025983 Y237.649153 Z-0.125000 F400.000000
G01 X55.359235 Y237.977235 Z-0.125000
G01 X54.353822 Y237.977235 Z-0.125000
G01 X53.697657 Y237.649153 Z-0.125000
G01 X53.020326 Y236.971822 Z-0.125000
G01 X52.692244 Y235.976992 Z-0.125000
G01 X52.692244 Y235.310244 Z-0.125000
G01 X53.020326 Y234.310122 Z-0.125000
G01 X53.697657 Y233.643374 Z-0.125000
G01 X54.353822 Y233.310000 Z-0.125000
G01 X55.359235 Y233.310000 Z-0.125000
G01 X56.025983 Y233.643374 Z-0.125000
G01 X56.692731 Y234.310122 Z-0.125000
G00 Z5.000000

(End cutting path id: path2815)


(Start cutting path id: path2815)
(Change tool to Default tool)

G00 Z5.000000
G00 X56.692731 Y236.971822

G01 Z-0.125000 F100.0(Penetrate)
G01 X56.025983 Y237.649153 Z-0.125000 F400.000000
G01 X55.359235 Y237.977235 Z-0.125000
G01 X54.353822 Y237.977235 Z-0.125000
G01 X53.697657 Y237.649153 Z-0.125000
G01 X53.020326 Y236.971822 Z-0.125000
G01 X52.692244 Y235.976992 Z-0.125000
G01 X52.692244 Y235.310244 Z-0.125000
G01 X53.020326 Y234.310122 Z-0.125000
G01 X53.697657 Y233.643374 Z-0.125000
G01 X54.353822 Y233.310000 Z-0.125000
G01 X55.359235 Y233.310000 Z-0.125000
G01 X56.025983 Y233.643374 Z-0.125000
G01 X56.692731 Y234.310122 Z-0.125000
G00 Z5.000000

(End cutting path id: path2815)


(Start cutting path id: path2863)
(Change tool to Default tool)

G00 Z5.000000
G00 X50.353356 Y237.977235

G01 Z-0.125000 F100.0(Penetrate)
G01 X50.353356 Y233.310000 Z-0.125000 F400.000000
G00 Z5.000000

(End cutting path id: path2863)


(Start cutting path id: path2863)
(Change tool to Default tool)

G00 Z5.000000
G00 X50.353356 Y237.977235

G01 Z-0.125000 F100.0(Penetrate)
G01 X50.353356 Y233.310000 Z-0.125000 F400.000000
G00 Z5.000000

(End cutting path id: path2863)


(Start cutting path id: path2813)
(Change tool to Default tool)

G00 Z5.000000
G00 X50.025274 Y240.316145

G01 Z-0.125000 F100.0(Penetrate)
G01 X50.353356 Y239.977479 Z-0.125000 F400.000000
G01 X50.692022 Y240.316145 Z-0.125000
G01 X50.353356 Y240.644227 Z-0.125000
G01 X50.025274 Y240.316145 Z-0.125000
G00 Z5.000000

(End cutting path id: path2813)


(Start cutting path id: path2813)
(Change tool to Default tool)

G00 Z5.000000
G00 X50.025274 Y240.316145

G01 Z-0.125000 F100.0(Penetrate)
G01 X50.353356 Y239.977479 Z-0.125000 F400.000000
G01 X50.692022 Y240.316145 Z-0.125000
G01 X50.353356 Y240.644227 Z-0.125000
G01 X50.025274 Y240.316145 Z-0.125000
G00 Z5.000000

(End cutting path id: path2813)


(Start cutting path id: path2859)
(Change tool to Default tool)

G00 Z5.000000
G00 X47.696945 Y240.316145

G01 Z-0.125000 F100.0(Penetrate)
G01 X47.696945 Y233.310000 Z-0.125000 F400.000000
G00 Z5.000000

(End cutting path id: path2859)


(Start cutting path id: path2859)
(Change tool to Default tool)

G00 Z5.000000
G00 X47.696945 Y240.316145

G01 Z-0.125000 F100.0(Penetrate)
G01 X47.696945 Y233.310000 Z-0.125000 F400.000000
G00 Z5.000000

(End cutting path id: path2859)


(Start cutting path id: path2811)
(Change tool to Default tool)

G00 Z5.000000
G00 X43.019126 Y240.316145

G01 Z-0.125000 F100.0(Penetrate)
G01 X43.019126 Y233.310000 Z-0.125000 F400.000000
G00 Z5.000000

(End cutting path id: path2811)


(Start cutting path id: path2811)
(Change tool to Default tool)

G00 Z5.000000
G00 X43.019126 Y240.316145

G01 Z-0.125000 F100.0(Penetrate)
G01 X43.019126 Y233.310000 Z-0.125000 F400.000000
G00 Z5.000000

(End cutting path id: path2811)


(Start cutting path id: path2857)
(Change tool to Default tool)

G00 Z5.000000
G00 X43.019126 Y240.316145

G01 Z-0.125000 F100.0(Penetrate)
G01 X47.696945 Y233.310000 Z-0.125000 F400.000000
G00 Z5.000000

(End cutting path id: path2857)


(Start cutting path id: path2857)
(Change tool to Default tool)

G00 Z5.000000
G00 X43.019126 Y240.316145

G01 Z-0.125000 F100.0(Penetrate)
G01 X47.696945 Y233.310000 Z-0.125000 F400.000000
G00 Z5.000000

(End cutting path id: path2857)


(Footer)
M5
G00 X0.0000 Y0.0000
M2
(Using default footer. To add your own footer create file "footer" in the output dir.)
(end)
%